(.../pcb-gcode-3.6.2.4/pcb-gcode.ulp)
(Copyright 2005 - 2012 by John Johnson)
(See readme.txt for licensing terms.)
(This file generated from the board:)
(.../projects/WEx2018/iSecure2.0.1.brd)
(Current profile is .../pcb-gcode-3.6.2.4/profiles/mach.pp  )
(This file generated 18-Jul-18 2:54 AM)
(Settings from pcb-machine.h)
(spindle on time = 3.0000)
(spindle speed = 20000.0000)
(tool change at 0.0000  0.0000  10.0000 )
(feed rate xy = F0     )
(feed rate z  = F60    )
(Z Axis Settings)
(  High     Up        Down     Drill)
(10.0000 	2.0000  	-0.0500 	-1.7000 )
(Settings from pcb-defaults.h)
(isolate min = 0.2000)
(isolate max = 0.4000)
(isolate step = 0.2000)
(Generated bottom outlines, bottom drill, )
(Unit of measure: mm)
( Tool|       Size       |  Min Sub |  Max Sub |   Count )
( T01 | 0.700mm 0.0276in | 0.0000in | 0.0000in |       0 )
( T02 | 0.813mm 0.0320in | 0.0000in | 0.0000in |       0 )
( T03 | 0.914mm 0.0360in | 0.0000in | 0.0000in |       0 )
( T04 | 1.190mm 0.0468in | 0.0000in | 0.0000in |       0 )
(Metric Mode)
G21
(Absolute Coordinates)
G90
S20000
G00 Z10.0000 
G00 X0.0000  Y0.0000  
M03
G04 P3.000000
M05
M06 T01  ; 0.7000  
G00 Z2.0000  
M03
G04 P3.000000
G82 X-54.6100 Y24.9700 Z-1.7000 F60    R2.0000  P1.000000
G82 X-54.6100 Y28.3700 
M05
G00 Z10.0000 
G00 X0.0000  Y0.0000  
M06 T02  ; 0.8128  
G00 Z2.0000  
M03
G04 P3.000000
G82 X-11.4300 Y12.7000 Z-1.7000 F60    R2.0000  P1.000000
G82 X-11.4300 Y17.7800 
G82 X-16.5100 Y29.2100 
G82 X-24.1300 Y29.2100 
G82 X-24.1300 Y26.6700 
G82 X-24.1300 Y22.8600 
G82 X-31.7500 Y19.0500 
G82 X-31.7500 Y26.6700 
G82 X-31.7500 Y29.2100 
G82 X-31.7500 Y31.7500 
G82 X-31.7500 Y34.2900 
G82 X-31.7500 Y36.8300 
G82 X-31.7500 Y39.3700 
G82 X-31.7500 Y41.9100 
G82 X-24.1300 Y41.9100 
G82 X-24.1300 Y39.3700 
G82 X-24.1300 Y36.8300 
G82 X-24.1300 Y34.2900 
G82 X-24.1300 Y31.7500 
G82 X-16.5100 Y41.9100 
G82 X-11.4300 Y41.9100 
G82 X-11.4300 Y54.6100 
G82 X-44.4500 Y53.3400 
G82 X-44.4500 Y55.8800 
G82 X-69.8500 Y43.1800 
G82 X-69.8500 Y40.6400 
G82 X-69.8500 Y38.1000 
G82 X-74.9300 Y33.0200 
G82 X-87.6300 Y33.0200 
G82 X-87.6300 Y35.5600 
G82 X-87.6300 Y30.4800 
G82 X-67.3100 Y15.2400 
G82 X-54.6100 Y15.2400 
G82 X-44.4500 Y19.0500 
G82 X-24.1300 Y10.1600 
G82 X-62.2300 Y33.0200 
M05
G00 Z10.0000 
G00 X0.0000  Y0.0000  
M06 T03  ; 0.9144  
G00 Z2.0000  
M03
G04 P3.000000
G82 X-8.8900 Y58.4200 Z-1.7000 F60    R2.0000  P1.000000
G82 X-11.4300 Y58.4200 
G82 X-78.7400 Y33.0200 
G82 X-78.7400 Y30.4800 
M05
G00 Z10.0000 
G00 X0.0000  Y0.0000  
M06 T04  ; 1.1899  
G00 Z2.0000  
M03
G04 P3.000000
G82 X-72.3900 Y58.4200 Z-1.7000 F60    R2.0000  P1.000000
G82 X-80.0100 Y58.4200 
T01 
G00 Z10.0000 
M05
M02
