(.../pcb-gcode-3.6.2.4/pcb-gcode.ulp)
(Copyright 2005 - 2012 by John Johnson)
(See readme.txt for licensing terms.)
(This file generated from the board:)
(.../projects/WEx2018/iSecure2.0.1.brd)
(Current profile is .../pcb-gcode-3.6.2.4/profiles/mach.pp  )
(This file generated 18-Jul-18 2:54 AM)
(Settings from pcb-machine.h)
(spindle on time = 3.0000)
(  Tool Size)
(0.2000  )
(spindle speed = 30000.0000)
(tool change at 0.0000  0.0000  10.0000 )
(feed rate xy = F120   )
(feed rate z  = F120   )
(Z Axis Settings)
(  High     Up        Down     Drill)
(10.0000 	2.0000  	-0.0500 	-1.7000 )
(Settings from pcb-defaults.h)
(isolate min = 0.2000)
(isolate max = 0.4000)
(isolate step = 0.2000)
(Generated bottom outlines, bottom drill, )
(Unit of measure: mm)
(Metric Mode)
G21
(Absolute Coordinates)
G90
S30000
G00 Z10.0000 
G00 X0.0000  Y0.0000  
M03
G04 P3.000000
G00 Z2.0000  
G00 X-5.6435 Y8.3102  
G01 Z-0.0500 F120   
G01 X-5.7702 Y8.1835  F120   
G01 X-5.9191 Y8.0839  
G01 X-6.0847 Y8.0154  
G01 X-6.2604 Y7.9804  
G01 X-18.6732 Y7.9804  
G01 X-20.8835 Y5.7702  
G01 X-21.0102 Y5.6435  
G01 X-21.1591 Y5.5439  
G01 X-21.3247 Y5.4754  
G01 X-21.5004 Y5.4404  
G01 X-78.8296 Y5.4404  
G01 X-79.0053 Y5.4754  
G01 X-79.1709 Y5.5439  
G01 X-79.3198 Y5.6435  
G01 X-79.4465 Y5.7702  
G01 X-79.5461 Y5.9191  
G01 X-79.6146 Y6.0847  
G01 X-79.6496 Y6.2604  
G01 X-79.6496 Y29.4885 
G01 X-79.7462 Y29.5077 
G01 X-79.8976 Y29.5704 
G01 X-86.6559 Y29.5704 
G01 X-86.6895 Y29.5565 
G01 X-86.8750 Y29.5196 
G01 X-88.3850 Y29.5196 
G01 X-88.5705 Y29.5565 
G01 X-88.7453 Y29.6289 
G01 X-88.9026 Y29.7340 
G01 X-89.0364 Y29.8678 
G01 X-89.1415 Y30.0251 
G01 X-89.2139 Y30.1999 
G01 X-89.2508 Y30.3854 
G01 X-89.2508 Y30.5746 
G01 X-89.2139 Y30.7601 
G01 X-89.1415 Y30.9349 
G01 X-89.0364 Y31.0922 
G01 X-88.9026 Y31.2260 
G01 X-88.7453 Y31.3311 
G01 X-88.5705 Y31.4035 
G01 X-88.3850 Y31.4404 
G01 X-86.8750 Y31.4404 
G01 X-86.6895 Y31.4035 
G01 X-86.6559 Y31.3896 
G01 X-79.8976 Y31.3896 
G01 X-79.7462 Y31.4523 
G01 X-79.5508 Y31.4912 
G01 X-77.9292 Y31.4912 
G01 X-77.7338 Y31.4523 
G01 X-77.5498 Y31.3761 
G01 X-77.3842 Y31.2654 
G01 X-77.2434 Y31.1246 
G01 X-77.1327 Y30.9590 
G01 X-77.0565 Y30.7750 
G01 X-77.0176 Y30.5796 
G01 X-77.0176 Y30.3804 
G01 X-77.0565 Y30.1850 
G01 X-77.1327 Y30.0010 
G01 X-77.2434 Y29.8354 
G01 X-77.3842 Y29.6945 
G01 X-77.5498 Y29.5839 
G01 X-77.7338 Y29.5077 
G01 X-77.8304 Y29.4885 
G01 X-77.8304 Y28.8496 
G01 X-72.7668 Y28.8496 
G01 X-70.7596 Y30.8568 
G01 X-70.7596 Y37.1704 
G01 X-70.7905 Y37.1765 
G01 X-70.9653 Y37.2489 
G01 X-71.1226 Y37.3540 
G01 X-71.2564 Y37.4878 
G01 X-71.3615 Y37.6451 
G01 X-71.4339 Y37.8199 
G01 X-71.4708 Y38.0054 
G01 X-71.4708 Y38.1946 
G01 X-71.4339 Y38.3801 
G01 X-71.3615 Y38.5549 
G01 X-71.2564 Y38.7122 
G01 X-71.1226 Y38.8460 
G01 X-70.9653 Y38.9511 
G01 X-70.7905 Y39.0235 
G01 X-70.6050 Y39.0604 
G01 X-69.0950 Y39.0604 
G01 X-68.9095 Y39.0235 
G01 X-68.7347 Y38.9511 
G01 X-68.5774 Y38.8460 
G01 X-68.4436 Y38.7122 
G01 X-68.3385 Y38.5549 
G01 X-68.2661 Y38.3801 
G01 X-68.2292 Y38.1946 
G01 X-68.2292 Y38.0054 
G01 X-68.2661 Y37.8199 
G01 X-68.3385 Y37.6451 
G01 X-68.4436 Y37.4878 
G01 X-68.5774 Y37.3540 
G01 X-68.7347 Y37.2489 
G01 X-68.9095 Y37.1765 
G01 X-68.9404 Y37.1704 
G01 X-68.9404 Y30.3904 
G01 X-68.9754 Y30.2147 
G01 X-69.0439 Y30.0491 
G01 X-69.1435 Y29.9002 
G01 X-71.8102 Y27.2335 
G01 X-71.9591 Y27.1339 
G01 X-72.1247 Y27.0654 
G01 X-72.3004 Y27.0304 
G01 X-77.8304 Y27.0304 
G01 X-77.8304 Y7.2596  
G01 X-21.9668 Y7.2596  
G01 X-19.9596 Y9.2668  
G01 X-19.9596 Y21.9504 
G01 X-23.6814 Y21.9504 
G01 X-23.7322 Y21.8996 
G01 X-24.5278 Y21.8996 
G01 X-24.5786 Y21.9504 
G01 X-25.0232 Y21.9504 
G01 X-28.5035 Y18.4702 
G01 X-28.6302 Y18.3435 
G01 X-28.7791 Y18.2439 
G01 X-28.9447 Y18.1754 
G01 X-29.1204 Y18.1404 
G01 X-31.3014 Y18.1404 
G01 X-31.3522 Y18.0896 
G01 X-32.1478 Y18.0896 
G01 X-32.7104 Y18.6522 
G01 X-32.7104 Y19.4478 
G01 X-32.1478 Y20.0104 
G01 X-31.3522 Y20.0104 
G01 X-31.3014 Y19.9596 
G01 X-29.5868 Y19.9596 
G01 X-26.1065 Y23.4398 
G01 X-25.9798 Y23.5665 
G01 X-25.8309 Y23.6661 
G01 X-25.6653 Y23.7346 
G01 X-25.4896 Y23.7696 
G01 X-24.5786 Y23.7696 
G01 X-24.5278 Y23.8204 
G01 X-23.7322 Y23.8204 
G01 X-23.6814 Y23.7696 
G01 X-19.9596 Y23.7696 
G01 X-19.9596 Y25.7604 
G01 X-23.1559 Y25.7604 
G01 X-23.1895 Y25.7465 
G01 X-23.3750 Y25.7096 
G01 X-24.8850 Y25.7096 
G01 X-25.0705 Y25.7465 
G01 X-25.2453 Y25.8189 
G01 X-25.4026 Y25.9240 
G01 X-25.5364 Y26.0578 
G01 X-25.6415 Y26.2151 
G01 X-25.7139 Y26.3899 
G01 X-25.7508 Y26.5754 
G01 X-25.7508 Y26.7646 
G01 X-25.7139 Y26.9501 
G01 X-25.6415 Y27.1249 
G01 X-25.5364 Y27.2822 
G01 X-25.4026 Y27.4160 
G01 X-25.2453 Y27.5211 
G01 X-25.0705 Y27.5935 
G01 X-24.8850 Y27.6304 
G01 X-23.3750 Y27.6304 
G01 X-23.1895 Y27.5935 
G01 X-23.1559 Y27.5796 
G01 X-18.9604 Y27.5796 
G01 X-18.7847 Y27.5446 
G01 X-18.6191 Y27.4761 
G01 X-18.4702 Y27.3765 
G01 X-18.3435 Y27.2498 
G01 X-18.2439 Y27.1009 
G01 X-18.1754 Y26.9353 
G01 X-18.1404 Y26.7596 
G01 X-18.1404 Y9.7996  
G01 X-12.3396 Y9.7996  
G01 X-12.3396 Y12.2514 
G01 X-12.3904 Y12.3022 
G01 X-12.3904 Y13.0978 
G01 X-11.8278 Y13.6604 
G01 X-11.0322 Y13.6604 
G01 X-10.4696 Y13.0978 
G01 X-10.4696 Y12.3022 
G01 X-10.5204 Y12.2514 
G01 X-10.5204 Y9.7996  
G01 X-7.2596 Y9.7996  
G01 X-7.2596 Y57.5104 
G01 X-7.8985 Y57.5104 
G01 X-7.9177 Y57.4138 
G01 X-7.9939 Y57.2298 
G01 X-8.1045 Y57.0642 
G01 X-8.2454 Y56.9233 
G01 X-8.4110 Y56.8127 
G01 X-8.5950 Y56.7365 
G01 X-8.7904 Y56.6976 
G01 X-8.9896 Y56.6976 
G01 X-9.1850 Y56.7365 
G01 X-9.3690 Y56.8127 
G01 X-9.5346 Y56.9233 
G01 X-9.6754 Y57.0642 
G01 X-9.7861 Y57.2298 
G01 X-9.8623 Y57.4138 
G01 X-9.9012 Y57.6092 
G01 X-9.9012 Y59.2308 
G01 X-9.8623 Y59.4262 
G01 X-9.7861 Y59.6102 
G01 X-9.6754 Y59.7758 
G01 X-9.5346 Y59.9166 
G01 X-9.3690 Y60.0273 
G01 X-9.1850 Y60.1035 
G01 X-8.9896 Y60.1424 
G01 X-8.7904 Y60.1424 
G01 X-8.5950 Y60.1035 
G01 X-8.4110 Y60.0273 
G01 X-8.2454 Y59.9166 
G01 X-8.1045 Y59.7758 
G01 X-7.9939 Y59.6102 
G01 X-7.9177 Y59.4262 
G01 X-7.8985 Y59.3296 
G01 X-6.2604 Y59.3296 
G01 X-6.0847 Y59.2946 
G01 X-5.9191 Y59.2261 
G01 X-5.7702 Y59.1265 
G01 X-5.6435 Y58.9998 
G01 X-5.5439 Y58.8509 
G01 X-5.4754 Y58.6853 
G01 X-5.4404 Y58.5096 
G01 X-5.4404 Y8.8004  
G01 X-5.4754 Y8.6247  
G01 X-5.5439 Y8.4591  
G01 X-5.6435 Y8.3102  
G00 Z2.0000  
G00 X-10.6840 Y17.1678 
G01 Z-0.0500 F120   
G01 X-10.8178 Y17.0340 F120   
G01 X-10.9751 Y16.9289 
G01 X-11.1499 Y16.8565 
G01 X-11.3354 Y16.8196 
G01 X-11.5246 Y16.8196 
G01 X-11.7101 Y16.8565 
G01 X-11.8849 Y16.9289 
G01 X-12.0422 Y17.0340 
G01 X-12.1760 Y17.1678 
G01 X-12.2811 Y17.3251 
G01 X-12.3535 Y17.4999 
G01 X-12.3904 Y17.6854 
G01 X-12.3904 Y17.8746 
G01 X-12.3535 Y18.0601 
G01 X-12.3396 Y18.0937 
G01 X-12.3396 Y28.3004 
G01 X-16.0614 Y28.3004 
G01 X-16.1122 Y28.2496 
G01 X-16.9078 Y28.2496 
G01 X-16.9586 Y28.3004 
G01 X-23.1559 Y28.3004 
G01 X-23.1895 Y28.2865 
G01 X-23.3750 Y28.2496 
G01 X-24.8850 Y28.2496 
G01 X-25.0705 Y28.2865 
G01 X-25.2453 Y28.3589 
G01 X-25.4026 Y28.4640 
G01 X-25.5364 Y28.5978 
G01 X-25.6415 Y28.7551 
G01 X-25.7139 Y28.9299 
G01 X-25.7508 Y29.1154 
G01 X-25.7508 Y29.3046 
G01 X-25.7139 Y29.4901 
G01 X-25.6415 Y29.6649 
G01 X-25.5364 Y29.8222 
G01 X-25.4026 Y29.9560 
G01 X-25.2453 Y30.0611 
G01 X-25.0705 Y30.1335 
G01 X-24.8850 Y30.1704 
G01 X-23.3750 Y30.1704 
G01 X-23.1895 Y30.1335 
G01 X-23.1559 Y30.1196 
G01 X-21.2296 Y30.1196 
G01 X-21.2296 Y38.4604 
G01 X-23.1559 Y38.4604 
G01 X-23.1895 Y38.4465 
G01 X-23.3750 Y38.4096 
G01 X-24.8850 Y38.4096 
G01 X-25.0705 Y38.4465 
G01 X-25.2453 Y38.5189 
G01 X-25.4026 Y38.6240 
G01 X-25.5364 Y38.7578 
G01 X-25.6415 Y38.9151 
G01 X-25.7139 Y39.0899 
G01 X-25.7508 Y39.2754 
G01 X-25.7508 Y39.4646 
G01 X-25.7139 Y39.6501 
G01 X-25.6415 Y39.8249 
G01 X-25.5364 Y39.9822 
G01 X-25.4026 Y40.1160 
G01 X-25.2453 Y40.2211 
G01 X-25.0705 Y40.2935 
G01 X-24.8850 Y40.3304 
G01 X-23.3750 Y40.3304 
G01 X-23.1895 Y40.2935 
G01 X-23.1559 Y40.2796 
G01 X-20.2304 Y40.2796 
G01 X-20.0547 Y40.2446 
G01 X-19.8891 Y40.1761 
G01 X-19.7402 Y40.0765 
G01 X-19.6135 Y39.9498 
G01 X-19.5139 Y39.8009 
G01 X-19.4454 Y39.6353 
G01 X-19.4104 Y39.4596 
G01 X-19.4104 Y30.1196 
G01 X-16.9586 Y30.1196 
G01 X-16.9078 Y30.1704 
G01 X-16.1122 Y30.1704 
G01 X-16.0614 Y30.1196 
G01 X-11.3404 Y30.1196 
G01 X-11.1647 Y30.0846 
G01 X-10.9991 Y30.0161 
G01 X-10.8502 Y29.9165 
G01 X-10.7235 Y29.7898 
G01 X-10.6239 Y29.6409 
G01 X-10.5554 Y29.4753 
G01 X-10.5204 Y29.2996 
G01 X-10.5204 Y18.0937 
G01 X-10.5065 Y18.0601 
G01 X-10.4696 Y17.8746 
G01 X-10.4696 Y17.6854 
G01 X-10.5065 Y17.4999 
G01 X-10.5789 Y17.3251 
G01 X-10.6840 Y17.1678 
G00 Z2.0000  
G00 X-23.7322 Y11.1204 
G01 Z-0.0500 F120   
G01 X-23.1696 Y10.5578 F120   
G01 X-23.1696 Y9.7622  
G01 X-23.7322 Y9.1996  
G01 X-24.5278 Y9.1996  
G01 X-24.5786 Y9.2504  
G01 X-49.6196 Y9.2504  
G01 X-49.7953 Y9.2854  
G01 X-49.9609 Y9.3539  
G01 X-50.1098 Y9.4535  
G01 X-54.9360 Y14.2796 
G01 X-55.0078 Y14.2796 
G01 X-55.5704 Y14.8422 
G01 X-55.5704 Y15.6378 
G01 X-55.5196 Y15.6886 
G01 X-55.5196 Y24.5528 
G01 X-55.5716 Y24.6783 
G01 X-55.6100 Y24.8715 
G01 X-55.6100 Y25.0685 
G01 X-55.5716 Y25.2617 
G01 X-55.4962 Y25.4437 
G01 X-55.3867 Y25.6075 
G01 X-55.2475 Y25.7467 
G01 X-55.0837 Y25.8562 
G01 X-54.9017 Y25.9316 
G01 X-54.7085 Y25.9700 
G01 X-54.5115 Y25.9700 
G01 X-54.3183 Y25.9316 
G01 X-54.1363 Y25.8562 
G01 X-53.9725 Y25.7467 
G01 X-53.8332 Y25.6075 
G01 X-53.7238 Y25.4437 
G01 X-53.6484 Y25.2617 
G01 X-53.6100 Y25.0685 
G01 X-53.6100 Y24.8715 
G01 X-53.6484 Y24.6783 
G01 X-53.7004 Y24.5528 
G01 X-53.7004 Y15.6886 
G01 X-53.6496 Y15.6378 
G01 X-53.6496 Y15.5660 
G01 X-49.1532 Y11.0696 
G01 X-24.5786 Y11.0696 
G01 X-24.5278 Y11.1204 
G01 X-23.7322 Y11.1204 
G00 Z2.0000  
G00 X-36.1235 Y13.3902 
G01 Z-0.0500 F120   
G01 X-36.2502 Y13.2635 F120   
G01 X-36.3991 Y13.1639 
G01 X-36.5647 Y13.0954 
G01 X-36.7404 Y13.0604 
G01 X-47.0796 Y13.0604 
G01 X-47.2553 Y13.0954 
G01 X-47.4209 Y13.1639 
G01 X-47.5698 Y13.2635 
G01 X-51.3798 Y17.0735 
G01 X-51.5065 Y17.2002 
G01 X-51.6061 Y17.3491 
G01 X-51.6746 Y17.5147 
G01 X-51.7096 Y17.6904 
G01 X-51.7096 Y32.1104 
G01 X-53.7004 Y32.1104 
G01 X-53.7004 Y28.7872 
G01 X-53.6484 Y28.6617 
G01 X-53.6100 Y28.4685 
G01 X-53.6100 Y28.2715 
G01 X-53.6484 Y28.0783 
G01 X-53.7238 Y27.8963 
G01 X-53.8332 Y27.7325 
G01 X-53.9725 Y27.5933 
G01 X-54.1363 Y27.4838 
G01 X-54.3183 Y27.4084 
G01 X-54.5115 Y27.3700 
G01 X-54.7085 Y27.3700 
G01 X-54.9017 Y27.4084 
G01 X-55.0837 Y27.4838 
G01 X-55.2475 Y27.5933 
G01 X-55.3867 Y27.7325 
G01 X-55.4962 Y27.8963 
G01 X-55.5716 Y28.0783 
G01 X-55.6100 Y28.2715 
G01 X-55.6100 Y28.4685 
G01 X-55.5716 Y28.6617 
G01 X-55.5196 Y28.7872 
G01 X-55.5196 Y32.1104 
G01 X-61.7814 Y32.1104 
G01 X-61.8322 Y32.0596 
G01 X-62.6278 Y32.0596 
G01 X-63.1904 Y32.6222 
G01 X-63.1904 Y33.4178 
G01 X-62.6278 Y33.9804 
G01 X-61.8322 Y33.9804 
G01 X-61.7814 Y33.9296 
G01 X-55.5196 Y33.9296 
G01 X-55.5196 Y54.9704 
G01 X-64.8596 Y54.9704 
G01 X-65.0353 Y55.0054 
G01 X-65.2009 Y55.0739 
G01 X-65.3498 Y55.1735 
G01 X-65.4765 Y55.3002 
G01 X-67.6868 Y57.5104 
G01 X-71.6096 Y57.5104 
G01 X-71.7637 Y57.3979 
G01 X-71.9313 Y57.3126 
G01 X-72.1102 Y57.2544 
G01 X-72.2960 Y57.2250 
G01 X-72.4840 Y57.2250 
G01 X-72.6698 Y57.2544 
G01 X-72.8487 Y57.3126 
G01 X-73.0163 Y57.3979 
G01 X-73.1685 Y57.5085 
G01 X-73.3015 Y57.6415 
G01 X-73.4121 Y57.7937 
G01 X-73.4974 Y57.9613 
G01 X-73.5556 Y58.1402 
G01 X-73.5850 Y58.3259 
G01 X-73.5850 Y58.5140 
G01 X-73.5556 Y58.6998 
G01 X-73.4974 Y58.8787 
G01 X-73.4121 Y59.0463 
G01 X-73.3015 Y59.1985 
G01 X-73.1685 Y59.3315 
G01 X-73.0163 Y59.4421 
G01 X-72.8487 Y59.5274 
G01 X-72.6698 Y59.5856 
G01 X-72.4840 Y59.6150 
G01 X-72.2960 Y59.6150 
G01 X-72.1102 Y59.5856 
G01 X-71.9313 Y59.5274 
G01 X-71.7637 Y59.4421 
G01 X-71.6115 Y59.3315 
G01 X-67.2204 Y59.3296 
G01 X-67.0447 Y59.2946 
G01 X-66.8791 Y59.2261 
G01 X-66.7302 Y59.1265 
G01 X-66.6035 Y58.9998 
G01 X-64.3932 Y56.7896 
G01 X-44.8986 Y56.7896 
G01 X-44.8478 Y56.8404 
G01 X-44.0522 Y56.8404 
G01 X-43.4896 Y56.2778 
G01 X-43.4896 Y55.4822 
G01 X-44.0522 Y54.9196 
G01 X-44.8478 Y54.9196 
G01 X-44.8986 Y54.9704 
G01 X-53.7004 Y54.9704 
G01 X-53.7004 Y33.9296 
G01 X-50.7104 Y33.9296 
G01 X-50.5347 Y33.8946 
G01 X-50.3691 Y33.8261 
G01 X-50.2202 Y33.7265 
G01 X-50.0935 Y33.5998 
G01 X-49.9939 Y33.4509 
G01 X-49.9254 Y33.2853 
G01 X-49.8904 Y33.1096 
G01 X-49.8904 Y18.1568 
G01 X-46.6132 Y14.8796 
G01 X-37.7396 Y14.8796 
G01 X-37.7396 Y22.9496 
G01 X-37.7046 Y23.1253 
G01 X-37.6361 Y23.2909 
G01 X-37.5365 Y23.4398 
G01 X-37.4098 Y23.5665 
G01 X-37.2609 Y23.6661 
G01 X-37.0953 Y23.7346 
G01 X-36.9196 Y23.7696 
G01 X-30.8568 Y23.7696 
G01 X-28.8496 Y25.7768 
G01 X-28.8496 Y30.5696 
G01 X-28.8146 Y30.7453 
G01 X-28.7461 Y30.9109 
G01 X-28.6465 Y31.0598 
G01 X-27.2498 Y32.4565 
G01 X-27.1009 Y32.5561 
G01 X-26.9353 Y32.6246 
G01 X-26.7596 Y32.6596 
G01 X-25.1041 Y32.6596 
G01 X-25.0705 Y32.6735 
G01 X-24.8850 Y32.7104 
G01 X-23.3750 Y32.7104 
G01 X-23.1895 Y32.6735 
G01 X-23.0147 Y32.6011 
G01 X-22.8574 Y32.4960 
G01 X-22.7236 Y32.3622 
G01 X-22.6185 Y32.2049 
G01 X-22.5461 Y32.0301 
G01 X-22.5092 Y31.8446 
G01 X-22.5092 Y31.6554 
G01 X-22.5461 Y31.4699 
G01 X-22.6185 Y31.2951 
G01 X-22.7236 Y31.1378 
G01 X-22.8574 Y31.0040 
G01 X-23.0147 Y30.8989 
G01 X-23.1895 Y30.8265 
G01 X-23.3750 Y30.7896 
G01 X-24.8850 Y30.7896 
G01 X-25.0705 Y30.8265 
G01 X-25.1041 Y30.8404 
G01 X-26.2932 Y30.8404 
G01 X-27.0304 Y30.1032 
G01 X-27.0304 Y25.3104 
G01 X-27.0654 Y25.1347 
G01 X-27.1339 Y24.9691 
G01 X-27.2335 Y24.8202 
G01 X-29.7735 Y22.2802 
G01 X-29.9002 Y22.1535 
G01 X-30.0491 Y22.0539 
G01 X-30.2147 Y21.9854 
G01 X-30.3904 Y21.9504 
G01 X-35.9204 Y21.9504 
G01 X-35.9204 Y13.8804 
G01 X-35.9554 Y13.7047 
G01 X-36.0239 Y13.5391 
G01 X-36.1235 Y13.3902 
G00 Z2.0000  
G00 X-43.4896 Y18.6522 
G01 Z-0.0500 F120   
G01 X-44.0522 Y18.0896 F120   
G01 X-44.8478 Y18.0896 
G01 X-45.4104 Y18.6522 
G01 X-45.4104 Y19.4478 
G01 X-45.3596 Y19.4986 
G01 X-45.3596 Y52.8914 
G01 X-45.4104 Y52.9422 
G01 X-45.4104 Y53.7378 
G01 X-44.8478 Y54.3004 
G01 X-44.0522 Y54.3004 
G01 X-43.4896 Y53.7378 
G01 X-43.4896 Y52.9422 
G01 X-43.5404 Y52.8914 
G01 X-43.5404 Y19.4986 
G01 X-43.4896 Y19.4478 
G01 X-43.4896 Y18.6522 
G00 Z2.0000  
G00 X-33.0226 Y25.9240 
G01 Z-0.0500 F120   
G01 X-33.1564 Y26.0578 F120   
G01 X-33.2615 Y26.2151 
G01 X-33.3339 Y26.3899 
G01 X-33.3708 Y26.5754 
G01 X-33.3708 Y26.7646 
G01 X-33.3339 Y26.9501 
G01 X-33.2615 Y27.1249 
G01 X-33.1564 Y27.2822 
G01 X-33.0226 Y27.4160 
G01 X-32.8653 Y27.5211 
G01 X-32.6905 Y27.5935 
G01 X-32.5050 Y27.6304 
G01 X-30.9950 Y27.6304 
G01 X-30.8095 Y27.5935 
G01 X-30.6347 Y27.5211 
G01 X-30.4774 Y27.4160 
G01 X-30.3436 Y27.2822 
G01 X-30.2385 Y27.1249 
G01 X-30.1661 Y26.9501 
G01 X-30.1292 Y26.7646 
G01 X-30.1292 Y26.5754 
G01 X-30.1661 Y26.3899 
G01 X-30.2385 Y26.2151 
G01 X-30.3436 Y26.0578 
G01 X-30.4774 Y25.9240 
G01 X-30.6347 Y25.8189 
G01 X-30.8095 Y25.7465 
G01 X-30.9950 Y25.7096 
G01 X-32.5050 Y25.7096 
G01 X-32.6905 Y25.7465 
G01 X-32.8653 Y25.8189 
G01 X-33.0226 Y25.9240 
G00 Z2.0000  
G00 X-33.0226 Y28.4640 
G01 Z-0.0500 F120   
G01 X-33.1564 Y28.5978 F120   
G01 X-33.2615 Y28.7551 
G01 X-33.3339 Y28.9299 
G01 X-33.3708 Y29.1154 
G01 X-33.3708 Y29.3046 
G01 X-33.3339 Y29.4901 
G01 X-33.2615 Y29.6649 
G01 X-33.1564 Y29.8222 
G01 X-33.0226 Y29.9560 
G01 X-32.8653 Y30.0611 
G01 X-32.6905 Y30.1335 
G01 X-32.5050 Y30.1704 
G01 X-30.9950 Y30.1704 
G01 X-30.8095 Y30.1335 
G01 X-30.6347 Y30.0611 
G01 X-30.4774 Y29.9560 
G01 X-30.3436 Y29.8222 
G01 X-30.2385 Y29.6649 
G01 X-30.1661 Y29.4901 
G01 X-30.1292 Y29.3046 
G01 X-30.1292 Y29.1154 
G01 X-30.1661 Y28.9299 
G01 X-30.2385 Y28.7551 
G01 X-30.3436 Y28.5978 
G01 X-30.4774 Y28.4640 
G01 X-30.6347 Y28.3589 
G01 X-30.8095 Y28.2865 
G01 X-30.9950 Y28.2496 
G01 X-32.5050 Y28.2496 
G01 X-32.6905 Y28.2865 
G01 X-32.8653 Y28.3589 
G01 X-33.0226 Y28.4640 
G00 Z2.0000  
G00 X-33.0226 Y31.0040 
G01 Z-0.0500 F120   
G01 X-33.1564 Y31.1378 F120   
G01 X-33.2615 Y31.2951 
G01 X-33.3339 Y31.4699 
G01 X-33.3708 Y31.6554 
G01 X-33.3708 Y31.8446 
G01 X-33.3339 Y32.0301 
G01 X-33.2615 Y32.2049 
G01 X-33.1564 Y32.3622 
G01 X-33.0226 Y32.4960 
G01 X-32.8653 Y32.6011 
G01 X-32.6905 Y32.6735 
G01 X-32.5050 Y32.7104 
G01 X-30.9950 Y32.7104 
G01 X-30.8095 Y32.6735 
G01 X-30.6347 Y32.6011 
G01 X-30.4774 Y32.4960 
G01 X-30.3436 Y32.3622 
G01 X-30.2385 Y32.2049 
G01 X-30.1661 Y32.0301 
G01 X-30.1292 Y31.8446 
G01 X-30.1292 Y31.6554 
G01 X-30.1661 Y31.4699 
G01 X-30.2385 Y31.2951 
G01 X-30.3436 Y31.1378 
G01 X-30.4774 Y31.0040 
G01 X-30.6347 Y30.8989 
G01 X-30.8095 Y30.8265 
G01 X-30.9950 Y30.7896 
G01 X-32.5050 Y30.7896 
G01 X-32.6905 Y30.8265 
G01 X-32.8653 Y30.8989 
G01 X-33.0226 Y31.0040 
G00 Z2.0000  
G00 X-33.0226 Y33.5440 
G01 Z-0.0500 F120   
G01 X-33.1564 Y33.6778 F120   
G01 X-33.2615 Y33.8351 
G01 X-33.3339 Y34.0099 
G01 X-33.3708 Y34.1954 
G01 X-33.3708 Y34.3846 
G01 X-33.3339 Y34.5701 
G01 X-33.2615 Y34.7449 
G01 X-33.1564 Y34.9022 
G01 X-33.0226 Y35.0360 
G01 X-32.8653 Y35.1411 
G01 X-32.6905 Y35.2135 
G01 X-32.5050 Y35.2504 
G01 X-30.9950 Y35.2504 
G01 X-30.8095 Y35.2135 
G01 X-30.6347 Y35.1411 
G01 X-30.4774 Y35.0360 
G01 X-30.3436 Y34.9022 
G01 X-30.2385 Y34.7449 
G01 X-30.1661 Y34.5701 
G01 X-30.1292 Y34.3846 
G01 X-30.1292 Y34.1954 
G01 X-30.1661 Y34.0099 
G01 X-30.2385 Y33.8351 
G01 X-30.3436 Y33.6778 
G01 X-30.4774 Y33.5440 
G01 X-30.6347 Y33.4389 
G01 X-30.8095 Y33.3665 
G01 X-30.9950 Y33.3296 
G01 X-32.5050 Y33.3296 
G01 X-32.6905 Y33.3665 
G01 X-32.8653 Y33.4389 
G01 X-33.0226 Y33.5440 
G00 Z2.0000  
G00 X-33.0226 Y36.0840 
G01 Z-0.0500 F120   
G01 X-33.1564 Y36.2178 F120   
G01 X-33.2615 Y36.3751 
G01 X-33.3339 Y36.5499 
G01 X-33.3708 Y36.7354 
G01 X-33.3708 Y36.9246 
G01 X-33.3339 Y37.1101 
G01 X-33.2615 Y37.2849 
G01 X-33.1564 Y37.4422 
G01 X-33.0226 Y37.5760 
G01 X-32.8653 Y37.6811 
G01 X-32.6905 Y37.7535 
G01 X-32.5050 Y37.7904 
G01 X-30.9950 Y37.7904 
G01 X-30.8095 Y37.7535 
G01 X-30.6347 Y37.6811 
G01 X-30.4774 Y37.5760 
G01 X-30.3436 Y37.4422 
G01 X-30.2385 Y37.2849 
G01 X-30.1661 Y37.1101 
G01 X-30.1292 Y36.9246 
G01 X-30.1292 Y36.7354 
G01 X-30.1661 Y36.5499 
G01 X-30.2385 Y36.3751 
G01 X-30.3436 Y36.2178 
G01 X-30.4774 Y36.0840 
G01 X-30.6347 Y35.9789 
G01 X-30.8095 Y35.9065 
G01 X-30.9950 Y35.8696 
G01 X-32.5050 Y35.8696 
G01 X-32.6905 Y35.9065 
G01 X-32.8653 Y35.9789 
G01 X-33.0226 Y36.0840 
G00 Z2.0000  
G00 X-33.0226 Y38.6240 
G01 Z-0.0500 F120   
G01 X-33.1564 Y38.7578 F120   
G01 X-33.2615 Y38.9151 
G01 X-33.3339 Y39.0899 
G01 X-33.3708 Y39.2754 
G01 X-33.3708 Y39.4646 
G01 X-33.3339 Y39.6501 
G01 X-33.2615 Y39.8249 
G01 X-33.1564 Y39.9822 
G01 X-33.0226 Y40.1160 
G01 X-32.8653 Y40.2211 
G01 X-32.6905 Y40.2935 
G01 X-32.5050 Y40.3304 
G01 X-30.9950 Y40.3304 
G01 X-30.8095 Y40.2935 
G01 X-30.6347 Y40.2211 
G01 X-30.4774 Y40.1160 
G01 X-30.3436 Y39.9822 
G01 X-30.2385 Y39.8249 
G01 X-30.1661 Y39.6501 
G01 X-30.1292 Y39.4646 
G01 X-30.1292 Y39.2754 
G01 X-30.1661 Y39.0899 
G01 X-30.2385 Y38.9151 
G01 X-30.3436 Y38.7578 
G01 X-30.4774 Y38.6240 
G01 X-30.6347 Y38.5189 
G01 X-30.8095 Y38.4465 
G01 X-30.9950 Y38.4096 
G01 X-32.5050 Y38.4096 
G01 X-32.6905 Y38.4465 
G01 X-32.8653 Y38.5189 
G01 X-33.0226 Y38.6240 
G00 Z2.0000  
G00 X-33.0226 Y41.1640 
G01 Z-0.0500 F120   
G01 X-33.1564 Y41.2978 F120   
G01 X-33.2615 Y41.4551 
G01 X-33.3339 Y41.6299 
G01 X-33.3708 Y41.8154 
G01 X-33.3708 Y42.0046 
G01 X-33.3339 Y42.1901 
G01 X-33.2615 Y42.3649 
G01 X-33.1564 Y42.5222 
G01 X-33.0226 Y42.6560 
G01 X-32.8653 Y42.7611 
G01 X-32.6905 Y42.8335 
G01 X-32.5050 Y42.8704 
G01 X-30.9950 Y42.8704 
G01 X-30.8095 Y42.8335 
G01 X-30.7759 Y42.8196 
G01 X-28.8496 Y42.8196 
G01 X-28.8496 Y58.5096 
G01 X-28.8146 Y58.6853 
G01 X-28.7461 Y58.8509 
G01 X-28.6465 Y58.9998 
G01 X-28.5198 Y59.1265 
G01 X-28.3709 Y59.2261 
G01 X-28.2053 Y59.2946 
G01 X-28.0296 Y59.3296 
G01 X-12.4215 Y59.3296 
G01 X-12.4023 Y59.4262 
G01 X-12.3261 Y59.6102 
G01 X-12.2154 Y59.7758 
G01 X-12.0746 Y59.9166 
G01 X-11.9090 Y60.0273 
G01 X-11.7250 Y60.1035 
G01 X-11.5296 Y60.1424 
G01 X-11.3304 Y60.1424 
G01 X-11.1350 Y60.1035 
G01 X-10.9510 Y60.0273 
G01 X-10.7854 Y59.9166 
G01 X-10.6446 Y59.7758 
G01 X-10.5339 Y59.6102 
G01 X-10.4577 Y59.4262 
G01 X-10.4188 Y59.2308 
G01 X-10.4188 Y57.6092 
G01 X-10.4577 Y57.4138 
G01 X-10.5204 Y57.2624 
G01 X-10.5204 Y55.0586 
G01 X-10.4696 Y55.0078 
G01 X-10.4696 Y54.2122 
G01 X-11.0322 Y53.6496 
G01 X-11.8278 Y53.6496 
G01 X-12.3904 Y54.2122 
G01 X-12.3904 Y55.0078 
G01 X-12.3396 Y55.0586 
G01 X-12.3396 Y57.2624 
G01 X-12.4023 Y57.4138 
G01 X-12.4215 Y57.5104 
G01 X-27.0304 Y57.5104 
G01 X-27.0304 Y35.9368 
G01 X-26.2932 Y35.1996 
G01 X-25.1041 Y35.1996 
G01 X-25.0705 Y35.2135 
G01 X-24.8850 Y35.2504 
G01 X-23.3750 Y35.2504 
G01 X-23.1895 Y35.2135 
G01 X-23.0147 Y35.1411 
G01 X-22.8574 Y35.0360 
G01 X-22.7236 Y34.9022 
G01 X-22.6185 Y34.7449 
G01 X-22.5461 Y34.5701 
G01 X-22.5092 Y34.3846 
G01 X-22.5092 Y34.1954 
G01 X-22.5461 Y34.0099 
G01 X-22.6185 Y33.8351 
G01 X-22.7236 Y33.6778 
G01 X-22.8574 Y33.5440 
G01 X-23.0147 Y33.4389 
G01 X-23.1895 Y33.3665 
G01 X-23.3750 Y33.3296 
G01 X-24.8850 Y33.3296 
G01 X-25.0705 Y33.3665 
G01 X-25.1041 Y33.3804 
G01 X-26.7596 Y33.3804 
G01 X-26.9353 Y33.4154 
G01 X-27.1009 Y33.4839 
G01 X-27.2498 Y33.5835 
G01 X-28.5198 Y34.8535 
G01 X-28.6465 Y34.9802 
G01 X-28.7461 Y35.1291 
G01 X-28.8146 Y35.2947 
G01 X-28.8496 Y35.4704 
G01 X-28.8496 Y41.0004 
G01 X-30.7759 Y41.0004 
G01 X-30.8095 Y40.9865 
G01 X-30.9950 Y40.9496 
G01 X-32.5050 Y40.9496 
G01 X-32.6905 Y40.9865 
G01 X-32.8653 Y41.0589 
G01 X-33.0226 Y41.1640 
G00 Z2.0000  
G00 X-25.4026 Y41.1640 
G01 Z-0.0500 F120   
G01 X-25.5364 Y41.2978 F120   
G01 X-25.6415 Y41.4551 
G01 X-25.7139 Y41.6299 
G01 X-25.7508 Y41.8154 
G01 X-25.7508 Y42.0046 
G01 X-25.7139 Y42.1901 
G01 X-25.6415 Y42.3649 
G01 X-25.5364 Y42.5222 
G01 X-25.4026 Y42.6560 
G01 X-25.2453 Y42.7611 
G01 X-25.0705 Y42.8335 
G01 X-24.8850 Y42.8704 
G01 X-23.3750 Y42.8704 
G01 X-23.1895 Y42.8335 
G01 X-23.1559 Y42.8196 
G01 X-16.9586 Y42.8196 
G01 X-16.9078 Y42.8704 
G01 X-16.1122 Y42.8704 
G01 X-16.0614 Y42.8196 
G01 X-11.8786 Y42.8196 
G01 X-11.8278 Y42.8704 
G01 X-11.0322 Y42.8704 
G01 X-10.4696 Y42.3078 
G01 X-10.4696 Y41.5122 
G01 X-11.0322 Y40.9496 
G01 X-11.8278 Y40.9496 
G01 X-11.8786 Y41.0004 
G01 X-16.0614 Y41.0004 
G01 X-16.1122 Y40.9496 
G01 X-16.9078 Y40.9496 
G01 X-16.9586 Y41.0004 
G01 X-23.1559 Y41.0004 
G01 X-23.1895 Y40.9865 
G01 X-23.3750 Y40.9496 
G01 X-24.8850 Y40.9496 
G01 X-25.0705 Y40.9865 
G01 X-25.2453 Y41.0589 
G01 X-25.4026 Y41.1640 
G00 Z2.0000  
G00 X-25.4026 Y37.5760 
G01 Z-0.0500 F120   
G01 X-25.2453 Y37.6811 F120   
G01 X-25.0705 Y37.7535 
G01 X-24.8850 Y37.7904 
G01 X-23.3750 Y37.7904 
G01 X-23.1895 Y37.7535 
G01 X-23.0147 Y37.6811 
G01 X-22.8574 Y37.5760 
G01 X-22.7236 Y37.4422 
G01 X-22.6185 Y37.2849 
G01 X-22.5461 Y37.1101 
G01 X-22.5092 Y36.9246 
G01 X-22.5092 Y36.7354 
G01 X-22.5461 Y36.5499 
G01 X-22.6185 Y36.3751 
G01 X-22.7236 Y36.2178 
G01 X-22.8574 Y36.0840 
G01 X-23.0147 Y35.9789 
G01 X-23.1895 Y35.9065 
G01 X-23.3750 Y35.8696 
G01 X-24.8850 Y35.8696 
G01 X-25.0705 Y35.9065 
G01 X-25.2453 Y35.9789 
G01 X-25.4026 Y36.0840 
G01 X-25.5364 Y36.2178 
G01 X-25.6415 Y36.3751 
G01 X-25.7139 Y36.5499 
G01 X-25.7508 Y36.7354 
G01 X-25.7508 Y36.9246 
G01 X-25.7139 Y37.1101 
G01 X-25.6415 Y37.2849 
G01 X-25.5364 Y37.4422 
G01 X-25.4026 Y37.5760 
G00 Z2.0000  
G00 X-66.4004 Y40.7296 
G01 Z-0.0500 F120   
G01 X-66.4004 Y15.6886 F120   
G01 X-66.3496 Y15.6378 
G01 X-66.3496 Y14.8422 
G01 X-66.9122 Y14.2796 
G01 X-67.7078 Y14.2796 
G01 X-68.2704 Y14.8422 
G01 X-68.2704 Y15.6378 
G01 X-68.2196 Y15.6886 
G01 X-68.2196 Y39.7304 
G01 X-68.8759 Y39.7304 
G01 X-68.9095 Y39.7165 
G01 X-69.0950 Y39.6796 
G01 X-70.6050 Y39.6796 
G01 X-70.7905 Y39.7165 
G01 X-70.9653 Y39.7889 
G01 X-71.1226 Y39.8940 
G01 X-71.2564 Y40.0278 
G01 X-71.3615 Y40.1851 
G01 X-71.4339 Y40.3599 
G01 X-71.4708 Y40.5454 
G01 X-71.4708 Y40.7346 
G01 X-71.4339 Y40.9201 
G01 X-71.3615 Y41.0949 
G01 X-71.2564 Y41.2522 
G01 X-71.1226 Y41.3860 
G01 X-70.9653 Y41.4911 
G01 X-70.7905 Y41.5635 
G01 X-70.6050 Y41.6004 
G01 X-69.0950 Y41.6004 
G01 X-68.9095 Y41.5635 
G01 X-68.8759 Y41.5496 
G01 X-67.2204 Y41.5496 
G01 X-67.0447 Y41.5146 
G01 X-66.8791 Y41.4461 
G01 X-66.7302 Y41.3465 
G01 X-66.6035 Y41.2198 
G01 X-66.5039 Y41.0709 
G01 X-66.4354 Y40.9053 
G01 X-66.4004 Y40.7296 
G00 Z2.0000  
G00 X-68.4436 Y42.5678 
G01 Z-0.0500 F120   
G01 X-68.5774 Y42.4340 F120   
G01 X-68.7347 Y42.3289 
G01 X-68.9095 Y42.2565 
G01 X-69.0950 Y42.2196 
G01 X-70.6050 Y42.2196 
G01 X-70.7905 Y42.2565 
G01 X-70.8241 Y42.2704 
G01 X-86.7204 Y42.2704 
G01 X-86.7204 Y36.4896 
G01 X-86.6895 Y36.4835 
G01 X-86.5147 Y36.4111 
G01 X-86.3574 Y36.3060 
G01 X-86.2236 Y36.1722 
G01 X-86.1185 Y36.0149 
G01 X-86.0461 Y35.8401 
G01 X-86.0092 Y35.6546 
G01 X-86.0092 Y35.4654 
G01 X-86.0461 Y35.2799 
G01 X-86.1185 Y35.1051 
G01 X-86.2236 Y34.9478 
G01 X-86.3574 Y34.8140 
G01 X-86.5147 Y34.7089 
G01 X-86.6895 Y34.6365 
G01 X-86.8750 Y34.5996 
G01 X-88.3850 Y34.5996 
G01 X-88.5705 Y34.6365 
G01 X-88.7453 Y34.7089 
G01 X-88.9026 Y34.8140 
G01 X-89.0364 Y34.9478 
G01 X-89.1415 Y35.1051 
G01 X-89.2139 Y35.2799 
G01 X-89.2508 Y35.4654 
G01 X-89.2508 Y35.6546 
G01 X-89.2139 Y35.8401 
G01 X-89.1415 Y36.0149 
G01 X-89.0364 Y36.1722 
G01 X-88.9026 Y36.3060 
G01 X-88.7453 Y36.4111 
G01 X-88.5705 Y36.4835 
G01 X-88.5396 Y36.4896 
G01 X-88.5396 Y55.8426 
G01 X-88.5046 Y56.0183 
G01 X-88.4361 Y56.1839 
G01 X-88.3365 Y56.3328 
G01 X-85.5428 Y59.1265 
G01 X-85.3939 Y59.2261 
G01 X-85.2283 Y59.2946 
G01 X-85.0526 Y59.3296 
G01 X-80.7904 Y59.3296 
G01 X-80.6363 Y59.4421 
G01 X-80.4687 Y59.5274 
G01 X-80.2898 Y59.5856 
G01 X-80.1040 Y59.6150 
G01 X-79.9159 Y59.6150 
G01 X-79.7302 Y59.5856 
G01 X-79.5513 Y59.5274 
G01 X-79.3837 Y59.4421 
G01 X-79.2315 Y59.3315 
G01 X-79.0985 Y59.1985 
G01 X-78.9879 Y59.0463 
G01 X-78.9026 Y58.8787 
G01 X-78.8444 Y58.6998 
G01 X-78.8150 Y58.5140 
G01 X-78.8150 Y58.3259 
G01 X-78.8444 Y58.1402 
G01 X-78.9026 Y57.9613 
G01 X-78.9879 Y57.7937 
G01 X-79.0985 Y57.6415 
G01 X-79.2315 Y57.5085 
G01 X-79.3837 Y57.3979 
G01 X-79.5513 Y57.3126 
G01 X-79.7302 Y57.2544 
G01 X-79.9159 Y57.2250 
G01 X-80.1040 Y57.2250 
G01 X-80.2898 Y57.2544 
G01 X-80.4687 Y57.3126 
G01 X-80.6363 Y57.3979 
G01 X-80.7885 Y57.5085 
G01 X-84.5862 Y57.5104 
G01 X-86.7204 Y55.3762 
G01 X-86.7204 Y44.0896 
G01 X-70.8241 Y44.0896 
G01 X-70.7905 Y44.1035 
G01 X-70.6050 Y44.1404 
G01 X-69.0950 Y44.1404 
G01 X-68.9095 Y44.1035 
G01 X-68.7347 Y44.0311 
G01 X-68.5774 Y43.9260 
G01 X-68.4436 Y43.7922 
G01 X-68.3385 Y43.6349 
G01 X-68.2661 Y43.4601 
G01 X-68.2292 Y43.2746 
G01 X-68.2292 Y43.0854 
G01 X-68.2661 Y42.8999 
G01 X-68.3385 Y42.7251 
G01 X-68.4436 Y42.5678 
G00 Z2.0000  
G00 X-74.5322 Y33.9804 
G01 Z-0.0500 F120   
G01 X-73.9696 Y33.4178 F120   
G01 X-73.9696 Y32.6222 
G01 X-74.5322 Y32.0596 
G01 X-75.3278 Y32.0596 
G01 X-75.3786 Y32.1104 
G01 X-77.5824 Y32.1104 
G01 X-77.7338 Y32.0477 
G01 X-77.9292 Y32.0088 
G01 X-79.5508 Y32.0088 
G01 X-79.7462 Y32.0477 
G01 X-79.8976 Y32.1104 
G01 X-86.6559 Y32.1104 
G01 X-86.6895 Y32.0965 
G01 X-86.8750 Y32.0596 
G01 X-88.3850 Y32.0596 
G01 X-88.5705 Y32.0965 
G01 X-88.7453 Y32.1689 
G01 X-88.9026 Y32.2740 
G01 X-89.0364 Y32.4078 
G01 X-89.1415 Y32.5651 
G01 X-89.2139 Y32.7399 
G01 X-89.2508 Y32.9254 
G01 X-89.2508 Y33.1146 
G01 X-89.2139 Y33.3001 
G01 X-89.1415 Y33.4749 
G01 X-89.0364 Y33.6322 
G01 X-88.9026 Y33.7660 
G01 X-88.7453 Y33.8711 
G01 X-88.5705 Y33.9435 
G01 X-88.3850 Y33.9804 
G01 X-86.8750 Y33.9804 
G01 X-86.6895 Y33.9435 
G01 X-86.6559 Y33.9296 
G01 X-79.8976 Y33.9296 
G01 X-79.7462 Y33.9923 
G01 X-79.5508 Y34.0312 
G01 X-77.9292 Y34.0312 
G01 X-77.7338 Y33.9923 
G01 X-77.5824 Y33.9296 
G01 X-75.3786 Y33.9296 
G01 X-75.3278 Y33.9804 
G01 X-74.5322 Y33.9804 
G00 Z2.0000  
G00 X-5.5036 Y8.1671  
G01 Z-0.0500 F120   
G01 X-5.6271 Y8.0436  F120   
G01 X-5.7684 Y7.9410  
G01 X-5.9241 Y7.8617  
G01 X-6.0902 Y7.8077  
G01 X-6.2627 Y7.7804  
G01 X-18.5904 Y7.7804  
G01 X-20.7436 Y5.6271  
G01 X-20.8671 Y5.5036  
G01 X-21.0084 Y5.4010  
G01 X-21.1641 Y5.3217  
G01 X-21.3302 Y5.2677  
G01 X-21.5027 Y5.2404  
G01 X-78.8273 Y5.2404  
G01 X-78.9998 Y5.2677  
G01 X-79.1659 Y5.3217  
G01 X-79.3216 Y5.4010  
G01 X-79.4629 Y5.5036  
G01 X-79.5864 Y5.6271  
G01 X-79.6890 Y5.7684  
G01 X-79.7683 Y5.9241  
G01 X-79.8223 Y6.0902  
G01 X-79.8496 Y6.2627  
G01 X-79.8496 Y29.3359 
G01 X-79.9161 Y29.3575 
G01 X-79.9414 Y29.3704 
G01 X-86.6295 Y29.3704 
G01 X-86.6979 Y29.3482 
G01 X-86.8783 Y29.3196 
G01 X-88.3817 Y29.3196 
G01 X-88.5621 Y29.3482 
G01 X-88.7358 Y29.4046 
G01 X-88.8986 Y29.4875 
G01 X-89.0463 Y29.5949 
G01 X-89.1755 Y29.7240 
G01 X-89.2829 Y29.8718 
G01 X-89.3658 Y30.0346 
G01 X-89.4222 Y30.2083 
G01 X-89.4508 Y30.3887 
G01 X-89.4508 Y30.5713 
G01 X-89.4222 Y30.7517 
G01 X-89.3658 Y30.9254 
G01 X-89.2829 Y31.0882 
G01 X-89.1755 Y31.2359 
G01 X-89.0463 Y31.3651 
G01 X-88.8986 Y31.4725 
G01 X-88.7358 Y31.5554 
G01 X-88.5621 Y31.6118 
G01 X-88.3817 Y31.6404 
G01 X-86.8783 Y31.6404 
G01 X-86.6979 Y31.6118 
G01 X-86.6295 Y31.5896 
G01 X-79.9414 Y31.5896 
G01 X-79.9161 Y31.6025 
G01 X-79.7348 Y31.6614 
G01 X-79.5465 Y31.6912 
G01 X-77.9335 Y31.6912 
G01 X-77.7452 Y31.6614 
G01 X-77.5639 Y31.6025 
G01 X-77.3940 Y31.5159 
G01 X-77.2398 Y31.4038 
G01 X-77.1049 Y31.2690 
G01 X-76.9929 Y31.1148 
G01 X-76.9063 Y30.9449 
G01 X-76.8474 Y30.7636 
G01 X-76.8176 Y30.5753 
G01 X-76.8176 Y30.3847 
G01 X-76.8474 Y30.1964 
G01 X-76.9063 Y30.0151 
G01 X-76.9929 Y29.8452 
G01 X-77.1049 Y29.6910 
G01 X-77.2398 Y29.5561 
G01 X-77.3940 Y29.4441 
G01 X-77.5639 Y29.3575 
G01 X-77.6304 Y29.3359 
G01 X-77.6304 Y29.0496 
G01 X-72.8496 Y29.0496 
G01 X-70.9596 Y30.9396 
G01 X-70.9596 Y37.0265 
G01 X-71.1186 Y37.1075 
G01 X-71.2663 Y37.2149 
G01 X-71.3955 Y37.3441 
G01 X-71.5029 Y37.4918 
G01 X-71.5858 Y37.6546 
G01 X-71.6422 Y37.8283 
G01 X-71.6708 Y38.0087 
G01 X-71.6708 Y38.1913 
G01 X-71.6422 Y38.3717 
G01 X-71.5858 Y38.5454 
G01 X-71.5029 Y38.7082 
G01 X-71.3955 Y38.8559 
G01 X-71.2663 Y38.9851 
G01 X-71.1186 Y39.0925 
G01 X-70.9558 Y39.1754 
G01 X-70.7821 Y39.2318 
G01 X-70.6017 Y39.2604 
G01 X-69.0983 Y39.2604 
G01 X-68.9179 Y39.2318 
G01 X-68.7442 Y39.1754 
G01 X-68.5814 Y39.0925 
G01 X-68.4337 Y38.9851 
G01 X-68.4196 Y38.9710 
G01 X-68.4196 Y39.5304 
G01 X-68.8495 Y39.5304 
G01 X-68.9179 Y39.5082 
G01 X-69.0983 Y39.4796 
G01 X-70.6017 Y39.4796 
G01 X-70.7821 Y39.5082 
G01 X-70.9558 Y39.5646 
G01 X-71.1186 Y39.6475 
G01 X-71.2663 Y39.7549 
G01 X-71.3955 Y39.8841 
G01 X-71.5029 Y40.0318 
G01 X-71.5858 Y40.1946 
G01 X-71.6422 Y40.3683 
G01 X-71.6708 Y40.5487 
G01 X-71.6708 Y40.7313 
G01 X-71.6422 Y40.9117 
G01 X-71.5858 Y41.0854 
G01 X-71.5029 Y41.2482 
G01 X-71.3955 Y41.3959 
G01 X-71.2663 Y41.5251 
G01 X-71.1186 Y41.6325 
G01 X-70.9558 Y41.7154 
G01 X-70.7821 Y41.7718 
G01 X-70.6017 Y41.8004 
G01 X-69.0983 Y41.8004 
G01 X-68.9179 Y41.7718 
G01 X-68.8495 Y41.7496 
G01 X-67.2227 Y41.7496 
G01 X-67.0502 Y41.7223 
G01 X-66.8841 Y41.6683 
G01 X-66.7284 Y41.5890 
G01 X-66.5871 Y41.4864 
G01 X-66.4636 Y41.3629 
G01 X-66.3610 Y41.2216 
G01 X-66.2817 Y41.0659 
G01 X-66.2277 Y40.8998 
G01 X-66.2004 Y40.7273 
G01 X-66.2004 Y15.7714 
G01 X-66.1496 Y15.7206 
G01 X-66.1496 Y14.7593 
G01 X-66.8293 Y14.0796 
G01 X-67.7906 Y14.0796 
G01 X-68.4704 Y14.7593 
G01 X-68.4704 Y15.7206 
G01 X-68.4196 Y15.7714 
G01 X-68.4196 Y37.2290 
G01 X-68.4337 Y37.2149 
G01 X-68.5814 Y37.1075 
G01 X-68.7404 Y37.0265 
G01 X-68.7404 Y30.3927 
G01 X-68.7677 Y30.2202 
G01 X-68.8217 Y30.0541 
G01 X-68.9010 Y29.8984 
G01 X-69.0036 Y29.7571 
G01 X-71.6671 Y27.0936 
G01 X-71.8084 Y26.9910 
G01 X-71.9641 Y26.9117 
G01 X-72.1302 Y26.8577 
G01 X-72.3027 Y26.8304 
G01 X-77.6304 Y26.8304 
G01 X-77.6304 Y7.4596  
G01 X-22.0496 Y7.4596  
G01 X-20.1596 Y9.3496  
G01 X-20.1596 Y21.7504 
G01 X-23.5985 Y21.7504 
G01 X-23.6493 Y21.6996 
G01 X-24.6106 Y21.6996 
G01 X-24.6614 Y21.7504 
G01 X-24.9404 Y21.7504 
G01 X-28.3636 Y18.3271 
G01 X-28.4871 Y18.2036 
G01 X-28.6284 Y18.1010 
G01 X-28.7841 Y18.0217 
G01 X-28.9502 Y17.9677 
G01 X-29.1227 Y17.9404 
G01 X-31.2185 Y17.9404 
G01 X-31.2693 Y17.8896 
G01 X-32.2306 Y17.8896 
G01 X-32.9104 Y18.5693 
G01 X-32.9104 Y19.5307 
G01 X-32.2306 Y20.2104 
G01 X-31.2693 Y20.2104 
G01 X-31.2185 Y20.1596 
G01 X-29.6696 Y20.1596 
G01 X-26.2464 Y23.5829 
G01 X-26.1229 Y23.7064 
G01 X-25.9816 Y23.8090 
G01 X-25.8259 Y23.8883 
G01 X-25.6598 Y23.9423 
G01 X-25.4873 Y23.9696 
G01 X-24.6614 Y23.9696 
G01 X-24.6106 Y24.0204 
G01 X-23.6493 Y24.0204 
G01 X-23.5985 Y23.9696 
G01 X-20.1596 Y23.9696 
G01 X-20.1596 Y25.5604 
G01 X-23.1295 Y25.5604 
G01 X-23.1979 Y25.5382 
G01 X-23.3783 Y25.5096 
G01 X-24.8817 Y25.5096 
G01 X-25.0621 Y25.5382 
G01 X-25.2358 Y25.5946 
G01 X-25.3986 Y25.6775 
G01 X-25.5463 Y25.7849 
G01 X-25.6755 Y25.9140 
G01 X-25.7829 Y26.0618 
G01 X-25.8658 Y26.2246 
G01 X-25.9222 Y26.3983 
G01 X-25.9508 Y26.5787 
G01 X-25.9508 Y26.7613 
G01 X-25.9222 Y26.9417 
G01 X-25.8658 Y27.1154 
G01 X-25.7829 Y27.2782 
G01 X-25.6755 Y27.4259 
G01 X-25.5463 Y27.5551 
G01 X-25.3986 Y27.6625 
G01 X-25.2358 Y27.7454 
G01 X-25.0621 Y27.8018 
G01 X-24.8817 Y27.8304 
G01 X-23.3783 Y27.8304 
G01 X-23.1979 Y27.8018 
G01 X-23.1295 Y27.7796 
G01 X-18.9627 Y27.7796 
G01 X-18.7902 Y27.7523 
G01 X-18.6241 Y27.6983 
G01 X-18.4684 Y27.6190 
G01 X-18.3271 Y27.5164 
G01 X-18.2036 Y27.3929 
G01 X-18.1010 Y27.2516 
G01 X-18.0217 Y27.0959 
G01 X-17.9677 Y26.9298 
G01 X-17.9404 Y26.7573 
G01 X-17.9404 Y9.9996  
G01 X-12.5396 Y9.9996  
G01 X-12.5396 Y12.1685 
G01 X-12.5904 Y12.2193 
G01 X-12.5904 Y13.1806 
G01 X-11.9107 Y13.8604 
G01 X-10.9493 Y13.8604 
G01 X-10.2696 Y13.1806 
G01 X-10.2696 Y12.2193 
G01 X-10.3204 Y12.1685 
G01 X-10.3204 Y9.9996  
G01 X-7.4596 Y9.9996  
G01 X-7.4596 Y57.3104 
G01 X-7.7459 Y57.3104 
G01 X-7.7675 Y57.2439 
G01 X-7.8541 Y57.0740 
G01 X-7.9661 Y56.9198 
G01 X-8.1010 Y56.7849 
G01 X-8.2552 Y56.6729 
G01 X-8.4251 Y56.5863 
G01 X-8.6064 Y56.5274 
G01 X-8.7947 Y56.4976 
G01 X-8.9853 Y56.4976 
G01 X-9.1736 Y56.5274 
G01 X-9.3549 Y56.5863 
G01 X-9.5248 Y56.6729 
G01 X-9.6790 Y56.7849 
G01 X-9.8139 Y56.9198 
G01 X-9.9259 Y57.0740 
G01 X-10.0125 Y57.2439 
G01 X-10.0714 Y57.4252 
G01 X-10.1012 Y57.6135 
G01 X-10.1012 Y59.2265 
G01 X-10.0714 Y59.4148 
G01 X-10.0125 Y59.5961 
G01 X-9.9259 Y59.7660 
G01 X-9.8139 Y59.9202 
G01 X-9.6790 Y60.0551 
G01 X-9.5248 Y60.1671 
G01 X-9.3549 Y60.2537 
G01 X-9.1736 Y60.3126 
G01 X-8.9853 Y60.3424 
G01 X-8.7947 Y60.3424 
G01 X-8.6064 Y60.3126 
G01 X-8.4251 Y60.2537 
G01 X-8.2552 Y60.1671 
G01 X-8.1010 Y60.0551 
G01 X-7.9661 Y59.9202 
G01 X-7.8541 Y59.7660 
G01 X-7.7675 Y59.5961 
G01 X-7.7459 Y59.5296 
G01 X-6.2627 Y59.5296 
G01 X-6.0902 Y59.5023 
G01 X-5.9241 Y59.4483 
G01 X-5.7684 Y59.3690 
G01 X-5.6271 Y59.2664 
G01 X-5.5036 Y59.1429 
G01 X-5.4010 Y59.0016 
G01 X-5.3217 Y58.8459 
G01 X-5.2677 Y58.6798 
G01 X-5.2404 Y58.5073 
G01 X-5.2404 Y8.8027  
G01 X-5.2677 Y8.6302  
G01 X-5.3217 Y8.4641  
G01 X-5.4010 Y8.3084  
G01 X-5.5036 Y8.1671  
G00 Z2.0000  
G00 X-10.5449 Y17.0240 
G01 Z-0.0500 F120   
G01 X-10.6740 Y16.8949 F120   
G01 X-10.8218 Y16.7875 
G01 X-10.9846 Y16.7046 
G01 X-11.1583 Y16.6482 
G01 X-11.3387 Y16.6196 
G01 X-11.5213 Y16.6196 
G01 X-11.7017 Y16.6482 
G01 X-11.8754 Y16.7046 
G01 X-12.0382 Y16.7875 
G01 X-12.1859 Y16.8949 
G01 X-12.3151 Y17.0240 
G01 X-12.4225 Y17.1718 
G01 X-12.5054 Y17.3346 
G01 X-12.5618 Y17.5083 
G01 X-12.5904 Y17.6887 
G01 X-12.5904 Y17.8713 
G01 X-12.5618 Y18.0517 
G01 X-12.5396 Y18.1201 
G01 X-12.5396 Y28.1004 
G01 X-15.9785 Y28.1004 
G01 X-16.0293 Y28.0496 
G01 X-16.9906 Y28.0496 
G01 X-17.0415 Y28.1004 
G01 X-23.1295 Y28.1004 
G01 X-23.1979 Y28.0782 
G01 X-23.3783 Y28.0496 
G01 X-24.8817 Y28.0496 
G01 X-25.0621 Y28.0782 
G01 X-25.2358 Y28.1346 
G01 X-25.3986 Y28.2175 
G01 X-25.5463 Y28.3249 
G01 X-25.6755 Y28.4540 
G01 X-25.7829 Y28.6018 
G01 X-25.8658 Y28.7646 
G01 X-25.9222 Y28.9383 
G01 X-25.9508 Y29.1187 
G01 X-25.9508 Y29.3013 
G01 X-25.9222 Y29.4817 
G01 X-25.8658 Y29.6554 
G01 X-25.7829 Y29.8182 
G01 X-25.6755 Y29.9659 
G01 X-25.5463 Y30.0951 
G01 X-25.3986 Y30.2025 
G01 X-25.2358 Y30.2854 
G01 X-25.0621 Y30.3418 
G01 X-24.8817 Y30.3704 
G01 X-23.3783 Y30.3704 
G01 X-23.1979 Y30.3418 
G01 X-23.1295 Y30.3196 
G01 X-21.4296 Y30.3196 
G01 X-21.4296 Y38.2604 
G01 X-23.1295 Y38.2604 
G01 X-23.1979 Y38.2382 
G01 X-23.3783 Y38.2096 
G01 X-24.8817 Y38.2096 
G01 X-25.0621 Y38.2382 
G01 X-25.2358 Y38.2946 
G01 X-25.3986 Y38.3775 
G01 X-25.5463 Y38.4849 
G01 X-25.6755 Y38.6140 
G01 X-25.7829 Y38.7618 
G01 X-25.8658 Y38.9246 
G01 X-25.9222 Y39.0983 
G01 X-25.9508 Y39.2787 
G01 X-25.9508 Y39.4613 
G01 X-25.9222 Y39.6417 
G01 X-25.8658 Y39.8154 
G01 X-25.7829 Y39.9782 
G01 X-25.6755 Y40.1259 
G01 X-25.5463 Y40.2551 
G01 X-25.3986 Y40.3625 
G01 X-25.2358 Y40.4454 
G01 X-25.0621 Y40.5018 
G01 X-24.8817 Y40.5304 
G01 X-23.3783 Y40.5304 
G01 X-23.1979 Y40.5018 
G01 X-23.1295 Y40.4796 
G01 X-20.2327 Y40.4796 
G01 X-20.0602 Y40.4523 
G01 X-19.8941 Y40.3983 
G01 X-19.7384 Y40.3190 
G01 X-19.5971 Y40.2164 
G01 X-19.4736 Y40.0929 
G01 X-19.3710 Y39.9516 
G01 X-19.2917 Y39.7959 
G01 X-19.2377 Y39.6298 
G01 X-19.2104 Y39.4573 
G01 X-19.2104 Y30.3196 
G01 X-17.0415 Y30.3196 
G01 X-16.9906 Y30.3704 
G01 X-16.0293 Y30.3704 
G01 X-15.9785 Y30.3196 
G01 X-11.3427 Y30.3196 
G01 X-11.1702 Y30.2923 
G01 X-11.0041 Y30.2383 
G01 X-10.8484 Y30.1590 
G01 X-10.7071 Y30.0564 
G01 X-10.5836 Y29.9329 
G01 X-10.4810 Y29.7916 
G01 X-10.4017 Y29.6359 
G01 X-10.3477 Y29.4698 
G01 X-10.3204 Y29.2973 
G01 X-10.3204 Y18.1201 
G01 X-10.2982 Y18.0517 
G01 X-10.2696 Y17.8713 
G01 X-10.2696 Y17.6887 
G01 X-10.2982 Y17.5083 
G01 X-10.3546 Y17.3346 
G01 X-10.4375 Y17.1718 
G01 X-10.5449 Y17.0240 
G00 Z2.0000  
G00 X-23.6493 Y11.3204 
G01 Z-0.0500 F120   
G01 X-22.9696 Y10.6407 F120   
G01 X-22.9696 Y9.6793  
G01 X-23.6493 Y8.9996  
G01 X-24.6106 Y8.9996  
G01 X-24.6614 Y9.0504  
G01 X-49.6173 Y9.0504  
G01 X-49.7898 Y9.0777  
G01 X-49.9559 Y9.1317  
G01 X-50.1116 Y9.2110  
G01 X-50.2529 Y9.3136  
G01 X-55.0188 Y14.0796 
G01 X-55.0906 Y14.0796 
G01 X-55.7704 Y14.7593 
G01 X-55.7704 Y15.7206 
G01 X-55.7196 Y15.7714 
G01 X-55.7196 Y24.5045 
G01 X-55.7221 Y24.5094 
G01 X-55.7805 Y24.6890 
G01 X-55.8100 Y24.8756 
G01 X-55.8100 Y25.0644 
G01 X-55.7805 Y25.2510 
G01 X-55.7221 Y25.4306 
G01 X-55.6363 Y25.5989 
G01 X-55.5253 Y25.7517 
G01 X-55.3917 Y25.8853 
G01 X-55.2389 Y25.9963 
G01 X-55.0706 Y26.0821 
G01 X-54.8910 Y26.1405 
G01 X-54.7044 Y26.1700 
G01 X-54.5156 Y26.1700 
G01 X-54.3290 Y26.1405 
G01 X-54.1494 Y26.0821 
G01 X-53.9811 Y25.9963 
G01 X-53.8282 Y25.8853 
G01 X-53.6947 Y25.7517 
G01 X-53.5837 Y25.5989 
G01 X-53.4979 Y25.4306 
G01 X-53.4395 Y25.2510 
G01 X-53.4100 Y25.0644 
G01 X-53.4100 Y24.8756 
G01 X-53.4395 Y24.6890 
G01 X-53.4979 Y24.5094 
G01 X-53.5004 Y24.5045 
G01 X-53.5004 Y15.7714 
G01 X-53.4496 Y15.7206 
G01 X-53.4496 Y15.6488 
G01 X-49.0704 Y11.2696 
G01 X-24.6614 Y11.2696 
G01 X-24.6106 Y11.3204 
G01 X-23.6493 Y11.3204 
G00 Z2.0000  
G00 X-35.9836 Y13.2471 
G01 Z-0.0500 F120   
G01 X-36.1071 Y13.1236 F120   
G01 X-36.2484 Y13.0210 
G01 X-36.4041 Y12.9417 
G01 X-36.5702 Y12.8877 
G01 X-36.7427 Y12.8604 
G01 X-47.0773 Y12.8604 
G01 X-47.2498 Y12.8877 
G01 X-47.4159 Y12.9417 
G01 X-47.5716 Y13.0210 
G01 X-47.7129 Y13.1236 
G01 X-51.5229 Y16.9336 
G01 X-51.6464 Y17.0571 
G01 X-51.7490 Y17.1984 
G01 X-51.8283 Y17.3541 
G01 X-51.8823 Y17.5202 
G01 X-51.9096 Y17.6927 
G01 X-51.9096 Y31.9104 
G01 X-53.5004 Y31.9104 
G01 X-53.5004 Y28.8355 
G01 X-53.4979 Y28.8306 
G01 X-53.4395 Y28.6510 
G01 X-53.4100 Y28.4644 
G01 X-53.4100 Y28.2756 
G01 X-53.4395 Y28.0890 
G01 X-53.4979 Y27.9094 
G01 X-53.5837 Y27.7411 
G01 X-53.6947 Y27.5882 
G01 X-53.8282 Y27.4547 
G01 X-53.9811 Y27.3437 
G01 X-54.1494 Y27.2579 
G01 X-54.3290 Y27.1995 
G01 X-54.5156 Y27.1700 
G01 X-54.7044 Y27.1700 
G01 X-54.8910 Y27.1995 
G01 X-55.0706 Y27.2579 
G01 X-55.2389 Y27.3437 
G01 X-55.3917 Y27.4547 
G01 X-55.5253 Y27.5882 
G01 X-55.6363 Y27.7411 
G01 X-55.7221 Y27.9094 
G01 X-55.7805 Y28.0890 
G01 X-55.8100 Y28.2756 
G01 X-55.8100 Y28.4644 
G01 X-55.7805 Y28.6510 
G01 X-55.7221 Y28.8306 
G01 X-55.7196 Y28.8355 
G01 X-55.7196 Y31.9104 
G01 X-61.6985 Y31.9104 
G01 X-61.7493 Y31.8596 
G01 X-62.7107 Y31.8596 
G01 X-63.3904 Y32.5393 
G01 X-63.3904 Y33.5007 
G01 X-62.7107 Y34.1804 
G01 X-61.7493 Y34.1804 
G01 X-61.6985 Y34.1296 
G01 X-55.7196 Y34.1296 
G01 X-55.7196 Y54.7704 
G01 X-64.8573 Y54.7704 
G01 X-65.0298 Y54.7977 
G01 X-65.1959 Y54.8517 
G01 X-65.3516 Y54.9310 
G01 X-65.4929 Y55.0336 
G01 X-65.6164 Y55.1571 
G01 X-67.7696 Y57.3104 
G01 X-71.5439 Y57.3104 
G01 X-71.6589 Y57.2269 
G01 X-71.8545 Y57.1272 
G01 X-72.0633 Y57.0594 
G01 X-72.2802 Y57.0250 
G01 X-72.4998 Y57.0250 
G01 X-72.7167 Y57.0594 
G01 X-72.9255 Y57.1272 
G01 X-73.1211 Y57.2269 
G01 X-73.2988 Y57.3560 
G01 X-73.4540 Y57.5112 
G01 X-73.5831 Y57.6889 
G01 X-73.6828 Y57.8845 
G01 X-73.7506 Y58.0933 
G01 X-73.7850 Y58.3102 
G01 X-73.7850 Y58.5298 
G01 X-73.7506 Y58.7467 
G01 X-73.6828 Y58.9555 
G01 X-73.5831 Y59.1511 
G01 X-73.4540 Y59.3288 
G01 X-73.2988 Y59.4840 
G01 X-73.1211 Y59.6131 
G01 X-72.9255 Y59.7128 
G01 X-72.7167 Y59.7806 
G01 X-72.4998 Y59.8150 
G01 X-72.2802 Y59.8150 
G01 X-72.0633 Y59.7806 
G01 X-71.8545 Y59.7128 
G01 X-71.6589 Y59.6131 
G01 X-71.5439 Y59.5296 
G01 X-67.2227 Y59.5296 
G01 X-67.0502 Y59.5023 
G01 X-66.8841 Y59.4483 
G01 X-66.7284 Y59.3690 
G01 X-66.5871 Y59.2664 
G01 X-66.4636 Y59.1429 
G01 X-64.3104 Y56.9896 
G01 X-44.9815 Y56.9896 
G01 X-44.9306 Y57.0404 
G01 X-43.9693 Y57.0404 
G01 X-43.2896 Y56.3606 
G01 X-43.2896 Y55.3993 
G01 X-43.9693 Y54.7196 
G01 X-44.9306 Y54.7196 
G01 X-44.9815 Y54.7704 
G01 X-53.5004 Y54.7704 
G01 X-53.5004 Y34.1296 
G01 X-50.7127 Y34.1296 
G01 X-50.5402 Y34.1023 
G01 X-50.3741 Y34.0483 
G01 X-50.2184 Y33.9690 
G01 X-50.0771 Y33.8664 
G01 X-49.9536 Y33.7429 
G01 X-49.8510 Y33.6016 
G01 X-49.7717 Y33.4459 
G01 X-49.7177 Y33.2798 
G01 X-49.6904 Y33.1073 
G01 X-49.6904 Y18.2396 
G01 X-46.5304 Y15.0796 
G01 X-37.9396 Y15.0796 
G01 X-37.9396 Y22.9473 
G01 X-37.9123 Y23.1198 
G01 X-37.8583 Y23.2859 
G01 X-37.7790 Y23.4416 
G01 X-37.6764 Y23.5829 
G01 X-37.5529 Y23.7064 
G01 X-37.4116 Y23.8090 
G01 X-37.2559 Y23.8883 
G01 X-37.0898 Y23.9423 
G01 X-36.9173 Y23.9696 
G01 X-30.9396 Y23.9696 
G01 X-29.0496 Y25.8596 
G01 X-29.0496 Y30.5673 
G01 X-29.0223 Y30.7398 
G01 X-28.9683 Y30.9059 
G01 X-28.8890 Y31.0616 
G01 X-28.7864 Y31.2029 
G01 X-27.3929 Y32.5964 
G01 X-27.2516 Y32.6990 
G01 X-27.0959 Y32.7783 
G01 X-26.9298 Y32.8323 
G01 X-26.7573 Y32.8596 
G01 X-25.1305 Y32.8596 
G01 X-25.0621 Y32.8818 
G01 X-24.8817 Y32.9104 
G01 X-23.3783 Y32.9104 
G01 X-23.1979 Y32.8818 
G01 X-23.0242 Y32.8254 
G01 X-22.8614 Y32.7425 
G01 X-22.7137 Y32.6351 
G01 X-22.5845 Y32.5059 
G01 X-22.4771 Y32.3582 
G01 X-22.3942 Y32.1954 
G01 X-22.3378 Y32.0217 
G01 X-22.3092 Y31.8413 
G01 X-22.3092 Y31.6587 
G01 X-22.3378 Y31.4783 
G01 X-22.3942 Y31.3046 
G01 X-22.4771 Y31.1418 
G01 X-22.5845 Y30.9941 
G01 X-22.7137 Y30.8649 
G01 X-22.8614 Y30.7575 
G01 X-23.0242 Y30.6746 
G01 X-23.1979 Y30.6182 
G01 X-23.3783 Y30.5896 
G01 X-24.8817 Y30.5896 
G01 X-25.0621 Y30.6182 
G01 X-25.1305 Y30.6404 
G01 X-26.2104 Y30.6404 
G01 X-26.8304 Y30.0204 
G01 X-26.8304 Y25.3127 
G01 X-26.8577 Y25.1402 
G01 X-26.9117 Y24.9741 
G01 X-26.9910 Y24.8184 
G01 X-27.0936 Y24.6771 
G01 X-29.6336 Y22.1371 
G01 X-29.7571 Y22.0136 
G01 X-29.8984 Y21.9110 
G01 X-30.0541 Y21.8317 
G01 X-30.2202 Y21.7777 
G01 X-30.3927 Y21.7504 
G01 X-35.7204 Y21.7504 
G01 X-35.7204 Y13.8827 
G01 X-35.7477 Y13.7102 
G01 X-35.8017 Y13.5441 
G01 X-35.8810 Y13.3884 
G01 X-35.9836 Y13.2471 
G00 Z2.0000  
G00 X-43.2896 Y18.5693 
G01 Z-0.0500 F120   
G01 X-43.9693 Y17.8896 F120   
G01 X-44.9306 Y17.8896 
G01 X-45.6104 Y18.5693 
G01 X-45.6104 Y19.5307 
G01 X-45.5596 Y19.5815 
G01 X-45.5596 Y52.8085 
G01 X-45.6104 Y52.8593 
G01 X-45.6104 Y53.8207 
G01 X-44.9306 Y54.5004 
G01 X-43.9693 Y54.5004 
G01 X-43.2896 Y53.8207 
G01 X-43.2896 Y52.8593 
G01 X-43.3404 Y52.8085 
G01 X-43.3404 Y19.5815 
G01 X-43.2896 Y19.5307 
G01 X-43.2896 Y18.5693 
G00 Z2.0000  
G00 X-33.1663 Y25.7849 
G01 Z-0.0500 F120   
G01 X-33.2955 Y25.9140 F120   
G01 X-33.4029 Y26.0618 
G01 X-33.4858 Y26.2246 
G01 X-33.5422 Y26.3983 
G01 X-33.5708 Y26.5787 
G01 X-33.5708 Y26.7613 
G01 X-33.5422 Y26.9417 
G01 X-33.4858 Y27.1154 
G01 X-33.4029 Y27.2782 
G01 X-33.2955 Y27.4259 
G01 X-33.1663 Y27.5551 
G01 X-33.0186 Y27.6625 
G01 X-32.8558 Y27.7454 
G01 X-32.6821 Y27.8018 
G01 X-32.5017 Y27.8304 
G01 X-30.9983 Y27.8304 
G01 X-30.8179 Y27.8018 
G01 X-30.6442 Y27.7454 
G01 X-30.4814 Y27.6625 
G01 X-30.3336 Y27.5551 
G01 X-30.2045 Y27.4259 
G01 X-30.0971 Y27.2782 
G01 X-30.0142 Y27.1154 
G01 X-29.9578 Y26.9417 
G01 X-29.9292 Y26.7613 
G01 X-29.9292 Y26.5787 
G01 X-29.9578 Y26.3983 
G01 X-30.0142 Y26.2246 
G01 X-30.0971 Y26.0618 
G01 X-30.2045 Y25.9140 
G01 X-30.3336 Y25.7849 
G01 X-30.4814 Y25.6775 
G01 X-30.6442 Y25.5946 
G01 X-30.8179 Y25.5382 
G01 X-30.9983 Y25.5096 
G01 X-32.5017 Y25.5096 
G01 X-32.6821 Y25.5382 
G01 X-32.8558 Y25.5946 
G01 X-33.0186 Y25.6775 
G01 X-33.1663 Y25.7849 
G00 Z2.0000  
G00 X-33.1663 Y28.3249 
G01 Z-0.0500 F120   
G01 X-33.2955 Y28.4540 F120   
G01 X-33.4029 Y28.6018 
G01 X-33.4858 Y28.7646 
G01 X-33.5422 Y28.9383 
G01 X-33.5708 Y29.1187 
G01 X-33.5708 Y29.3013 
G01 X-33.5422 Y29.4817 
G01 X-33.4858 Y29.6554 
G01 X-33.4029 Y29.8182 
G01 X-33.2955 Y29.9659 
G01 X-33.1663 Y30.0951 
G01 X-33.0186 Y30.2025 
G01 X-32.8558 Y30.2854 
G01 X-32.6821 Y30.3418 
G01 X-32.5017 Y30.3704 
G01 X-30.9983 Y30.3704 
G01 X-30.8179 Y30.3418 
G01 X-30.6442 Y30.2854 
G01 X-30.4814 Y30.2025 
G01 X-30.3336 Y30.0951 
G01 X-30.2045 Y29.9659 
G01 X-30.0971 Y29.8182 
G01 X-30.0142 Y29.6554 
G01 X-29.9578 Y29.4817 
G01 X-29.9292 Y29.3013 
G01 X-29.9292 Y29.1187 
G01 X-29.9578 Y28.9383 
G01 X-30.0142 Y28.7646 
G01 X-30.0971 Y28.6018 
G01 X-30.2045 Y28.4540 
G01 X-30.3336 Y28.3249 
G01 X-30.4814 Y28.2175 
G01 X-30.6442 Y28.1346 
G01 X-30.8179 Y28.0782 
G01 X-30.9983 Y28.0496 
G01 X-32.5017 Y28.0496 
G01 X-32.6821 Y28.0782 
G01 X-32.8558 Y28.1346 
G01 X-33.0186 Y28.2175 
G01 X-33.1663 Y28.3249 
G00 Z2.0000  
G00 X-33.1663 Y30.8649 
G01 Z-0.0500 F120   
G01 X-33.2955 Y30.9941 F120   
G01 X-33.4029 Y31.1418 
G01 X-33.4858 Y31.3046 
G01 X-33.5422 Y31.4783 
G01 X-33.5708 Y31.6587 
G01 X-33.5708 Y31.8413 
G01 X-33.5422 Y32.0217 
G01 X-33.4858 Y32.1954 
G01 X-33.4029 Y32.3582 
G01 X-33.2955 Y32.5059 
G01 X-33.1663 Y32.6351 
G01 X-33.0186 Y32.7425 
G01 X-32.8558 Y32.8254 
G01 X-32.6821 Y32.8818 
G01 X-32.5017 Y32.9104 
G01 X-30.9983 Y32.9104 
G01 X-30.8179 Y32.8818 
G01 X-30.6442 Y32.8254 
G01 X-30.4814 Y32.7425 
G01 X-30.3336 Y32.6351 
G01 X-30.2045 Y32.5059 
G01 X-30.0971 Y32.3582 
G01 X-30.0142 Y32.1954 
G01 X-29.9578 Y32.0217 
G01 X-29.9292 Y31.8413 
G01 X-29.9292 Y31.6587 
G01 X-29.9578 Y31.4783 
G01 X-30.0142 Y31.3046 
G01 X-30.0971 Y31.1418 
G01 X-30.2045 Y30.9941 
G01 X-30.3336 Y30.8649 
G01 X-30.4814 Y30.7575 
G01 X-30.6442 Y30.6746 
G01 X-30.8179 Y30.6182 
G01 X-30.9983 Y30.5896 
G01 X-32.5017 Y30.5896 
G01 X-32.6821 Y30.6182 
G01 X-32.8558 Y30.6746 
G01 X-33.0186 Y30.7575 
G01 X-33.1663 Y30.8649 
G00 Z2.0000  
G00 X-33.1663 Y33.4049 
G01 Z-0.0500 F120   
G01 X-33.2955 Y33.5341 F120   
G01 X-33.4029 Y33.6818 
G01 X-33.4858 Y33.8446 
G01 X-33.5422 Y34.0183 
G01 X-33.5708 Y34.1987 
G01 X-33.5708 Y34.3813 
G01 X-33.5422 Y34.5617 
G01 X-33.4858 Y34.7354 
G01 X-33.4029 Y34.8982 
G01 X-33.2955 Y35.0459 
G01 X-33.1663 Y35.1751 
G01 X-33.0186 Y35.2825 
G01 X-32.8558 Y35.3654 
G01 X-32.6821 Y35.4218 
G01 X-32.5017 Y35.4504 
G01 X-30.9983 Y35.4504 
G01 X-30.8179 Y35.4218 
G01 X-30.6442 Y35.3654 
G01 X-30.4814 Y35.2825 
G01 X-30.3336 Y35.1751 
G01 X-30.2045 Y35.0459 
G01 X-30.0971 Y34.8982 
G01 X-30.0142 Y34.7354 
G01 X-29.9578 Y34.5617 
G01 X-29.9292 Y34.3813 
G01 X-29.9292 Y34.1987 
G01 X-29.9578 Y34.0183 
G01 X-30.0142 Y33.8446 
G01 X-30.0971 Y33.6818 
G01 X-30.2045 Y33.5341 
G01 X-30.3336 Y33.4049 
G01 X-30.4814 Y33.2975 
G01 X-30.6442 Y33.2146 
G01 X-30.8179 Y33.1582 
G01 X-30.9983 Y33.1296 
G01 X-32.5017 Y33.1296 
G01 X-32.6821 Y33.1582 
G01 X-32.8558 Y33.2146 
G01 X-33.0186 Y33.2975 
G01 X-33.1663 Y33.4049 
G00 Z2.0000  
G00 X-33.1663 Y35.9449 
G01 Z-0.0500 F120   
G01 X-33.2955 Y36.0740 F120   
G01 X-33.4029 Y36.2218 
G01 X-33.4858 Y36.3846 
G01 X-33.5422 Y36.5583 
G01 X-33.5708 Y36.7387 
G01 X-33.5708 Y36.9213 
G01 X-33.5422 Y37.1017 
G01 X-33.4858 Y37.2754 
G01 X-33.4029 Y37.4382 
G01 X-33.2955 Y37.5859 
G01 X-33.1663 Y37.7151 
G01 X-33.0186 Y37.8225 
G01 X-32.8558 Y37.9054 
G01 X-32.6821 Y37.9618 
G01 X-32.5017 Y37.9904 
G01 X-30.9983 Y37.9904 
G01 X-30.8179 Y37.9618 
G01 X-30.6442 Y37.9054 
G01 X-30.4814 Y37.8225 
G01 X-30.3336 Y37.7151 
G01 X-30.2045 Y37.5859 
G01 X-30.0971 Y37.4382 
G01 X-30.0142 Y37.2754 
G01 X-29.9578 Y37.1017 
G01 X-29.9292 Y36.9213 
G01 X-29.9292 Y36.7387 
G01 X-29.9578 Y36.5583 
G01 X-30.0142 Y36.3846 
G01 X-30.0971 Y36.2218 
G01 X-30.2045 Y36.0740 
G01 X-30.3336 Y35.9449 
G01 X-30.4814 Y35.8375 
G01 X-30.6442 Y35.7546 
G01 X-30.8179 Y35.6982 
G01 X-30.9983 Y35.6696 
G01 X-32.5017 Y35.6696 
G01 X-32.6821 Y35.6982 
G01 X-32.8558 Y35.7546 
G01 X-33.0186 Y35.8375 
G01 X-33.1663 Y35.9449 
G00 Z2.0000  
G00 X-33.1663 Y38.4849 
G01 Z-0.0500 F120   
G01 X-33.2955 Y38.6140 F120   
G01 X-33.4029 Y38.7618 
G01 X-33.4858 Y38.9246 
G01 X-33.5422 Y39.0983 
G01 X-33.5708 Y39.2787 
G01 X-33.5708 Y39.4613 
G01 X-33.5422 Y39.6417 
G01 X-33.4858 Y39.8154 
G01 X-33.4029 Y39.9782 
G01 X-33.2955 Y40.1259 
G01 X-33.1663 Y40.2551 
G01 X-33.0186 Y40.3625 
G01 X-32.8558 Y40.4454 
G01 X-32.6821 Y40.5018 
G01 X-32.5017 Y40.5304 
G01 X-30.9983 Y40.5304 
G01 X-30.8179 Y40.5018 
G01 X-30.6442 Y40.4454 
G01 X-30.4814 Y40.3625 
G01 X-30.3336 Y40.2551 
G01 X-30.2045 Y40.1259 
G01 X-30.0971 Y39.9782 
G01 X-30.0142 Y39.8154 
G01 X-29.9578 Y39.6417 
G01 X-29.9292 Y39.4613 
G01 X-29.9292 Y39.2787 
G01 X-29.9578 Y39.0983 
G01 X-30.0142 Y38.9246 
G01 X-30.0971 Y38.7618 
G01 X-30.2045 Y38.6140 
G01 X-30.3336 Y38.4849 
G01 X-30.4814 Y38.3775 
G01 X-30.6442 Y38.2946 
G01 X-30.8179 Y38.2382 
G01 X-30.9983 Y38.2096 
G01 X-32.5017 Y38.2096 
G01 X-32.6821 Y38.2382 
G01 X-32.8558 Y38.2946 
G01 X-33.0186 Y38.3775 
G01 X-33.1663 Y38.4849 
G00 Z2.0000  
G00 X-33.1663 Y41.0249 
G01 Z-0.0500 F120   
G01 X-33.2955 Y41.1540 F120   
G01 X-33.4029 Y41.3018 
G01 X-33.4858 Y41.4646 
G01 X-33.5422 Y41.6383 
G01 X-33.5708 Y41.8187 
G01 X-33.5708 Y42.0013 
G01 X-33.5422 Y42.1817 
G01 X-33.4858 Y42.3554 
G01 X-33.4029 Y42.5182 
G01 X-33.2955 Y42.6659 
G01 X-33.1663 Y42.7951 
G01 X-33.0186 Y42.9025 
G01 X-32.8558 Y42.9854 
G01 X-32.6821 Y43.0418 
G01 X-32.5017 Y43.0704 
G01 X-30.9983 Y43.0704 
G01 X-30.8179 Y43.0418 
G01 X-30.7495 Y43.0196 
G01 X-29.0496 Y43.0196 
G01 X-29.0496 Y58.5073 
G01 X-29.0223 Y58.6798 
G01 X-28.9683 Y58.8459 
G01 X-28.8890 Y59.0016 
G01 X-28.7864 Y59.1429 
G01 X-28.6629 Y59.2664 
G01 X-28.5216 Y59.3690 
G01 X-28.3659 Y59.4483 
G01 X-28.1998 Y59.5023 
G01 X-28.0273 Y59.5296 
G01 X-12.5741 Y59.5296 
G01 X-12.5525 Y59.5961 
G01 X-12.4659 Y59.7660 
G01 X-12.3538 Y59.9202 
G01 X-12.2190 Y60.0551 
G01 X-12.0648 Y60.1671 
G01 X-11.8949 Y60.2537 
G01 X-11.7136 Y60.3126 
G01 X-11.5253 Y60.3424 
G01 X-11.3347 Y60.3424 
G01 X-11.1464 Y60.3126 
G01 X-10.9651 Y60.2537 
G01 X-10.7952 Y60.1671 
G01 X-10.6410 Y60.0551 
G01 X-10.5061 Y59.9202 
G01 X-10.3941 Y59.7660 
G01 X-10.3075 Y59.5961 
G01 X-10.2486 Y59.4148 
G01 X-10.2188 Y59.2265 
G01 X-10.2188 Y57.6135 
G01 X-10.2486 Y57.4252 
G01 X-10.3075 Y57.2439 
G01 X-10.3204 Y57.2186 
G01 X-10.3204 Y55.1414 
G01 X-10.2696 Y55.0906 
G01 X-10.2696 Y54.1293 
G01 X-10.9493 Y53.4496 
G01 X-11.9107 Y53.4496 
G01 X-12.5904 Y54.1293 
G01 X-12.5904 Y55.0906 
G01 X-12.5396 Y55.1414 
G01 X-12.5396 Y57.2186 
G01 X-12.5525 Y57.2439 
G01 X-12.5741 Y57.3104 
G01 X-26.8304 Y57.3104 
G01 X-26.8304 Y36.0196 
G01 X-26.2104 Y35.3996 
G01 X-25.1305 Y35.3996 
G01 X-25.0621 Y35.4218 
G01 X-24.8817 Y35.4504 
G01 X-23.3783 Y35.4504 
G01 X-23.1979 Y35.4218 
G01 X-23.0242 Y35.3654 
G01 X-22.8614 Y35.2825 
G01 X-22.7137 Y35.1751 
G01 X-22.5845 Y35.0459 
G01 X-22.4771 Y34.8982 
G01 X-22.3942 Y34.7354 
G01 X-22.3378 Y34.5617 
G01 X-22.3092 Y34.3813 
G01 X-22.3092 Y34.1987 
G01 X-22.3378 Y34.0183 
G01 X-22.3942 Y33.8446 
G01 X-22.4771 Y33.6818 
G01 X-22.5845 Y33.5341 
G01 X-22.7137 Y33.4049 
G01 X-22.8614 Y33.2975 
G01 X-23.0242 Y33.2146 
G01 X-23.1979 Y33.1582 
G01 X-23.3783 Y33.1296 
G01 X-24.8817 Y33.1296 
G01 X-25.0621 Y33.1582 
G01 X-25.1305 Y33.1804 
G01 X-26.7573 Y33.1804 
G01 X-26.9298 Y33.2077 
G01 X-27.0959 Y33.2617 
G01 X-27.2516 Y33.3410 
G01 X-27.3929 Y33.4436 
G01 X-28.6629 Y34.7136 
G01 X-28.7864 Y34.8371 
G01 X-28.8890 Y34.9784 
G01 X-28.9683 Y35.1341 
G01 X-29.0223 Y35.3002 
G01 X-29.0496 Y35.4727 
G01 X-29.0496 Y40.8004 
G01 X-30.7495 Y40.8004 
G01 X-30.8179 Y40.7782 
G01 X-30.9983 Y40.7496 
G01 X-32.5017 Y40.7496 
G01 X-32.6821 Y40.7782 
G01 X-32.8558 Y40.8346 
G01 X-33.0186 Y40.9175 
G01 X-33.1663 Y41.0249 
G00 Z2.0000  
G00 X-25.5463 Y41.0249 
G01 Z-0.0500 F120   
G01 X-25.6755 Y41.1540 F120   
G01 X-25.7829 Y41.3018 
G01 X-25.8658 Y41.4646 
G01 X-25.9222 Y41.6383 
G01 X-25.9508 Y41.8187 
G01 X-25.9508 Y42.0013 
G01 X-25.9222 Y42.1817 
G01 X-25.8658 Y42.3554 
G01 X-25.7829 Y42.5182 
G01 X-25.6755 Y42.6659 
G01 X-25.5463 Y42.7951 
G01 X-25.3986 Y42.9025 
G01 X-25.2358 Y42.9854 
G01 X-25.0621 Y43.0418 
G01 X-24.8817 Y43.0704 
G01 X-23.3783 Y43.0704 
G01 X-23.1979 Y43.0418 
G01 X-23.1295 Y43.0196 
G01 X-17.0415 Y43.0196 
G01 X-16.9906 Y43.0704 
G01 X-16.0293 Y43.0704 
G01 X-15.9786 Y43.0196 
G01 X-11.9614 Y43.0196 
G01 X-11.9107 Y43.0704 
G01 X-10.9493 Y43.0704 
G01 X-10.2696 Y42.3907 
G01 X-10.2696 Y41.4293 
G01 X-10.9493 Y40.7496 
G01 X-11.9107 Y40.7496 
G01 X-11.9614 Y40.8004 
G01 X-15.9786 Y40.8004 
G01 X-16.0293 Y40.7496 
G01 X-16.9906 Y40.7496 
G01 X-17.0415 Y40.8004 
G01 X-23.1295 Y40.8004 
G01 X-23.1979 Y40.7782 
G01 X-23.3783 Y40.7496 
G01 X-24.8817 Y40.7496 
G01 X-25.0621 Y40.7782 
G01 X-25.2358 Y40.8346 
G01 X-25.3986 Y40.9175 
G01 X-25.5463 Y41.0249 
G00 Z2.0000  
G00 X-25.5463 Y37.7151 
G01 Z-0.0500 F120   
G01 X-25.3986 Y37.8225 F120   
G01 X-25.2358 Y37.9054 
G01 X-25.0621 Y37.9618 
G01 X-24.8817 Y37.9904 
G01 X-23.3783 Y37.9904 
G01 X-23.1979 Y37.9618 
G01 X-23.0242 Y37.9054 
G01 X-22.8614 Y37.8225 
G01 X-22.7137 Y37.7151 
G01 X-22.5845 Y37.5859 
G01 X-22.4771 Y37.4382 
G01 X-22.3942 Y37.2754 
G01 X-22.3378 Y37.1017 
G01 X-22.3092 Y36.9213 
G01 X-22.3092 Y36.7387 
G01 X-22.3378 Y36.5583 
G01 X-22.3942 Y36.3846 
G01 X-22.4771 Y36.2218 
G01 X-22.5845 Y36.0740 
G01 X-22.7137 Y35.9449 
G01 X-22.8614 Y35.8375 
G01 X-23.0242 Y35.7546 
G01 X-23.1979 Y35.6982 
G01 X-23.3783 Y35.6696 
G01 X-24.8817 Y35.6696 
G01 X-25.0621 Y35.6982 
G01 X-25.2358 Y35.7546 
G01 X-25.3986 Y35.8375 
G01 X-25.5463 Y35.9449 
G01 X-25.6755 Y36.0740 
G01 X-25.7829 Y36.2218 
G01 X-25.8658 Y36.3846 
G01 X-25.9222 Y36.5583 
G01 X-25.9508 Y36.7387 
G01 X-25.9508 Y36.9213 
G01 X-25.9222 Y37.1017 
G01 X-25.8658 Y37.2754 
G01 X-25.7829 Y37.4382 
G01 X-25.6755 Y37.5859 
G01 X-25.5463 Y37.7151 
G00 Z2.0000  
G00 X-68.3045 Y42.4241 
G01 Z-0.0500 F120   
G01 X-68.4337 Y42.2949 F120   
G01 X-68.5814 Y42.1875 
G01 X-68.7442 Y42.1046 
G01 X-68.9179 Y42.0482 
G01 X-69.0983 Y42.0196 
G01 X-70.6017 Y42.0196 
G01 X-70.7821 Y42.0482 
G01 X-70.8505 Y42.0704 
G01 X-86.5204 Y42.0704 
G01 X-86.5204 Y36.6335 
G01 X-86.3614 Y36.5525 
G01 X-86.2137 Y36.4451 
G01 X-86.0845 Y36.3159 
G01 X-85.9771 Y36.1682 
G01 X-85.8942 Y36.0054 
G01 X-85.8378 Y35.8317 
G01 X-85.8092 Y35.6513 
G01 X-85.8092 Y35.4687 
G01 X-85.8378 Y35.2883 
G01 X-85.8942 Y35.1146 
G01 X-85.9771 Y34.9518 
G01 X-86.0845 Y34.8040 
G01 X-86.2137 Y34.6749 
G01 X-86.3614 Y34.5675 
G01 X-86.5242 Y34.4846 
G01 X-86.6979 Y34.4282 
G01 X-86.8783 Y34.3996 
G01 X-88.3817 Y34.3996 
G01 X-88.5621 Y34.4282 
G01 X-88.7358 Y34.4846 
G01 X-88.8986 Y34.5675 
G01 X-89.0463 Y34.6749 
G01 X-89.1755 Y34.8040 
G01 X-89.2829 Y34.9518 
G01 X-89.3658 Y35.1146 
G01 X-89.4222 Y35.2883 
G01 X-89.4508 Y35.4687 
G01 X-89.4508 Y35.6513 
G01 X-89.4222 Y35.8317 
G01 X-89.3658 Y36.0054 
G01 X-89.2829 Y36.1682 
G01 X-89.1755 Y36.3159 
G01 X-89.0463 Y36.4451 
G01 X-88.8986 Y36.5525 
G01 X-88.7396 Y36.6335 
G01 X-88.7396 Y55.8403 
G01 X-88.7123 Y56.0128 
G01 X-88.6583 Y56.1789 
G01 X-88.5790 Y56.3346 
G01 X-88.4764 Y56.4759 
G01 X-85.6859 Y59.2664 
G01 X-85.5446 Y59.3690 
G01 X-85.3889 Y59.4483 
G01 X-85.2228 Y59.5023 
G01 X-85.0503 Y59.5296 
G01 X-80.8561 Y59.5296 
G01 X-80.7411 Y59.6131 
G01 X-80.5455 Y59.7128 
G01 X-80.3367 Y59.7806 
G01 X-80.1198 Y59.8150 
G01 X-79.9002 Y59.8150 
G01 X-79.6833 Y59.7806 
G01 X-79.4745 Y59.7128 
G01 X-79.2789 Y59.6131 
G01 X-79.1012 Y59.4840 
G01 X-78.9460 Y59.3288 
G01 X-78.8169 Y59.1511 
G01 X-78.7172 Y58.9555 
G01 X-78.6493 Y58.7467 
G01 X-78.6150 Y58.5298 
G01 X-78.6150 Y58.3102 
G01 X-78.6493 Y58.0933 
G01 X-78.7172 Y57.8845 
G01 X-78.8169 Y57.6889 
G01 X-78.9460 Y57.5112 
G01 X-79.1012 Y57.3560 
G01 X-79.2789 Y57.2269 
G01 X-79.4745 Y57.1272 
G01 X-79.6833 Y57.0594 
G01 X-79.9002 Y57.0250 
G01 X-80.1198 Y57.0250 
G01 X-80.3367 Y57.0594 
G01 X-80.5455 Y57.1272 
G01 X-80.7411 Y57.2269 
G01 X-80.8561 Y57.3104 
G01 X-84.5034 Y57.3104 
G01 X-86.5204 Y55.2934 
G01 X-86.5204 Y44.2896 
G01 X-70.8505 Y44.2896 
G01 X-70.7821 Y44.3118 
G01 X-70.6017 Y44.3404 
G01 X-69.0983 Y44.3404 
G01 X-68.9179 Y44.3118 
G01 X-68.7442 Y44.2554 
G01 X-68.5814 Y44.1725 
G01 X-68.4337 Y44.0651 
G01 X-68.3045 Y43.9359 
G01 X-68.1971 Y43.7882 
G01 X-68.1142 Y43.6254 
G01 X-68.0578 Y43.4517 
G01 X-68.0292 Y43.2713 
G01 X-68.0292 Y43.0887 
G01 X-68.0578 Y42.9083 
G01 X-68.1142 Y42.7346 
G01 X-68.1971 Y42.5718 
G01 X-68.3045 Y42.4241 
G00 Z2.0000  
G00 X-74.4493 Y34.1804 
G01 Z-0.0500 F120   
G01 X-73.7696 Y33.5007 F120   
G01 X-73.7696 Y32.5393 
G01 X-74.4493 Y31.8596 
G01 X-75.4107 Y31.8596 
G01 X-75.4614 Y31.9104 
G01 X-77.5386 Y31.9104 
G01 X-77.5639 Y31.8975 
G01 X-77.7452 Y31.8386 
G01 X-77.9335 Y31.8088 
G01 X-79.5465 Y31.8088 
G01 X-79.7348 Y31.8386 
G01 X-79.9161 Y31.8975 
G01 X-79.9414 Y31.9104 
G01 X-86.6295 Y31.9104 
G01 X-86.6979 Y31.8882 
G01 X-86.8783 Y31.8596 
G01 X-88.3817 Y31.8596 
G01 X-88.5621 Y31.8882 
G01 X-88.7358 Y31.9446 
G01 X-88.8986 Y32.0275 
G01 X-89.0463 Y32.1349 
G01 X-89.1755 Y32.2640 
G01 X-89.2829 Y32.4118 
G01 X-89.3658 Y32.5746 
G01 X-89.4222 Y32.7483 
G01 X-89.4508 Y32.9287 
G01 X-89.4508 Y33.1113 
G01 X-89.4222 Y33.2917 
G01 X-89.3658 Y33.4654 
G01 X-89.2829 Y33.6282 
G01 X-89.1755 Y33.7759 
G01 X-89.0463 Y33.9051 
G01 X-88.8986 Y34.0125 
G01 X-88.7358 Y34.0954 
G01 X-88.5621 Y34.1518 
G01 X-88.3817 Y34.1804 
G01 X-86.8783 Y34.1804 
G01 X-86.6979 Y34.1518 
G01 X-86.6295 Y34.1296 
G01 X-79.9414 Y34.1296 
G01 X-79.9161 Y34.1425 
G01 X-79.7348 Y34.2014 
G01 X-79.5465 Y34.2312 
G01 X-77.9335 Y34.2312 
G01 X-77.7452 Y34.2014 
G01 X-77.5639 Y34.1425 
G01 X-77.5386 Y34.1296 
G01 X-75.4614 Y34.1296 
G01 X-75.4107 Y34.1804 
G01 X-74.4493 Y34.1804 
G00 Z2.0000  
G00 Z10.0000 
M05
M02
