( pcb2gcode 1.3.2 )
( Software-independent Gcode )

G94 ( Millimeters per minute feed rate. )
G21 ( Units == Millimeters. )

G90 ( Absolute coordinates. )
S10000 ( RPM spindle speed. )
G64 P0.01000 ( set maximum deviation from commanded toolpath )
F120.00000 ( Feedrate. )

F120.00000 ( Feedrate. )
M3 ( Spindle on clockwise. )
G04 P0 ( dwell for no time -- G64 should not smooth over this point )
G00 Z1.50000 ( retract )

G00 X9.16130 Y28.04000 ( rapid move to begin. )
F60.00000
G01 Z-0.05000
G04 P0 ( dwell for no time -- G64 should not smooth over this point )
F120.00000
X9.16130 Y28.04000
X2.29339 Y28.04000
X2.17615 Y28.07579
X2.02834 Y28.09080
X0.69708 Y28.09024
X0.53937 Y28.07145
X0.39827 Y28.02504
X0.26060 Y27.94556
X0.13592 Y27.83106
X0.04905 Y27.71059
X-0.01562 Y27.56535
X-0.04923 Y27.39941
X-0.04867 Y27.25090
X-0.01562 Y27.09537
X0.04430 Y26.95951
X0.14989 Y26.81417
X0.26063 Y26.71519
X0.39830 Y26.63571
X0.53937 Y26.58930
X0.69710 Y26.57053
X2.02834 Y26.57000
X2.17612 Y26.58496
X2.29352 Y26.62080
X9.16115 Y26.62080
X9.37814 Y26.53688
X9.54674 Y26.51920
X10.97958 Y26.51973
X11.14793 Y26.53960
X11.35474 Y26.62080
X13.66909 Y26.62080
X13.78760 Y26.56543
X13.92992 Y26.52746
X14.17325 Y26.52253
X14.32702 Y26.55799
X14.46502 Y26.61900
X14.65387 Y26.76431
X14.79314 Y26.95910
X14.87134 Y27.19515
X14.88229 Y27.35466
X14.86403 Y27.50358
X14.81986 Y27.64353
X14.75892 Y27.76167
X14.59560 Y27.95087
X14.48694 Y28.02887
X14.35128 Y28.09403
X14.22187 Y28.13022
X13.97229 Y28.13931
X13.85446 Y28.11648
X13.67051 Y28.04000
X11.35469 Y28.04000
X11.14793 Y28.12115
X10.97961 Y28.14104
X9.54674 Y28.14160
X9.37811 Y28.12387
X9.16130 Y28.04000
G04 P0 ( dwell for no time -- G64 should not smooth over this point )
G00 Z1.50000 ( retract )

G00 X18.22239 Y36.78080 ( rapid move to begin. )
F60.00000
G01 Z-0.05000
G04 P0 ( dwell for no time -- G64 should not smooth over this point )
F120.00000
X18.22239 Y36.78080
X18.33982 Y36.74496
X18.48754 Y36.73000
X19.80834 Y36.73000
X19.97657 Y36.74930
X20.11766 Y36.79571
X20.25533 Y36.87521
X20.37347 Y36.98156
X20.46120 Y37.10142
X20.53156 Y37.25537
X20.56460 Y37.41090
X20.56514 Y37.55941
X20.53156 Y37.72535
X20.47164 Y37.86127
X20.36605 Y38.00658
X20.24654 Y38.11125
X20.11766 Y38.18504
X19.97657 Y38.23145
X19.80834 Y38.25080
X18.48754 Y38.25080
X18.33979 Y38.23579
X18.22257 Y38.20000
X2.07754 Y38.20000
X2.07754 Y49.76945
X4.32890 Y52.02080
X8.29457 Y52.02080
X8.49046 Y51.86871
X8.68050 Y51.78410
X8.89439 Y51.74033
X9.10229 Y51.74249
X9.29541 Y51.78410
X9.49422 Y51.87439
X9.66112 Y51.99837
X9.79289 Y52.14554
X9.89691 Y52.32570
X9.96285 Y52.53388
X9.98240 Y52.74084
X9.95850 Y52.94734
X9.89691 Y53.13505
X9.79861 Y53.30645
X9.64560 Y53.47637
X9.48548 Y53.59204
X9.30519 Y53.67292
X9.09196 Y53.71991
X8.89439 Y53.72047
X8.68050 Y53.67668
X8.49048 Y53.59207
X8.29460 Y53.44000
X4.03494 Y53.44000
X3.88701 Y53.42395
X3.75453 Y53.38178
X3.64914 Y53.32545
X3.53322 Y53.23213
X0.86622 Y50.56513
X0.77899 Y50.45832
X0.70300 Y50.31024
X0.67224 Y50.20059
X0.65834 Y50.06340
X0.65834 Y30.62618
X0.53937 Y30.61145
X0.40805 Y30.56880
X0.26060 Y30.48556
X0.14989 Y30.38658
X0.05476 Y30.25938
X-0.01562 Y30.10535
X-0.04923 Y29.93941
X-0.04867 Y29.79090
X-0.01562 Y29.63537
X0.04430 Y29.49951
X0.13589 Y29.36972
X0.26063 Y29.25519
X0.40805 Y29.17195
X0.53937 Y29.12930
X0.69710 Y29.11053
X2.02834 Y29.11000
X2.17612 Y29.12496
X2.33766 Y29.17571
X2.48346 Y29.26179
X2.59347 Y29.36156
X2.68120 Y29.48142
X2.75425 Y29.64551
X2.78460 Y29.79090
X2.78295 Y29.96019
X2.75156 Y30.10535
X2.68117 Y30.25938
X2.58605 Y30.38658
X2.46654 Y30.49125
X2.32788 Y30.56880
X2.19657 Y30.61145
X2.07754 Y30.62615
X2.07754 Y36.78080
X18.22239 Y36.78080
G04 P0 ( dwell for no time -- G64 should not smooth over this point )
G00 Z1.50000 ( retract )

G00 X20.97834 Y34.24080 ( rapid move to begin. )
F60.00000
G01 Z-0.05000
G04 P0 ( dwell for no time -- G64 should not smooth over this point )
F120.00000
X20.97834 Y34.24080
X20.97834 Y9.94794
X20.89920 Y9.75388
X20.87369 Y9.52365
X20.89534 Y9.36198
X20.94908 Y9.20717
X21.03285 Y9.06607
X21.14263 Y8.94512
X21.27499 Y8.84812
X21.42305 Y8.77997
X21.58205 Y8.74260
X21.73567 Y8.73709
X21.88489 Y8.75985
X22.02721 Y8.80966
X22.15916 Y8.88578
X22.27288 Y8.98327
X22.36747 Y9.10092
X22.43884 Y9.23430
X22.48444 Y9.37900
X22.50239 Y9.52896
X22.47621 Y9.75586
X22.39754 Y9.94806
X22.39754 Y34.95040
X22.38538 Y35.07910
X22.33938 Y35.23082
X22.28304 Y35.33620
X22.19632 Y35.44486
X22.07379 Y35.54545
X21.96841 Y35.60178
X21.83592 Y35.64395
X21.68794 Y35.66000
X20.07339 Y35.66000
X19.95615 Y35.69579
X19.80834 Y35.71080
X18.48754 Y35.71080
X18.31937 Y35.69145
X18.16895 Y35.64029
X18.04060 Y35.56556
X17.92989 Y35.46658
X17.82905 Y35.33059
X17.76438 Y35.18535
X17.73077 Y35.01941
X17.73133 Y34.87090
X17.76438 Y34.71537
X17.82430 Y34.57951
X17.92249 Y34.44156
X18.04063 Y34.33519
X18.17830 Y34.25571
X18.31937 Y34.20930
X18.48754 Y34.19000
X19.80834 Y34.19000
X19.95612 Y34.20496
X20.07352 Y34.24080
X20.97834 Y34.24080
G04 P0 ( dwell for no time -- G64 should not smooth over this point )
G00 Z1.50000 ( retract )

G00 X45.25754 Y13.75921 ( rapid move to begin. )
F60.00000
G01 Z-0.05000
G04 P0 ( dwell for no time -- G64 should not smooth over this point )
F120.00000
X45.25754 Y13.75921
X45.25754 Y47.25269
X45.33583 Y47.44349
X45.36239 Y47.67069
X45.34276 Y47.82934
X45.29285 Y47.98032
X45.21406 Y48.11949
X45.10979 Y48.24037
X44.98386 Y48.33866
X44.84030 Y48.41083
X44.68691 Y48.45314
X44.52775 Y48.46485
X44.37207 Y48.44588
X44.22216 Y48.39711
X44.08452 Y48.32045
X43.97167 Y48.22627
X43.87390 Y48.10801
X43.79905 Y47.97115
X43.75196 Y47.82403
X43.73347 Y47.66892
X43.76042 Y47.44225
X43.83834 Y47.25276
X43.83834 Y13.75819
X43.76344 Y13.57978
X43.73336 Y13.36027
X43.76097 Y13.15006
X43.84932 Y12.94148
X43.94535 Y12.81209
X44.06405 Y12.70498
X44.20202 Y12.62278
X44.35249 Y12.56949
X44.51012 Y12.54656
X44.66968 Y12.55484
X44.82483 Y12.59418
X44.96874 Y12.66276
X45.09625 Y12.75779
X45.20336 Y12.87648
X45.28556 Y13.01445
X45.33885 Y13.16492
X45.36178 Y13.32255
X45.35350 Y13.48212
X45.31416 Y13.63726
X45.25754 Y13.75921
G04 P0 ( dwell for no time -- G64 should not smooth over this point )
G00 Z1.50000 ( retract )

G00 X42.30185 Y8.99000 ( rapid move to begin. )
F60.00000
G01 Z-0.05000
G04 P0 ( dwell for no time -- G64 should not smooth over this point )
F120.00000
X42.30185 Y8.99000
X38.90754 Y12.38430
X38.90754 Y27.33040
X38.89538 Y27.45910
X38.85687 Y27.59268
X38.78214 Y27.73248
X38.70632 Y27.82486
X38.60008 Y27.91455
X38.47841 Y27.98178
X38.32672 Y28.02776
X38.19794 Y28.04000
X35.09754 Y28.04000
X35.09754 Y49.48080
X44.15076 Y49.48080
X44.37235 Y49.39502
X44.50199 Y49.37717
X44.63176 Y49.38006
X44.83100 Y49.42650
X45.01253 Y49.52121
X45.16430 Y49.65771
X45.27240 Y49.81781
X45.34212 Y50.00894
X45.36229 Y50.21235
X45.33102 Y50.41496
X45.25071 Y50.60241
X45.12302 Y50.76739
X44.95973 Y50.89329
X44.76902 Y50.97445
X44.56400 Y51.00485
X44.33854 Y50.97760
X44.15033 Y50.90000
X24.52185 Y50.90000
X22.18972 Y53.23213
X22.07379 Y53.32542
X21.95030 Y53.38925
X21.81672 Y53.42776
X21.68794 Y53.44000
X17.30131 Y53.44000
X17.09613 Y53.59682
X16.91543 Y53.67668
X16.70149 Y53.72047
X16.51439 Y53.72047
X16.31061 Y53.67939
X16.11048 Y53.59207
X15.93479 Y53.46240
X15.79730 Y53.30645
X15.69900 Y53.13507
X15.63741 Y52.94734
X15.61297 Y52.73037
X15.63741 Y52.51343
X15.69900 Y52.32570
X15.79730 Y52.15433
X15.93479 Y51.99837
X16.11046 Y51.86871
X16.31061 Y51.78138
X16.49362 Y51.74249
X16.70149 Y51.74033
X16.91541 Y51.78410
X17.09611 Y51.86396
X17.30131 Y52.02080
X21.39404 Y52.02080
X23.72622 Y49.68862
X23.84214 Y49.59530
X23.94753 Y49.53897
X24.08004 Y49.49680
X24.22794 Y49.48080
X33.67834 Y49.48080
X33.67834 Y28.04000
X27.16510 Y28.04000
X26.94356 Y28.12575
X26.81392 Y28.14361
X26.68514 Y28.14086
X26.52131 Y28.10683
X26.36650 Y28.03929
X26.22954 Y27.94180
X26.11486 Y27.81742
X26.02845 Y27.67223
X25.97589 Y27.52105
X25.95357 Y27.35242
X25.96645 Y27.18448
X26.00020 Y27.05842
X26.05560 Y26.93548
X26.13043 Y26.82344
X26.22293 Y26.72509
X26.32967 Y26.64386
X26.44945 Y26.58074
X26.57724 Y26.53853
X26.70978 Y26.51796
X26.95593 Y26.53782
X27.16533 Y26.62080
X33.67834 Y26.62080
X33.67834 Y23.04362
X33.60382 Y22.83638
X33.58797 Y22.68037
X33.60382 Y22.52439
X33.66188 Y22.34568
X33.74078 Y22.21017
X33.85269 Y22.08586
X33.97921 Y21.99328
X34.13097 Y21.92330
X34.31479 Y21.88423
X34.47156 Y21.88477
X34.63519 Y21.91954
X34.77862 Y21.98284
X34.91509 Y22.07928
X35.03513 Y22.21017
X35.11403 Y22.34568
X35.17209 Y22.52439
X35.18794 Y22.68037
X35.17209 Y22.83638
X35.09754 Y23.04364
X35.09754 Y26.62080
X37.48834 Y26.62080
X37.48834 Y12.09040
X37.50440 Y11.94239
X37.53909 Y11.82804
X37.60292 Y11.70455
X37.69622 Y11.58862
X41.50622 Y7.77862
X41.62214 Y7.68530
X41.72753 Y7.62897
X41.86004 Y7.58680
X42.00794 Y7.57080
X52.16794 Y7.57080
X52.29670 Y7.58297
X52.43027 Y7.62147
X52.57008 Y7.69620
X52.67632 Y7.78589
X52.76304 Y7.89455
X52.81938 Y7.99993
X52.86154 Y8.13242
X52.87754 Y8.28040
X52.87754 Y16.46080
X58.51794 Y16.46080
X58.67560 Y16.47899
X58.81362 Y16.52560
X58.91291 Y16.58140
X59.01972 Y16.66862
X61.55972 Y19.20862
X61.65304 Y19.32455
X61.71687 Y19.44807
X61.75538 Y19.58165
X61.76754 Y19.71040
X61.76754 Y24.49645
X62.62190 Y25.35080
X63.94239 Y25.35080
X64.05982 Y25.31496
X64.20754 Y25.30000
X65.52834 Y25.30000
X65.69657 Y25.31930
X65.83766 Y25.36571
X65.97533 Y25.44521
X66.09347 Y25.55156
X66.18120 Y25.67142
X66.25156 Y25.82537
X66.28460 Y25.98090
X66.28514 Y26.12941
X66.25156 Y26.29535
X66.18689 Y26.44059
X66.08605 Y26.57658
X65.96654 Y26.68125
X65.82788 Y26.75880
X65.67615 Y26.80579
X65.53883 Y26.82024
X64.20754 Y26.82080
X64.05979 Y26.80579
X63.94257 Y26.77000
X62.32794 Y26.77000
X62.18001 Y26.75395
X62.04753 Y26.71178
X61.94214 Y26.65545
X61.83348 Y26.56873
X60.55622 Y25.29213
X60.46899 Y25.18532
X60.40595 Y25.06922
X60.36224 Y24.92759
X60.34834 Y24.79040
X60.34834 Y20.00425
X58.22409 Y17.88000
X52.16794 Y17.88000
X52.02001 Y17.86395
X51.88753 Y17.82178
X51.76586 Y17.75455
X51.65961 Y17.66486
X51.57290 Y17.55620
X51.50907 Y17.43268
X51.47059 Y17.29913
X51.45834 Y17.17040
X51.45834 Y8.99000
X42.30185 Y8.99000
G04 P0 ( dwell for no time -- G64 should not smooth over this point )
G00 Z1.50000 ( retract )

G00 X57.90834 Y21.74080 ( rapid move to begin. )
F60.00000
G01 Z-0.05000
G04 P0 ( dwell for no time -- G64 should not smooth over this point )
F120.00000
X57.90834 Y21.74080
X56.58754 Y21.74080
X56.41937 Y21.72145
X56.26895 Y21.67029
X56.14060 Y21.59556
X56.01592 Y21.48106
X55.92905 Y21.36059
X55.86438 Y21.21535
X55.83077 Y21.04941
X55.83133 Y20.90090
X55.86438 Y20.74537
X55.92430 Y20.60951
X56.02249 Y20.47156
X56.14063 Y20.36519
X56.27830 Y20.28571
X56.43982 Y20.23496
X56.58754 Y20.22000
X57.90834 Y20.22000
X58.07657 Y20.23930
X58.22699 Y20.29046
X58.35533 Y20.36521
X58.47347 Y20.47156
X58.56120 Y20.59142
X58.62780 Y20.73562
X58.66514 Y20.91136
X58.66514 Y21.04941
X58.63425 Y21.20524
X58.56117 Y21.36938
X58.46605 Y21.49658
X58.35533 Y21.59554
X58.20788 Y21.67880
X58.05615 Y21.72579
X57.90834 Y21.74080
G04 P0 ( dwell for no time -- G64 should not smooth over this point )
G00 Z1.50000 ( retract )

G00 X57.90834 Y24.28080 ( rapid move to begin. )
F60.00000
G01 Z-0.05000
G04 P0 ( dwell for no time -- G64 should not smooth over this point )
F120.00000
X57.90834 Y24.28080
X56.58754 Y24.28080
X56.41937 Y24.26145
X56.26895 Y24.21029
X56.14060 Y24.13556
X56.01592 Y24.02106
X55.92905 Y23.90059
X55.86438 Y23.75535
X55.83077 Y23.58941
X55.83133 Y23.44090
X55.86438 Y23.28537
X55.92430 Y23.14951
X56.02249 Y23.01156
X56.14063 Y22.90519
X56.27830 Y22.82571
X56.43982 Y22.77496
X56.58754 Y22.76000
X57.90834 Y22.76000
X58.07657 Y22.77930
X58.22699 Y22.83046
X58.35533 Y22.90521
X58.47347 Y23.01156
X58.56120 Y23.13142
X58.62780 Y23.27562
X58.66514 Y23.45136
X58.66514 Y23.58941
X58.63425 Y23.74524
X58.56117 Y23.90938
X58.46605 Y24.03658
X58.35533 Y24.13554
X58.20788 Y24.21880
X58.05615 Y24.26579
X57.90834 Y24.28080
G04 P0 ( dwell for no time -- G64 should not smooth over this point )
G00 Z1.50000 ( retract )

G00 X56.58754 Y25.30000 ( rapid move to begin. )
F60.00000
G01 Z-0.05000
G04 P0 ( dwell for no time -- G64 should not smooth over this point )
F120.00000
X56.58754 Y25.30000
X57.90834 Y25.30000
X58.07657 Y25.31930
X58.22699 Y25.37046
X58.35533 Y25.44521
X58.47347 Y25.55156
X58.56120 Y25.67142
X58.63156 Y25.82537
X58.66460 Y25.98090
X58.66514 Y26.12941
X58.63156 Y26.29535
X58.56689 Y26.44059
X58.46605 Y26.57658
X58.35533 Y26.67554
X58.21766 Y26.75504
X58.05615 Y26.80579
X57.90834 Y26.82080
X56.58754 Y26.82080
X56.41937 Y26.80145
X56.26895 Y26.75029
X56.14060 Y26.67556
X56.02989 Y26.57658
X55.92905 Y26.44059
X55.86814 Y26.30513
X55.83077 Y26.12941
X55.83133 Y25.98090
X55.86169 Y25.83551
X55.93474 Y25.67142
X56.02249 Y25.55156
X56.14063 Y25.44519
X56.28805 Y25.36195
X56.43982 Y25.31496
X56.58754 Y25.30000
G04 P0 ( dwell for no time -- G64 should not smooth over this point )
G00 Z1.50000 ( retract )

G00 X57.90834 Y29.36080 ( rapid move to begin. )
F60.00000
G01 Z-0.05000
G04 P0 ( dwell for no time -- G64 should not smooth over this point )
F120.00000
X57.90834 Y29.36080
X56.58754 Y29.36080
X56.41937 Y29.34145
X56.26895 Y29.29029
X56.14060 Y29.21556
X56.01592 Y29.10106
X55.92905 Y28.98059
X55.86438 Y28.83535
X55.83077 Y28.66941
X55.83133 Y28.52090
X55.86438 Y28.36537
X55.92430 Y28.22951
X56.02249 Y28.09156
X56.14063 Y27.98519
X56.27830 Y27.90571
X56.43982 Y27.85496
X56.58754 Y27.84000
X57.90834 Y27.84000
X58.07657 Y27.85930
X58.22699 Y27.91046
X58.35533 Y27.98521
X58.47347 Y28.09156
X58.56120 Y28.21142
X58.62780 Y28.35562
X58.66514 Y28.53136
X58.66514 Y28.66941
X58.63425 Y28.82524
X58.56117 Y28.98938
X58.46605 Y29.11658
X58.35533 Y29.21554
X58.20788 Y29.29880
X58.05615 Y29.34579
X57.90834 Y29.36080
G04 P0 ( dwell for no time -- G64 should not smooth over this point )
G00 Z1.50000 ( retract )

G00 X56.58754 Y30.38000 ( rapid move to begin. )
F60.00000
G01 Z-0.05000
G04 P0 ( dwell for no time -- G64 should not smooth over this point )
F120.00000
X56.58754 Y30.38000
X57.90834 Y30.38000
X58.07657 Y30.39930
X58.22699 Y30.45046
X58.35533 Y30.52521
X58.47347 Y30.63156
X58.56120 Y30.75142
X58.63156 Y30.90537
X58.66460 Y31.06090
X58.66514 Y31.20941
X58.63156 Y31.37535
X58.56689 Y31.52059
X58.46605 Y31.65658
X58.35533 Y31.75554
X58.21766 Y31.83504
X58.05615 Y31.88579
X57.90834 Y31.90080
X56.58754 Y31.90080
X56.41937 Y31.88145
X56.26895 Y31.83029
X56.14060 Y31.75556
X56.02989 Y31.65658
X55.92905 Y31.52059
X55.86814 Y31.38513
X55.83077 Y31.20941
X55.83133 Y31.06090
X55.86169 Y30.91551
X55.93474 Y30.75142
X56.02249 Y30.63156
X56.14063 Y30.52519
X56.28805 Y30.44195
X56.43982 Y30.39496
X56.58754 Y30.38000
G04 P0 ( dwell for no time -- G64 should not smooth over this point )
G00 Z1.50000 ( retract )

G00 X57.90834 Y34.44080 ( rapid move to begin. )
F60.00000
G01 Z-0.05000
G04 P0 ( dwell for no time -- G64 should not smooth over this point )
F120.00000
X57.90834 Y34.44080
X56.58754 Y34.44080
X56.41937 Y34.42145
X56.26895 Y34.37029
X56.14060 Y34.29556
X56.01592 Y34.18106
X55.92905 Y34.06059
X55.86438 Y33.91535
X55.83077 Y33.74941
X55.83133 Y33.60090
X55.86438 Y33.44537
X55.92430 Y33.30951
X56.02249 Y33.17156
X56.14063 Y33.06519
X56.27830 Y32.98571
X56.43982 Y32.93496
X56.58754 Y32.92000
X57.90834 Y32.92000
X58.07657 Y32.93930
X58.22699 Y32.99046
X58.35533 Y33.06521
X58.47347 Y33.17156
X58.56120 Y33.29142
X58.62780 Y33.43562
X58.66514 Y33.61136
X58.66514 Y33.74941
X58.63425 Y33.90524
X58.56117 Y34.06938
X58.46605 Y34.19658
X58.35533 Y34.29554
X58.20788 Y34.37880
X58.05615 Y34.42579
X57.90834 Y34.44080
G04 P0 ( dwell for no time -- G64 should not smooth over this point )
G00 Z1.50000 ( retract )

G00 X64.20754 Y30.38000 ( rapid move to begin. )
F60.00000
G01 Z-0.05000
G04 P0 ( dwell for no time -- G64 should not smooth over this point )
F120.00000
X64.20754 Y30.38000
X65.52834 Y30.38000
X65.69657 Y30.39930
X65.84699 Y30.45046
X65.97533 Y30.52521
X66.09347 Y30.63156
X66.18120 Y30.75142
X66.25156 Y30.90537
X66.28460 Y31.06090
X66.28514 Y31.20941
X66.25156 Y31.37535
X66.18689 Y31.52059
X66.08605 Y31.65658
X65.97533 Y31.75554
X65.83766 Y31.83504
X65.67615 Y31.88579
X65.52834 Y31.90080
X64.20754 Y31.90080
X64.03937 Y31.88145
X63.88895 Y31.83029
X63.76060 Y31.75556
X63.64989 Y31.65658
X63.54905 Y31.52059
X63.48814 Y31.38513
X63.45077 Y31.20941
X63.45133 Y31.06090
X63.48169 Y30.91551
X63.55474 Y30.75142
X63.64249 Y30.63156
X63.76063 Y30.52519
X63.90805 Y30.44195
X64.05982 Y30.39496
X64.20754 Y30.38000
G04 P0 ( dwell for no time -- G64 should not smooth over this point )
G00 Z1.50000 ( retract )

G00 X72.09010 Y35.51080 ( rapid move to begin. )
F60.00000
G01 Z-0.05000
G04 P0 ( dwell for no time -- G64 should not smooth over this point )
F120.00000
X72.09010 Y35.51080
X72.26856 Y35.43587
X72.47428 Y35.40590
X72.69828 Y35.43341
X72.88563 Y35.51080
X77.17051 Y35.51080
X77.37561 Y35.42886
X77.49576 Y35.40905
X77.68631 Y35.41433
X77.84056 Y35.45266
X77.98742 Y35.52198
X78.11557 Y35.61718
X78.22164 Y35.73414
X78.30363 Y35.87034
X78.35765 Y36.02010
X78.38156 Y36.17786
X78.37452 Y36.33534
X78.30698 Y36.56330
X78.22974 Y36.69556
X78.13589 Y36.80450
X77.94198 Y36.94417
X77.80937 Y36.99850
X77.65834 Y37.03008
X77.47053 Y37.02914
X77.35854 Y37.00760
X77.17033 Y36.93000
X72.88576 Y36.93000
X72.70735 Y37.00490
X72.48784 Y37.03498
X72.27763 Y37.00737
X72.09033 Y36.93000
X65.79339 Y36.93000
X65.67615 Y36.96579
X65.52834 Y36.98080
X64.19708 Y36.98024
X64.03937 Y36.96145
X63.89827 Y36.91504
X63.76060 Y36.83556
X63.64989 Y36.73658
X63.54430 Y36.59127
X63.48438 Y36.45535
X63.45077 Y36.28941
X63.45133 Y36.14090
X63.48438 Y35.98537
X63.55474 Y35.83142
X63.64249 Y35.71156
X63.76063 Y35.60519
X63.89830 Y35.52571
X64.03937 Y35.47930
X64.19710 Y35.46053
X65.52834 Y35.46000
X65.67612 Y35.47496
X65.79352 Y35.51080
X72.09010 Y35.51080
G04 P0 ( dwell for no time -- G64 should not smooth over this point )
G00 Z1.50000 ( retract )

G00 X72.09010 Y22.81080 ( rapid move to begin. )
F60.00000
G01 Z-0.05000
G04 P0 ( dwell for no time -- G64 should not smooth over this point )
F120.00000
X72.09010 Y22.81080
X72.26856 Y22.73587
X72.48807 Y22.70580
X72.69828 Y22.73341
X72.88563 Y22.81080
X76.85834 Y22.81080
X76.85834 Y12.35540
X76.82255 Y12.23815
X76.80810 Y12.07991
X76.82255 Y11.94262
X76.86954 Y11.79088
X76.94709 Y11.65222
X77.05176 Y11.53272
X77.18776 Y11.43188
X77.33299 Y11.36721
X77.49893 Y11.33363
X77.64742 Y11.33417
X77.79281 Y11.36452
X77.93881 Y11.42713
X78.07676 Y11.52530
X78.18882 Y11.65222
X78.26261 Y11.78110
X78.30901 Y11.92220
X78.32834 Y12.09037
X78.31336 Y12.23815
X78.27754 Y12.35545
X78.27754 Y23.52040
X78.26154 Y23.66833
X78.21938 Y23.80082
X78.16304 Y23.90620
X78.07632 Y24.01486
X77.95379 Y24.11545
X77.84841 Y24.17178
X77.71592 Y24.21395
X77.56794 Y24.23000
X72.88576 Y24.23000
X72.70735 Y24.30490
X72.48784 Y24.33498
X72.27763 Y24.30737
X72.09033 Y24.23000
X69.38754 Y24.23000
X69.38754 Y33.68040
X69.37154 Y33.82833
X69.32938 Y33.96082
X69.27304 Y34.06620
X69.17246 Y34.18873
X69.06379 Y34.27545
X68.95841 Y34.33178
X68.82592 Y34.37395
X68.67794 Y34.39000
X65.79339 Y34.39000
X65.67615 Y34.42579
X65.52834 Y34.44080
X64.20754 Y34.44080
X64.05979 Y34.42579
X63.90805 Y34.37880
X63.76060 Y34.29556
X63.63592 Y34.18106
X63.54905 Y34.06059
X63.48814 Y33.92513
X63.45077 Y33.74941
X63.45298 Y33.59056
X63.48438 Y33.44537
X63.54430 Y33.30951
X63.64249 Y33.17156
X63.76939 Y33.05950
X63.89830 Y32.98571
X64.03937 Y32.93930
X64.20754 Y32.92000
X65.52834 Y32.92000
X65.67612 Y32.93496
X65.79352 Y32.97080
X67.96834 Y32.97080
X67.96834 Y24.23000
X65.79339 Y24.23000
X65.67615 Y24.26579
X65.52834 Y24.28080
X64.20754 Y24.28080
X64.03937 Y24.26145
X63.89827 Y24.21504
X63.75248 Y24.12896
X63.64989 Y24.03658
X63.55476 Y23.90938
X63.48814 Y23.76513
X63.45298 Y23.61019
X63.45133 Y23.44090
X63.48438 Y23.28537
X63.55474 Y23.13142
X63.64989 Y23.00417
X63.76063 Y22.90519
X63.88895 Y22.83046
X64.03937 Y22.77930
X64.20754 Y22.76000
X65.52834 Y22.76000
X65.67612 Y22.77496
X65.79352 Y22.81080
X72.09010 Y22.81080
G04 P0 ( dwell for no time -- G64 should not smooth over this point )
G00 Z1.50000 ( retract )

G00 X64.47018 Y5.18000 ( rapid move to begin. )
F60.00000
G01 Z-0.05000
G04 P0 ( dwell for no time -- G64 should not smooth over this point )
F120.00000
X64.47018 Y5.18000
X39.76185 Y5.18000
X35.17064 Y9.77120
X35.09754 Y9.94763
X35.09754 Y18.91708
X35.17209 Y19.12437
X35.18794 Y19.28035
X35.17209 Y19.43636
X35.11403 Y19.61507
X35.03516 Y19.75056
X34.92325 Y19.87487
X34.79670 Y19.96747
X34.64494 Y20.03745
X34.47156 Y20.07598
X34.31479 Y20.07654
X34.15086 Y20.04390
X33.97921 Y19.96747
X33.85269 Y19.87489
X33.74735 Y19.75871
X33.65713 Y19.60575
X33.60382 Y19.43636
X33.58797 Y19.28035
X33.60816 Y19.10395
X33.67834 Y18.91716
X33.67834 Y9.94885
X33.61497 Y9.80763
X33.57723 Y9.63038
X33.57814 Y9.46147
X33.61738 Y9.28599
X33.69699 Y9.11885
X33.81327 Y8.97298
X33.98782 Y8.84083
X34.16752 Y8.76732
X38.96622 Y3.96862
X39.06586 Y3.88620
X39.18753 Y3.81897
X39.32004 Y3.77680
X39.46794 Y3.76080
X64.46909 Y3.76080
X64.66756 Y3.68071
X64.89601 Y3.65618
X65.06342 Y3.67949
X65.27574 Y3.76509
X65.40655 Y3.85912
X65.51501 Y3.97533
X65.59878 Y4.11033
X65.65514 Y4.26047
X65.68102 Y4.41891
X65.67548 Y4.57830
X65.63919 Y4.73291
X65.57325 Y4.87817
X65.47922 Y5.00898
X65.36301 Y5.11744
X65.19842 Y5.21495
X65.07828 Y5.25737
X64.96743 Y5.27888
X64.75707 Y5.27741
X64.63561 Y5.25115
X64.47018 Y5.18000
G04 P0 ( dwell for no time -- G64 should not smooth over this point )
G00 Z1.50000 ( retract )

G00 X67.11409 Y1.37000 ( rapid move to begin. )
F60.00000
G01 Z-0.05000
G04 P0 ( dwell for no time -- G64 should not smooth over this point )
F120.00000
X67.11409 Y1.37000
X10.96754 Y1.37000
X10.96754 Y21.54080
X16.60794 Y21.54080
X16.73670 Y21.55297
X16.87027 Y21.59147
X16.99379 Y21.65530
X17.10972 Y21.74862
X19.65673 Y24.29640
X19.74710 Y24.41064
X19.79999 Y24.51153
X19.84370 Y24.65319
X19.85754 Y24.79040
X19.85754 Y31.65460
X19.97657 Y31.66930
X20.10788 Y31.71195
X20.24654 Y31.78950
X20.37347 Y31.90156
X20.47164 Y32.03951
X20.53156 Y32.17537
X20.56514 Y32.34136
X20.56514 Y32.47941
X20.53425 Y32.63524
X20.47164 Y32.78127
X20.38002 Y32.91106
X20.25533 Y33.02554
X20.11766 Y33.10504
X19.95615 Y33.15579
X19.80834 Y33.17080
X18.48754 Y33.17080
X18.33979 Y33.15579
X18.18805 Y33.10880
X18.04060 Y33.02556
X17.91592 Y32.91106
X17.82905 Y32.79059
X17.76814 Y32.65513
X17.73298 Y32.50019
X17.73133 Y32.33090
X17.76438 Y32.17537
X17.83474 Y32.02142
X17.92249 Y31.90156
X18.04939 Y31.78950
X18.18805 Y31.71195
X18.31937 Y31.66930
X18.43834 Y31.65462
X18.43834 Y25.08425
X16.31409 Y22.96000
X10.96754 Y22.96000
X10.96754 Y23.97920
X11.13782 Y23.99688
X11.28933 Y24.04555
X11.45410 Y24.14069
X11.57204 Y24.24758
X11.67643 Y24.39411
X11.74067 Y24.53968
X11.77592 Y24.70559
X11.77646 Y24.86472
X11.74067 Y25.04105
X11.67643 Y25.18667
X11.57862 Y25.32504
X11.44598 Y25.44663
X11.30844 Y25.52670
X11.12749 Y25.58550
X10.96914 Y25.60160
X9.54674 Y25.60160
X9.37811 Y25.58387
X9.16130 Y25.50000
X2.29339 Y25.50000
X2.17615 Y25.53579
X2.02834 Y25.55080
X0.70754 Y25.55080
X0.55979 Y25.53579
X0.40805 Y25.48880
X0.26060 Y25.40556
X0.14989 Y25.30658
X0.05476 Y25.17938
X-0.01562 Y25.02535
X-0.04923 Y24.85941
X-0.04867 Y24.71090
X-0.01562 Y24.55537
X0.05474 Y24.40142
X0.14249 Y24.28156
X0.26063 Y24.17519
X0.39830 Y24.09571
X0.55982 Y24.04496
X0.70754 Y24.03000
X2.02834 Y24.03000
X2.17612 Y24.04496
X2.29352 Y24.08080
X9.16115 Y24.08080
X9.37814 Y23.99688
X9.54834 Y23.97920
X9.54834 Y0.66040
X9.56059 Y0.53162
X9.59907 Y0.39807
X9.67379 Y0.25827
X9.76348 Y0.15202
X9.87214 Y0.06530
X9.97753 Y0.00897
X10.11001 Y-0.03320
X10.25794 Y-0.04920
X67.40794 Y-0.04920
X67.53670 Y-0.03703
X67.67027 Y0.00147
X67.79379 Y0.06530
X67.90246 Y0.15202
X70.24190 Y2.49080
X82.64794 Y2.49080
X82.87217 Y2.52725
X83.06920 Y2.62946
X83.22503 Y2.78762
X83.32432 Y2.98613
X83.35754 Y3.20040
X83.35754 Y52.73040
X83.34538 Y52.85910
X83.30687 Y52.99268
X83.23214 Y53.13248
X83.15632 Y53.22486
X83.05008 Y53.31455
X82.91027 Y53.38928
X82.77672 Y53.42776
X82.64794 Y53.44000
X80.91914 Y53.44000
X80.90146 Y53.61021
X80.84904 Y53.77150
X80.76425 Y53.91836
X80.65816 Y54.03703
X80.52232 Y54.13840
X80.36842 Y54.20932
X80.18229 Y54.24889
X80.01284 Y54.24668
X79.85730 Y54.21307
X79.70236 Y54.14409
X79.55778 Y54.03703
X79.45168 Y53.91838
X79.36690 Y53.77152
X79.31447 Y53.61023
X79.29674 Y53.44160
X79.29674 Y52.01920
X79.31285 Y51.86086
X79.36690 Y51.68923
X79.45171 Y51.54237
X79.57330 Y51.40973
X79.71168 Y51.31191
X79.86740 Y51.24498
X80.03362 Y51.21189
X80.18229 Y51.21189
X80.35867 Y51.24768
X80.52232 Y51.32235
X80.65816 Y51.42372
X80.76423 Y51.54237
X80.84429 Y51.67991
X80.90146 Y51.85052
X80.91914 Y52.02080
X81.93834 Y52.02080
X81.93834 Y3.91000
X78.27754 Y3.91000
X78.27754 Y6.61129
X78.32763 Y6.71599
X78.36726 Y6.85267
X78.38255 Y6.99541
X78.37244 Y7.13918
X78.33741 Y7.27822
X78.27874 Y7.40857
X78.19733 Y7.52775
X78.09741 Y7.62960
X77.98024 Y7.71309
X77.85100 Y7.77436
X77.71280 Y7.81213
X77.57038 Y7.82511
X77.42573 Y7.81261
X77.28664 Y7.77499
X77.15517 Y7.71279
X77.04414 Y7.63440
X76.94221 Y7.53214
X76.85964 Y7.41294
X76.79974 Y7.28170
X76.76385 Y7.14154
X76.75331 Y6.99940
X76.76777 Y6.85724
X76.80719 Y6.71883
X76.85834 Y6.61137
X76.85834 Y3.91000
X70.65754 Y3.91000
X70.65754 Y20.98040
X70.64538 Y21.10910
X70.60687 Y21.24268
X70.53214 Y21.38248
X70.44246 Y21.48873
X70.35008 Y21.56455
X70.21027 Y21.63928
X70.07672 Y21.67776
X69.94794 Y21.69000
X65.79339 Y21.69000
X65.67615 Y21.72579
X65.52834 Y21.74080
X64.20754 Y21.74080
X64.03937 Y21.72145
X63.89827 Y21.67504
X63.76939 Y21.60125
X63.63592 Y21.48106
X63.54905 Y21.36059
X63.48814 Y21.22513
X63.45077 Y21.04941
X63.45298 Y20.89056
X63.48438 Y20.74537
X63.54430 Y20.60951
X63.64249 Y20.47156
X63.76939 Y20.35950
X63.89830 Y20.28571
X64.03937 Y20.23930
X64.20754 Y20.22000
X65.52834 Y20.22000
X65.67612 Y20.23496
X65.79352 Y20.27080
X69.23834 Y20.27080
X69.23834 Y17.88000
X65.26560 Y17.88000
X65.07828 Y17.95737
X64.85428 Y17.98488
X64.64856 Y17.95490
X64.47018 Y17.88000
X63.59794 Y17.88000
X63.46922 Y17.86776
X63.33566 Y17.82928
X63.21214 Y17.76545
X63.09622 Y17.67213
X59.49409 Y14.07000
X57.64677 Y14.07000
X57.52490 Y14.12657
X57.38124 Y14.16411
X57.13407 Y14.16708
X56.91170 Y14.10246
X56.72110 Y13.98181
X56.57172 Y13.81476
X56.47256 Y13.61044
X56.43994 Y13.46474
X56.43463 Y13.31290
X56.46910 Y13.12205
X56.52445 Y12.98623
X56.59458 Y12.87404
X56.77017 Y12.70071
X56.88282 Y12.63228
X57.02104 Y12.57811
X57.20611 Y12.54674
X57.34451 Y12.55141
X57.48795 Y12.58181
X57.64721 Y12.65080
X59.78794 Y12.65080
X59.93592 Y12.66680
X60.06841 Y12.70897
X60.17379 Y12.76530
X60.28972 Y12.85862
X63.89190 Y16.46080
X64.47010 Y16.46080
X64.64856 Y16.38587
X64.86807 Y16.35580
X65.07828 Y16.38341
X65.26563 Y16.46080
X69.23834 Y16.46080
X69.23834 Y3.49425
X67.11409 Y1.37000
G04 P0 ( dwell for no time -- G64 should not smooth over this point )
G00 Z1.50000 ( retract )

G00 X76.75674 Y53.44000 ( rapid move to begin. )
F60.00000
G01 Z-0.05000
G04 P0 ( dwell for no time -- G64 should not smooth over this point )
F120.00000
X76.75674 Y53.44000
X61.05794 Y53.44000
X60.91001 Y53.42395
X60.77753 Y53.38178
X60.67214 Y53.32545
X60.56348 Y53.23873
X60.46290 Y53.11620
X60.40656 Y53.01082
X60.36440 Y52.87833
X60.34834 Y52.73040
X60.34834 Y36.93000
X58.17339 Y36.93000
X58.05615 Y36.96579
X57.90834 Y36.98080
X56.58754 Y36.98080
X56.43979 Y36.96579
X56.26895 Y36.91029
X56.14060 Y36.83556
X56.01592 Y36.72106
X55.92905 Y36.60059
X55.86438 Y36.45535
X55.83077 Y36.28941
X55.83133 Y36.14090
X55.86814 Y35.97562
X55.93474 Y35.83142
X56.02249 Y35.71156
X56.14063 Y35.60519
X56.26895 Y35.53046
X56.43982 Y35.47496
X56.58754 Y35.46000
X57.90834 Y35.46000
X58.05612 Y35.47496
X58.17352 Y35.51080
X60.34834 Y35.51080
X60.34834 Y29.87040
X60.36440 Y29.72239
X60.39909 Y29.60804
X60.46292 Y29.48455
X60.55622 Y29.36862
X61.82622 Y28.09862
X61.94214 Y28.00530
X62.04753 Y27.94897
X62.18004 Y27.90680
X62.32794 Y27.89080
X63.94239 Y27.89080
X64.05982 Y27.85496
X64.20754 Y27.84000
X65.52834 Y27.84000
X65.67612 Y27.85496
X65.84699 Y27.91046
X65.97533 Y27.98521
X66.10005 Y28.09972
X66.19164 Y28.22951
X66.25156 Y28.36537
X66.28460 Y28.52090
X66.28514 Y28.66941
X66.24780 Y28.84513
X66.18689 Y28.98059
X66.08605 Y29.11658
X65.97533 Y29.21554
X65.84699 Y29.29029
X65.67615 Y29.34579
X65.52834 Y29.36080
X64.20754 Y29.36080
X64.05979 Y29.34579
X63.94257 Y29.31000
X62.62185 Y29.31000
X61.76754 Y30.16430
X61.76754 Y52.02080
X76.75674 Y52.02080
X76.77719 Y51.84041
X76.85834 Y51.63370
X76.85834 Y49.31921
X76.80307 Y49.20094
X76.76368 Y49.05027
X76.75364 Y48.89500
X76.77343 Y48.74019
X76.82405 Y48.58817
X76.90254 Y48.45035
X77.00693 Y48.32965
X77.13350 Y48.23120
X77.27681 Y48.15949
X77.43053 Y48.11735
X77.58966 Y48.10597
X77.73855 Y48.12375
X77.86578 Y48.16229
X77.98874 Y48.22299
X78.09903 Y48.30282
X78.19497 Y48.40051
X78.27261 Y48.51189
X78.33096 Y48.63539
X78.37086 Y48.78339
X78.37490 Y49.03170
X78.35146 Y49.14331
X78.27754 Y49.31806
X78.27754 Y51.63355
X78.36146 Y51.85052
X78.37914 Y52.01920
X78.37914 Y53.44160
X78.36146 Y53.61021
X78.30904 Y53.77150
X78.22994 Y53.90960
X78.10261 Y54.05102
X77.96423 Y54.14884
X77.81867 Y54.21307
X77.65275 Y54.24833
X77.49362 Y54.24889
X77.31730 Y54.21307
X77.17168 Y54.14884
X77.01778 Y54.03703
X76.91168 Y53.91838
X76.82690 Y53.77152
X76.77447 Y53.61023
X76.75674 Y53.44000

G04 P0 ( dwell for no time -- G64 should not smooth over this point )
G00 Z10.000 ( retract )

M5 ( Spindle off. )
M9 ( Coolant off. )
M2 ( Program end. )

