( pcb2gcode 1.3.2 )
( Software-independent Gcode )

G94 ( Millimeters per minute feed rate. )
G21 ( Units == Millimeters. )

G90 ( Absolute coordinates. )
S10000 ( RPM spindle speed. )
G64 P0.01000 ( set maximum deviation from commanded toolpath )
F120.00000 ( Feedrate. )

F120.00000 ( Feedrate. )
M3 ( Spindle on clockwise. )
G04 P0 ( dwell for no time -- G64 should not smooth over this point )
G00 Z1.50000 ( retract )

G00 X72.34446 Y1.37000 ( rapid move to begin. )
F60.00000
G01 Z-0.05000
G04 P0 ( dwell for no time -- G64 should not smooth over this point )
F120.00000
X72.34446 Y1.37000
X16.19791 Y1.37000
X14.07366 Y3.49425
X14.07366 Y16.46080
X18.04619 Y16.46080
X18.22465 Y16.38587
X18.44416 Y16.35580
X18.65437 Y16.38341
X18.84172 Y16.46080
X19.42011 Y16.46080
X23.02228 Y12.85862
X23.13821 Y12.76530
X23.24359 Y12.70897
X23.37608 Y12.66680
X23.52406 Y12.65080
X25.66477 Y12.65080
X25.89924 Y12.56251
X26.03615 Y12.54615
X26.17839 Y12.55392
X26.30620 Y12.58270
X26.42918 Y12.63228
X26.54183 Y12.70071
X26.64211 Y12.78656
X26.72697 Y12.88712
X26.79484 Y13.00069
X26.84290 Y13.12205
X26.87087 Y13.24729
X26.87790 Y13.39799
X26.85895 Y13.53899
X26.81278 Y13.68156
X26.74084 Y13.81394
X26.64694 Y13.92961
X26.53035 Y14.02845
X26.40031 Y14.10246
X26.25720 Y14.15186
X26.09967 Y14.17432
X25.94044 Y14.16566
X25.78585 Y14.12611
X25.66525 Y14.07000
X23.81791 Y14.07000
X20.21579 Y17.67213
X20.09986 Y17.76545
X19.97634 Y17.82928
X19.84279 Y17.86776
X19.71406 Y17.88000
X18.84185 Y17.88000
X18.66344 Y17.95490
X18.45773 Y17.98488
X18.23372 Y17.95737
X18.04642 Y17.88000
X14.07366 Y17.88000
X14.07366 Y20.27080
X17.51846 Y20.27080
X17.63588 Y20.23496
X17.78366 Y20.22000
X19.10446 Y20.22000
X19.27263 Y20.23930
X19.41370 Y20.28571
X19.55137 Y20.36519
X19.66951 Y20.47156
X19.75727 Y20.59142
X19.83032 Y20.75551
X19.86067 Y20.90090
X19.85902 Y21.07019
X19.82762 Y21.21535
X19.76295 Y21.36059
X19.67609 Y21.48106
X19.55953 Y21.58896
X19.40395 Y21.67880
X19.25221 Y21.72579
X19.10446 Y21.74080
X17.78366 Y21.74080
X17.63586 Y21.72579
X17.51864 Y21.69000
X13.35423 Y21.68949
X13.21608 Y21.67395
X13.10173 Y21.63928
X12.96193 Y21.56455
X12.86955 Y21.48873
X12.77986 Y21.38248
X12.70513 Y21.24268
X12.66663 Y21.10910
X12.65446 Y20.98040
X12.65446 Y3.91000
X6.45366 Y3.91000
X6.45366 Y6.61134
X6.50372 Y6.71599
X6.54335 Y6.85267
X6.55864 Y6.99541
X6.54853 Y7.13918
X6.51350 Y7.27822
X6.45483 Y7.40857
X6.37342 Y7.52775
X6.27350 Y7.62960
X6.15633 Y7.71309
X6.02709 Y7.77436
X5.88889 Y7.81213
X5.74647 Y7.82511
X5.60182 Y7.81261
X5.46273 Y7.77499
X5.33126 Y7.71279
X5.22024 Y7.63440
X5.11831 Y7.53214
X5.03573 Y7.41294
X4.97584 Y7.28170
X4.93995 Y7.14154
X4.92941 Y6.99940
X4.94386 Y6.85724
X4.98328 Y6.71883
X5.03446 Y6.61132
X5.03446 Y3.91000
X1.37366 Y3.91000
X1.37366 Y52.02080
X2.39286 Y52.02080
X2.41054 Y51.85052
X2.45920 Y51.69901
X2.55435 Y51.53424
X2.66124 Y51.41631
X2.78968 Y51.32235
X2.95334 Y51.24768
X3.10891 Y51.21407
X3.27838 Y51.21189
X3.46449 Y51.25143
X3.61844 Y51.32235
X3.73870 Y51.40973
X3.85372 Y51.53424
X3.94886 Y51.69901
X3.99481 Y51.84041
X4.01470 Y52.00874
X4.01526 Y53.44160
X3.99753 Y53.61023
X3.94510 Y53.77152
X3.86601 Y53.90960
X3.73870 Y54.05102
X3.60965 Y54.14409
X3.46449 Y54.20932
X3.27838 Y54.24889
X3.11925 Y54.24833
X2.95334 Y54.21307
X2.78968 Y54.13840
X2.66124 Y54.04442
X2.54775 Y53.91836
X2.46296 Y53.77150
X2.41054 Y53.61021
X2.39286 Y53.44000
X0.66406 Y53.44000
X0.51608 Y53.42395
X0.38359 Y53.38178
X0.27821 Y53.32545
X0.16955 Y53.23873
X0.06896 Y53.11620
X0.00513 Y52.99268
X-0.03337 Y52.85910
X-0.04508 Y52.74018
X-0.04554 Y3.20040
X-0.02883 Y3.04777
X0.04702 Y2.85016
X0.13328 Y2.72953
X0.25128 Y2.62331
X0.44979 Y2.52402
X0.66406 Y2.49080
X13.07011 Y2.49080
X15.40955 Y0.15202
X15.51821 Y0.06530
X15.64173 Y0.00147
X15.77531 Y-0.03703
X15.90406 Y-0.04920
X73.05406 Y-0.04920
X73.20199 Y-0.03320
X73.33448 Y0.00897
X73.43986 Y0.06530
X73.54852 Y0.15202
X73.63821 Y0.25827
X73.71294 Y0.39807
X73.75142 Y0.53162
X73.76366 Y0.66040
X73.76366 Y23.97920
X73.93387 Y23.99688
X74.15081 Y24.08080
X81.01846 Y24.08080
X81.13588 Y24.04496
X81.28366 Y24.03000
X82.61490 Y24.03053
X82.77263 Y24.04930
X82.91370 Y24.09571
X83.05137 Y24.17519
X83.16951 Y24.28156
X83.25727 Y24.40142
X83.32762 Y24.55537
X83.36067 Y24.71090
X83.36123 Y24.85941
X83.32762 Y25.02535
X83.26770 Y25.16127
X83.16212 Y25.30658
X83.05140 Y25.40556
X82.91373 Y25.48504
X82.77263 Y25.53145
X82.61492 Y25.55024
X81.28366 Y25.55080
X81.13586 Y25.53579
X81.01864 Y25.50000
X74.15076 Y25.50000
X73.93389 Y25.58387
X73.76526 Y25.60160
X72.34286 Y25.60160
X72.18452 Y25.58550
X72.00357 Y25.52670
X71.86603 Y25.44663
X71.73339 Y25.32504
X71.63557 Y25.18667
X71.57133 Y25.04105
X71.53555 Y24.86472
X71.53608 Y24.70559
X71.57133 Y24.53968
X71.63557 Y24.39411
X71.73997 Y24.24758
X71.85790 Y24.14069
X72.02267 Y24.04555
X72.17418 Y23.99688
X72.34446 Y23.97920
X72.34446 Y22.96000
X66.99791 Y22.96000
X64.87366 Y25.08425
X64.87366 Y31.65460
X64.99263 Y31.66930
X65.12395 Y31.71195
X65.26261 Y31.78950
X65.38951 Y31.90156
X65.47727 Y32.02142
X65.54762 Y32.17537
X65.58067 Y32.33090
X65.57902 Y32.50019
X65.54386 Y32.65513
X65.48295 Y32.79059
X65.39609 Y32.91106
X65.27140 Y33.02556
X65.12395 Y33.10880
X64.97221 Y33.15579
X64.82446 Y33.17080
X63.50366 Y33.17080
X63.35586 Y33.15579
X63.19434 Y33.10504
X63.05667 Y33.02554
X62.93198 Y32.91106
X62.84036 Y32.78127
X62.78045 Y32.64535
X62.74687 Y32.47941
X62.74740 Y32.33090
X62.77775 Y32.18551
X62.84036 Y32.03951
X62.93854 Y31.90156
X63.06546 Y31.78950
X63.20412 Y31.71195
X63.33544 Y31.66930
X63.45446 Y31.65462
X63.45446 Y24.79040
X63.46536 Y24.66912
X63.49835 Y24.54603
X63.59482 Y24.36713
X66.20228 Y21.74862
X66.31821 Y21.65530
X66.44173 Y21.59147
X66.57531 Y21.55297
X66.70406 Y21.54080
X72.34446 Y21.54080
X72.34446 Y1.37000
X72.24446 Y1.47000
X16.23934 Y1.47000
X14.17366 Y3.53568
X14.17366 Y16.36080
X18.02156 Y16.36080
X18.20352 Y16.28813
X18.45028 Y16.25597
X18.67426 Y16.28541
X18.86616 Y16.36080
X19.37868 Y16.36080
X22.95157 Y12.78791
X23.09107 Y12.67711
X23.19645 Y12.62078
X23.34707 Y12.57110
X23.52406 Y12.55080
X25.63879 Y12.55080
X25.88268 Y12.46388
X26.03648 Y12.44615
X26.19937 Y12.45616
X26.34267 Y12.48959
X26.48024 Y12.54630
X26.60610 Y12.62410
X26.71791 Y12.72131
X26.81229 Y12.83498
X26.88745 Y12.96294
X26.94036 Y13.09964
X26.97038 Y13.23744
X26.97752 Y13.40670
X26.95733 Y13.55695
X26.90622 Y13.71719
X26.82611 Y13.86616
X26.72123 Y13.99654
X26.59093 Y14.10802
X26.34818 Y14.22977
X26.17877 Y14.26779
X26.01880 Y14.27389
X25.82273 Y14.24259
X25.63968 Y14.17000
X23.85934 Y14.17000
X20.28650 Y17.74284
X20.14700 Y17.85363
X20.00535 Y17.92498
X19.85262 Y17.96727
X19.71406 Y17.98000
X18.86649 Y17.98000
X18.68457 Y18.05264
X18.46540 Y18.08457
X18.21383 Y18.05536
X18.02199 Y17.98000
X14.17366 Y17.98000
X14.17366 Y20.17080
X17.50258 Y20.17080
X17.62544 Y20.13552
X17.78366 Y20.12000
X19.10446 Y20.12000
X19.26263 Y20.13552
X19.43484 Y20.18685
X19.62643 Y20.29747
X19.74383 Y20.40463
X19.85907 Y20.56882
X19.92272 Y20.71449
X19.95683 Y20.86978
X19.95683 Y21.09097
X19.92272 Y21.24624
X19.84957 Y21.41060
X19.75699 Y21.53984
X19.62643 Y21.66328
X19.43484 Y21.77390
X19.26268 Y21.82523
X19.10446 Y21.84080
X17.78366 Y21.84080
X17.62539 Y21.82523
X17.50284 Y21.79000
X13.34440 Y21.78901
X13.18707 Y21.76965
X13.07272 Y21.73498
X12.89848 Y21.64184
X12.80610 Y21.56602
X12.70257 Y21.44593
X12.60943 Y21.27169
X12.56711 Y21.11891
X12.55446 Y20.98040
X12.55446 Y4.01000
X6.55366 Y4.01000
X6.55366 Y6.58556
X6.61876 Y6.74304
X6.65186 Y6.89872
X6.65732 Y7.06074
X6.63408 Y7.22119
X6.58394 Y7.37260
X6.50730 Y7.51439
X6.40677 Y7.64078
X6.28610 Y7.74710
X6.05818 Y7.86940
X5.90284 Y7.91116
X5.74287 Y7.92503
X5.58056 Y7.91032
X5.42463 Y7.86745
X5.29291 Y7.80603
X5.15895 Y7.71342
X4.98457 Y7.52008
X4.90622 Y7.37730
X4.85509 Y7.22564
X4.83098 Y7.06427
X4.83545 Y6.90535
X4.86817 Y6.74695
X4.93446 Y6.58553
X4.93446 Y4.01000
X1.47366 Y4.01000
X1.47366 Y51.92080
X2.30208 Y51.92080
X2.31275 Y51.82974
X2.37163 Y51.64854
X2.48003 Y51.46733
X2.59433 Y51.34201
X2.73091 Y51.24145
X2.92245 Y51.15258
X3.08813 Y51.11626
X3.27838 Y51.11189
X3.48559 Y51.15258
X3.65963 Y51.23005
X3.81374 Y51.34201
X3.95260 Y51.50114
X4.03644 Y51.64854
X4.09860 Y51.85039
X4.11526 Y52.01920
X4.11414 Y53.46250
X4.08991 Y53.65125
X4.03647 Y53.81219
X3.92804 Y53.99342
X3.81374 Y54.11874
X3.65963 Y54.23070
X3.48559 Y54.30817
X3.27838 Y54.34889
X3.10878 Y54.34777
X2.90289 Y54.30068
X2.73091 Y54.21930
X2.59431 Y54.11874
X2.45547 Y53.95961
X2.37160 Y53.81219
X2.31272 Y53.63098
X2.30211 Y53.54000
X0.66406 Y53.54000
X0.52545 Y53.52727
X0.37272 Y53.48498
X0.23107 Y53.41363
X0.10610 Y53.31602
X0.00257 Y53.19593
X-0.09057 Y53.02169
X-0.13289 Y52.86891
X-0.14554 Y52.73040
X-0.14554 Y3.20040
X-0.12542 Y3.02189
X-0.04206 Y2.80474
X0.05555 Y2.66662
X0.19683 Y2.53944
X0.42390 Y2.42743
X0.66406 Y2.39080
X13.02868 Y2.39080
X15.34610 Y0.07473
X15.47107 Y-0.02289
X15.61272 Y-0.09423
X15.76550 Y-0.13655
X15.90406 Y-0.14920
X73.05406 Y-0.14920
X73.23100 Y-0.12890
X73.38162 Y-0.07922
X73.48700 Y-0.02289
X73.61197 Y0.07473
X73.73729 Y0.22741
X73.79363 Y0.33279
X73.84331 Y0.48341
X73.86366 Y0.66040
X73.86366 Y23.88842
X73.97491 Y23.90450
X74.17760 Y23.98080
X81.00258 Y23.98080
X81.12544 Y23.94552
X81.28366 Y23.93000
X82.60446 Y23.93000
X82.76263 Y23.94552
X82.95440 Y24.00435
X83.09262 Y24.08291
X83.24383 Y24.21463
X83.33816 Y24.34265
X83.42272 Y24.52449
X83.46011 Y24.70043
X83.46123 Y24.85941
X83.42813 Y25.03602
X83.33814 Y25.23815
X83.22902 Y25.38090
X83.12643 Y25.47328
X82.93484 Y25.58390
X82.76268 Y25.63523
X82.62539 Y25.64968
X81.28366 Y25.65080
X81.12539 Y25.63523
X81.00284 Y25.60000
X74.17755 Y25.60000
X73.97491 Y25.67625
X73.76526 Y25.70160
X72.34286 Y25.70160
X72.17405 Y25.68494
X71.95355 Y25.61328
X71.79099 Y25.51438
X71.65249 Y25.38382
X71.55371 Y25.24597
X71.47624 Y25.07193
X71.43992 Y24.90627
X71.43555 Y24.71605
X71.48373 Y24.48923
X71.56511 Y24.31725
X71.66567 Y24.18067
X71.79099 Y24.06637
X71.97220 Y23.95797
X72.15340 Y23.89909
X72.24446 Y23.88845
X72.24446 Y23.06000
X67.03934 Y23.06000
X64.97366 Y25.12568
X64.97366 Y31.56455
X65.19306 Y31.63387
X65.34643 Y31.72747
X65.47701 Y31.85094
X65.57907 Y31.99882
X65.64272 Y32.14449
X65.68011 Y32.32043
X65.68123 Y32.47941
X65.64272 Y32.67624
X65.57907 Y32.82193
X65.44902 Y33.00090
X65.31262 Y33.11784
X65.17440 Y33.19640
X64.98268 Y33.25523
X64.82446 Y33.27080
X63.50366 Y33.27080
X63.34539 Y33.25523
X63.17323 Y33.20390
X62.98164 Y33.09328
X62.85108 Y32.96984
X62.75850 Y32.84057
X62.69284 Y32.69579
X62.65124 Y32.52097
X62.64687 Y32.34136
X62.68535 Y32.14449
X62.74900 Y31.99882
X62.85106 Y31.85094
X62.98164 Y31.72747
X63.13500 Y31.63387
X63.35446 Y31.56458
X63.35446 Y24.79040
X63.36876 Y24.64323
X63.40176 Y24.52014
X63.49767 Y24.33206
X63.59157 Y24.21791
X66.13157 Y21.67791
X66.27107 Y21.56711
X66.41272 Y21.49577
X66.56550 Y21.45345
X66.70406 Y21.44080
X72.24446 Y21.44080
X72.24446 Y1.47000
G04 P0 ( dwell for no time -- G64 should not smooth over this point )
G00 Z1.50000 ( retract )

G00 X81.01846 Y26.62080 ( rapid move to begin. )
F60.00000
G01 Z-0.05000
G04 P0 ( dwell for no time -- G64 should not smooth over this point )
F120.00000
X81.01846 Y26.62080
X81.13588 Y26.58496
X81.28366 Y26.57000
X82.60446 Y26.57000
X82.77263 Y26.58930
X82.91370 Y26.63571
X83.05137 Y26.71519
X83.16951 Y26.82156
X83.25727 Y26.94142
X83.32762 Y27.09537
X83.36067 Y27.25090
X83.36123 Y27.39941
X83.32762 Y27.56535
X83.26770 Y27.70127
X83.16212 Y27.84658
X83.04261 Y27.95125
X82.91373 Y28.02504
X82.77263 Y28.07145
X82.60446 Y28.09080
X81.28366 Y28.09080
X81.13586 Y28.07579
X81.01864 Y28.04000
X74.15076 Y28.04000
X73.94400 Y28.12115
X73.77570 Y28.14104
X72.34286 Y28.14160
X72.16407 Y28.12115
X71.95736 Y28.04000
X69.64157 Y28.04000
X69.44337 Y28.12019
X69.22214 Y28.14467
X69.07411 Y28.12697
X68.94716 Y28.08887
X68.73073 Y27.96278
X68.63332 Y27.86929
X68.54485 Y27.74820
X68.48600 Y27.62837
X68.44797 Y27.50358
X68.42971 Y27.35466
X68.44066 Y27.19515
X68.48236 Y27.04127
X68.55326 Y26.89847
X68.65133 Y26.77145
X68.77172 Y26.66657
X68.90982 Y26.58740
X69.06131 Y26.53645
X69.21650 Y26.51615
X69.44980 Y26.54209
X69.64289 Y26.62080
X71.95721 Y26.62080
X72.17418 Y26.53688
X72.34286 Y26.51920
X73.77567 Y26.51973
X73.94400 Y26.53960
X74.15081 Y26.62080
X81.01846 Y26.62080
X81.00258 Y26.52080
X81.12544 Y26.48552
X81.26276 Y26.47109
X82.60446 Y26.47000
X82.80352 Y26.49421
X82.97306 Y26.55387
X83.12643 Y26.64747
X83.22902 Y26.73985
X83.33816 Y26.88265
X83.42272 Y27.06449
X83.46123 Y27.26136
X83.46123 Y27.39941
X83.42813 Y27.57602
X83.35907 Y27.74193
X83.22902 Y27.92090
X83.09262 Y28.03784
X82.95440 Y28.11640
X82.80352 Y28.16654
X82.60446 Y28.19080
X81.28366 Y28.19080
X81.12539 Y28.17523
X81.00284 Y28.14000
X74.17755 Y28.14000
X73.97491 Y28.21625
X73.78616 Y28.24048
X72.34286 Y28.24160
X72.13316 Y28.21625
X71.93057 Y28.14000
X69.66593 Y28.14000
X69.46151 Y28.21854
X69.22577 Y28.24460
X69.04632 Y28.22303
X68.90408 Y28.17912
X68.67345 Y28.04478
X68.56334 Y27.94074
X68.45554 Y27.79319
X68.39054 Y27.65816
X68.34942 Y27.52057
X68.32996 Y27.36190
X68.34142 Y27.18280
X68.38742 Y27.00988
X68.46629 Y26.84912
X68.57566 Y26.70604
X68.71030 Y26.58765
X68.86489 Y26.49807
X69.03474 Y26.44003
X69.20891 Y26.41643
X69.47091 Y26.44435
X69.66852 Y26.52080
X71.93041 Y26.52080
X72.15340 Y26.43909
X72.34286 Y26.41920
X73.78611 Y26.42029
X73.95464 Y26.43906
X74.17760 Y26.52080
X81.00258 Y26.52080
G04 P0 ( dwell for no time -- G64 should not smooth over this point )
G00 Z1.50000 ( retract )

G00 X81.23446 Y38.20000 ( rapid move to begin. )
F60.00000
G01 Z-0.05000
G04 P0 ( dwell for no time -- G64 should not smooth over this point )
F120.00000
X81.23446 Y38.20000
X65.08946 Y38.20000
X64.97221 Y38.23579
X64.82446 Y38.25080
X63.49317 Y38.25024
X63.35586 Y38.23579
X63.20412 Y38.18880
X63.06546 Y38.11125
X62.94595 Y38.00658
X62.84511 Y37.87059
X62.78045 Y37.72535
X62.74687 Y37.55941
X62.74740 Y37.41090
X62.77775 Y37.26551
X62.84036 Y37.11951
X62.93854 Y36.98156
X63.06546 Y36.86950
X63.19434 Y36.79571
X63.33544 Y36.74930
X63.50366 Y36.73000
X64.82446 Y36.73000
X64.97219 Y36.74496
X65.08959 Y36.78080
X81.23446 Y36.78080
X81.23446 Y30.62618
X81.11544 Y30.61145
X80.98412 Y30.56880
X80.84546 Y30.49125
X80.72595 Y30.38658
X80.63083 Y30.25938
X80.56045 Y30.10535
X80.52905 Y29.96019
X80.52740 Y29.79090
X80.56045 Y29.63537
X80.62036 Y29.49951
X80.71196 Y29.36972
X80.83667 Y29.25521
X80.98412 Y29.17195
X81.11544 Y29.12930
X81.27320 Y29.11053
X82.60446 Y29.11000
X82.75219 Y29.12496
X82.91370 Y29.17571
X83.05137 Y29.25519
X83.16951 Y29.36156
X83.25727 Y29.48142
X83.32762 Y29.63537
X83.36123 Y29.80136
X83.36123 Y29.93941
X83.33032 Y30.09524
X83.26295 Y30.25059
X83.16212 Y30.38658
X83.04261 Y30.49125
X82.90395 Y30.56880
X82.77263 Y30.61145
X82.65366 Y30.62615
X82.65366 Y50.06340
X82.63977 Y50.20059
X82.60901 Y50.31024
X82.53918 Y50.44984
X82.44579 Y50.56513
X79.77879 Y53.23213
X79.66286 Y53.32545
X79.53934 Y53.38928
X79.40579 Y53.42776
X79.27706 Y53.44000
X75.01740 Y53.44000
X74.82154 Y53.59207
X74.63150 Y53.67668
X74.43839 Y53.71828
X74.23051 Y53.72047
X74.00681 Y53.67292
X73.81779 Y53.58638
X73.66640 Y53.47640
X73.51339 Y53.30645
X73.41510 Y53.13505
X73.35350 Y52.94734
X73.32960 Y52.71994
X73.35350 Y52.51343
X73.41510 Y52.32570
X73.52569 Y52.13741
X73.66640 Y51.98440
X73.82652 Y51.86871
X74.02670 Y51.78138
X74.22005 Y51.74087
X74.41761 Y51.74033
X74.63150 Y51.78410
X74.81220 Y51.86396
X75.01740 Y52.02080
X78.98311 Y52.02080
X81.23446 Y49.76945
X81.23446 Y38.20000
X81.13446 Y38.30000
X65.10533 Y38.30000
X64.98268 Y38.33523
X64.82446 Y38.35080
X63.50366 Y38.35080
X63.34539 Y38.33523
X63.15365 Y38.27638
X63.01545 Y38.19784
X62.87905 Y38.08090
X62.75850 Y37.92057
X62.68535 Y37.75624
X62.65124 Y37.60097
X62.64687 Y37.42136
X62.69284 Y37.20493
X62.76990 Y37.04265
X62.87905 Y36.89985
X63.01545 Y36.78291
X63.15367 Y36.70435
X63.30455 Y36.65421
X63.50366 Y36.63000
X64.82446 Y36.63000
X64.98263 Y36.64552
X65.10538 Y36.68080
X81.13446 Y36.68080
X81.13446 Y30.71619
X80.93365 Y30.65638
X80.79545 Y30.57784
X80.65905 Y30.46090
X80.53850 Y30.30057
X80.46535 Y30.13624
X80.42687 Y29.93941
X80.43124 Y29.75978
X80.46535 Y29.60449
X80.54990 Y29.42265
X80.64424 Y29.29466
X80.76164 Y29.18747
X80.95323 Y29.07685
X81.08455 Y29.03421
X81.26276 Y29.01109
X82.60446 Y29.01000
X82.76263 Y29.02552
X82.95440 Y29.08435
X83.09262 Y29.16291
X83.24383 Y29.29463
X83.33816 Y29.42265
X83.42272 Y29.60449
X83.46123 Y29.80136
X83.46123 Y29.93941
X83.42813 Y30.11602
X83.35907 Y30.28193
X83.22902 Y30.46090
X83.09262 Y30.57784
X82.95440 Y30.65640
X82.75366 Y30.71617
X82.75366 Y50.06340
X82.73921 Y50.21105
X82.70489 Y50.33866
X82.62303 Y50.50432
X82.51650 Y50.63584
X79.84950 Y53.30284
X79.71000 Y53.41363
X79.56835 Y53.48498
X79.41562 Y53.52727
X79.27706 Y53.54000
X75.05967 Y53.54000
X74.87156 Y53.67868
X74.66239 Y53.77177
X74.45916 Y53.81610
X74.23051 Y53.82047
X73.96615 Y53.76428
X73.77656 Y53.67866
X73.59135 Y53.54409
X73.42678 Y53.35643
X73.33323 Y53.19438
X73.25840 Y52.97825
X73.23016 Y52.70947
X73.25840 Y52.48252
X73.31624 Y52.30457
X73.45137 Y52.07051
X73.60763 Y51.90350
X73.77654 Y51.78212
X74.00592 Y51.68356
X74.18893 Y51.64468
X74.41761 Y51.64033
X74.68195 Y51.69649
X74.87151 Y51.78209
X75.06086 Y51.92080
X78.94168 Y51.92080
X81.13446 Y49.72802
X81.13446 Y38.30000
G04 P0 ( dwell for no time -- G64 should not smooth over this point )
G00 Z1.50000 ( retract )

G00 X63.23864 Y35.66000 ( rapid move to begin. )
F60.00000
G01 Z-0.05000
G04 P0 ( dwell for no time -- G64 should not smooth over this point )
F120.00000
X63.23864 Y35.66000
X61.62406 Y35.66000
X61.47608 Y35.64395
X61.34359 Y35.60178
X61.23821 Y35.54545
X61.12955 Y35.45873
X61.03986 Y35.35248
X60.96513 Y35.21268
X60.92663 Y35.07910
X60.91492 Y34.96018
X60.91446 Y9.94801
X60.83580 Y9.75586
X60.80961 Y9.52896
X60.82564 Y9.38817
X60.86958 Y9.24291
X60.93950 Y9.10862
X61.03280 Y8.98987
X61.14545 Y8.89107
X61.27671 Y8.81342
X61.50148 Y8.74494
X61.73074 Y8.74271
X61.89048 Y8.78050
X62.03722 Y8.84822
X62.17006 Y8.94575
X62.27938 Y9.06635
X62.36292 Y9.20717
X62.41667 Y9.36198
X62.43831 Y9.52365
X62.41281 Y9.75388
X62.33366 Y9.94794
X62.33366 Y34.24080
X63.23846 Y34.24080
X63.35588 Y34.20496
X63.50366 Y34.19000
X64.82446 Y34.19000
X64.97219 Y34.20496
X65.14305 Y34.26046
X65.27137 Y34.33519
X65.38951 Y34.44156
X65.47727 Y34.56142
X65.54386 Y34.70562
X65.58067 Y34.87090
X65.58123 Y35.01941
X65.54762 Y35.18535
X65.48295 Y35.33059
X65.38212 Y35.46658
X65.27140 Y35.56556
X65.13373 Y35.64504
X64.97221 Y35.69579
X64.82446 Y35.71080
X63.50366 Y35.71080
X63.35586 Y35.69579
X63.23864 Y35.66000
X63.22284 Y35.76000
X61.62406 Y35.76000
X61.48545 Y35.74727
X61.29645 Y35.68997
X61.15848 Y35.61184
X61.03839 Y35.50831
X60.94077 Y35.38334
X60.88444 Y35.27796
X60.82711 Y35.08891
X60.81446 Y34.95040
X60.81446 Y9.97234
X60.73765 Y9.77499
X60.70984 Y9.52228
X60.73074 Y9.35396
X60.78266 Y9.19175
X60.86351 Y9.04232
X60.97021 Y8.91080
X61.09861 Y8.80174
X61.24738 Y8.71692
X61.40692 Y8.66191
X61.57580 Y8.63704
X61.75949 Y8.64586
X61.91898 Y8.68464
X62.08416 Y8.75993
X62.23374 Y8.86864
X62.35710 Y9.00344
X62.45169 Y9.16112
X62.51283 Y9.33458
X62.53800 Y9.51596
X62.51100 Y9.77275
X62.43366 Y9.97227
X62.43366 Y34.14080
X63.22258 Y34.14080
X63.34544 Y34.10552
X63.50366 Y34.09000
X64.82446 Y34.09000
X65.02352 Y34.11421
X65.17440 Y34.16435
X65.31262 Y34.24291
X65.46383 Y34.37463
X65.55816 Y34.50265
X65.63523 Y34.66493
X65.68011 Y34.86043
X65.67683 Y35.06097
X65.64272 Y35.21624
X65.56957 Y35.38060
X65.47699 Y35.50984
X65.34643 Y35.63328
X65.15484 Y35.74390
X64.98268 Y35.79523
X64.82446 Y35.81080
X63.50366 Y35.81080
X63.34539 Y35.79523
X63.22284 Y35.76000
G04 P0 ( dwell for no time -- G64 should not smooth over this point )
G00 Z1.50000 ( retract )

G00 X58.79016 Y50.90000 ( rapid move to begin. )
F60.00000
G01 Z-0.05000
G04 P0 ( dwell for no time -- G64 should not smooth over this point )
F120.00000
X58.79016 Y50.90000
X39.16170 Y50.90000
X38.97346 Y50.97760
X38.74801 Y51.00485
X38.64493 Y50.99627
X38.45812 Y50.94539
X38.27620 Y50.84280
X38.12827 Y50.69972
X38.01573 Y50.51229
X37.95903 Y50.31527
X37.95233 Y50.12157
X37.99431 Y49.92367
X38.08509 Y49.74021
X38.15606 Y49.64819
X38.30986 Y49.51413
X38.48100 Y49.42650
X38.68024 Y49.38006
X38.81001 Y49.37717
X38.93965 Y49.39502
X39.16121 Y49.48080
X48.21446 Y49.48080
X48.21446 Y28.04000
X45.11406 Y28.04000
X44.98528 Y28.02776
X44.83359 Y27.98178
X44.71193 Y27.91455
X44.61955 Y27.83873
X44.52986 Y27.73248
X44.45513 Y27.59268
X44.41663 Y27.45910
X44.40446 Y27.33040
X44.40446 Y12.38430
X41.01016 Y8.99000
X31.85366 Y8.99000
X31.85366 Y17.17040
X31.84142 Y17.29913
X31.80294 Y17.43268
X31.73911 Y17.55620
X31.65239 Y17.66486
X31.54614 Y17.75455
X31.42448 Y17.82178
X31.29199 Y17.86395
X31.14406 Y17.88000
X25.08791 Y17.88000
X22.96366 Y20.00425
X22.96366 Y24.79040
X22.94977 Y24.92759
X22.90605 Y25.06922
X22.84301 Y25.18532
X22.75579 Y25.29213
X21.47852 Y26.56873
X21.36986 Y26.65545
X21.26448 Y26.71178
X21.11279 Y26.75776
X20.98406 Y26.77000
X19.36946 Y26.77000
X19.25221 Y26.80579
X19.10446 Y26.82080
X17.78366 Y26.82080
X17.63586 Y26.80579
X17.47434 Y26.75504
X17.32854 Y26.66896
X17.22595 Y26.57658
X17.13083 Y26.44938
X17.06420 Y26.30513
X17.02687 Y26.12941
X17.02740 Y25.98090
X17.06420 Y25.81562
X17.13080 Y25.67142
X17.21854 Y25.55156
X17.33667 Y25.44521
X17.47434 Y25.36571
X17.61544 Y25.31930
X17.78366 Y25.30000
X19.10446 Y25.30000
X19.25219 Y25.31496
X19.36959 Y25.35080
X20.69011 Y25.35080
X21.54446 Y24.49645
X21.54446 Y19.71040
X21.55663 Y19.58165
X21.59513 Y19.44807
X21.65896 Y19.32455
X21.75228 Y19.20862
X24.29228 Y16.66862
X24.39909 Y16.58140
X24.49838 Y16.52560
X24.63640 Y16.47899
X24.79406 Y16.46080
X30.43446 Y16.46080
X30.43446 Y8.28040
X30.45046 Y8.13242
X30.49263 Y7.99993
X30.54896 Y7.89455
X30.63568 Y7.78589
X30.74193 Y7.69620
X30.88173 Y7.62147
X31.01531 Y7.58297
X31.14406 Y7.57080
X41.30406 Y7.57080
X41.45196 Y7.58680
X41.58448 Y7.62897
X41.68986 Y7.68530
X41.80579 Y7.77862
X45.61579 Y11.58862
X45.70908 Y11.70455
X45.77291 Y11.82804
X45.80761 Y11.94239
X45.82366 Y12.09040
X45.82366 Y26.62080
X48.21446 Y26.62080
X48.21446 Y23.04367
X48.13991 Y22.83638
X48.12406 Y22.68037
X48.13991 Y22.52439
X48.19798 Y22.34568
X48.27687 Y22.21017
X48.39691 Y22.07928
X48.53338 Y21.98284
X48.67682 Y21.91954
X48.84044 Y21.88477
X48.99721 Y21.88423
X49.18103 Y21.92330
X49.33280 Y21.99328
X49.45931 Y22.08586
X49.57123 Y22.21017
X49.65012 Y22.34568
X49.70818 Y22.52439
X49.72403 Y22.68037
X49.70818 Y22.83638
X49.63366 Y23.04359
X49.63366 Y26.62080
X56.14665 Y26.62080
X56.35607 Y26.53782
X56.60223 Y26.51796
X56.73476 Y26.53853
X56.86258 Y26.58074
X56.98257 Y26.64399
X57.08904 Y26.72507
X57.18122 Y26.82301
X57.25640 Y26.93548
X57.31180 Y27.05842
X57.34556 Y27.18448
X57.35843 Y27.35242
X57.33621 Y27.52060
X57.28396 Y27.67134
X57.19714 Y27.81742
X57.08335 Y27.94102
X56.94548 Y28.03931
X56.79072 Y28.10683
X56.62686 Y28.14086
X56.49809 Y28.14361
X56.36844 Y28.12575
X56.14693 Y28.04000
X49.63366 Y28.04000
X49.63366 Y49.48080
X59.08406 Y49.48080
X59.23196 Y49.49680
X59.36448 Y49.53897
X59.46986 Y49.59530
X59.58579 Y49.68862
X61.91796 Y52.02080
X66.01067 Y52.02080
X66.21587 Y51.86396
X66.39659 Y51.78410
X66.61051 Y51.74033
X66.81839 Y51.74249
X67.00139 Y51.78138
X67.19220 Y51.86396
X67.36169 Y51.98438
X67.51470 Y52.15433
X67.61300 Y52.32570
X67.67459 Y52.51343
X67.69850 Y52.71994
X67.67731 Y52.93723
X67.61300 Y53.13507
X67.50901 Y53.31524
X67.36169 Y53.47637
X67.20154 Y53.59207
X67.01150 Y53.67668
X66.81839 Y53.71828
X66.61051 Y53.72047
X66.39657 Y53.67668
X66.21590 Y53.59682
X66.01069 Y53.44000
X61.62406 Y53.44000
X61.47605 Y53.42395
X61.36170 Y53.38925
X61.23821 Y53.32542
X61.12228 Y53.23213
X58.79016 Y50.90000
X58.74873 Y51.00000
X39.18613 Y51.00000
X38.99319 Y51.07564
X38.74046 Y51.10457
X38.51059 Y51.06906
X38.29698 Y50.97661
X38.11453 Y50.83416
X37.97242 Y50.64824
X37.88349 Y50.43721
X37.84976 Y50.20948
X37.87374 Y49.98138
X37.95334 Y49.76724
X38.06851 Y49.59665
X38.23805 Y49.44229
X38.44115 Y49.33478
X38.66452 Y49.28131
X38.80856 Y49.27717
X38.95428 Y49.29609
X39.18517 Y49.38080
X48.11446 Y49.38080
X48.11446 Y28.14000
X45.11406 Y28.14000
X44.97545 Y28.12727
X44.78645 Y28.06997
X44.64848 Y27.99184
X44.55610 Y27.91602
X44.45257 Y27.79593
X44.35943 Y27.62169
X44.31711 Y27.46891
X44.30446 Y27.33040
X44.30446 Y12.42573
X40.96873 Y9.09000
X31.95366 Y9.09000
X31.95366 Y17.17040
X31.94093 Y17.30896
X31.89864 Y17.46169
X31.82729 Y17.60334
X31.72968 Y17.72831
X31.60959 Y17.83184
X31.47162 Y17.90997
X31.32100 Y17.95965
X31.14406 Y17.98000
X25.12934 Y17.98000
X23.06366 Y20.04568
X23.06366 Y24.79040
X23.04921 Y24.93805
X23.00115 Y25.10010
X22.94105 Y25.21781
X22.82650 Y25.36284
X21.54197 Y26.64602
X21.41700 Y26.74363
X21.31162 Y26.79997
X21.12262 Y26.85727
X20.98406 Y26.87000
X19.38533 Y26.87000
X19.26268 Y26.90523
X19.10446 Y26.92080
X17.76270 Y26.91968
X17.62539 Y26.90523
X17.45323 Y26.85390
X17.29545 Y26.76784
X17.15905 Y26.65090
X17.03850 Y26.49057
X16.96535 Y26.32624
X16.92687 Y26.12941
X16.93124 Y25.94978
X16.96535 Y25.79449
X17.02900 Y25.64882
X17.14424 Y25.48466
X17.26164 Y25.37747
X17.43367 Y25.27435
X17.58455 Y25.22421
X17.78366 Y25.20000
X19.10446 Y25.20000
X19.26263 Y25.21552
X19.38538 Y25.25080
X20.64868 Y25.25080
X21.44446 Y24.45502
X21.44446 Y19.71040
X21.45711 Y19.57184
X21.49943 Y19.41906
X21.57077 Y19.27741
X21.68157 Y19.13791
X24.22157 Y16.59791
X24.33615 Y16.50370
X24.45068 Y16.43771
X24.60552 Y16.38389
X24.79406 Y16.36080
X30.33446 Y16.36080
X30.33446 Y8.28040
X30.35475 Y8.10341
X30.40444 Y7.95279
X30.46077 Y7.84741
X30.55839 Y7.72244
X30.71107 Y7.59711
X30.81645 Y7.54078
X30.96707 Y7.49110
X31.14406 Y7.47080
X41.30406 Y7.47080
X41.44254 Y7.48345
X41.59535 Y7.52577
X41.76959 Y7.61891
X41.87650 Y7.70791
X45.68650 Y11.51791
X45.79727 Y11.65741
X45.85361 Y11.76282
X45.90329 Y11.91336
X45.92366 Y12.09040
X45.92366 Y26.52080
X48.11446 Y26.52080
X48.11446 Y23.07046
X48.04047 Y22.84684
X48.02406 Y22.68037
X48.04047 Y22.51393
X48.11139 Y22.29566
X48.20913 Y22.13513
X48.33813 Y21.99838
X48.49269 Y21.89150
X48.64590 Y21.82444
X48.82998 Y21.78533
X48.99721 Y21.78423
X49.22172 Y21.83196
X49.39157 Y21.91238
X49.52622 Y22.01154
X49.63897 Y22.13513
X49.73671 Y22.29566
X49.80762 Y22.51393
X49.82403 Y22.68037
X49.80762 Y22.84684
X49.73366 Y23.07039
X49.73366 Y26.52080
X56.12252 Y26.52080
X56.33959 Y26.43919
X56.58513 Y26.41694
X56.76517 Y26.44325
X57.01426 Y26.54630
X57.16115 Y26.65580
X57.33077 Y26.86464
X57.40822 Y27.03190
X57.45638 Y27.26591
X57.43702 Y27.52801
X57.37660 Y27.70901
X57.27995 Y27.87348
X57.13720 Y28.02656
X56.91429 Y28.16670
X56.71564 Y28.22875
X56.49953 Y28.24361
X56.35381 Y28.22468
X56.12298 Y28.14000
X49.73366 Y28.14000
X49.73366 Y49.38080
X59.08406 Y49.38080
X59.26097 Y49.40110
X59.41162 Y49.45078
X59.51700 Y49.50711
X59.65650 Y49.61791
X61.95939 Y51.92080
X65.96840 Y51.92080
X66.15654 Y51.78212
X66.36568 Y51.68900
X66.61051 Y51.64033
X66.83916 Y51.64468
X67.04239 Y51.68900
X67.25151 Y51.78209
X67.43672 Y51.91666
X67.58991 Y52.08676
X67.71186 Y52.30457
X67.77838 Y52.52342
X67.79903 Y52.73037
X67.76969 Y52.97825
X67.69486 Y53.19438
X67.60131 Y53.35643
X67.42047 Y53.55727
X67.25156 Y53.67868
X67.06195 Y53.76428
X66.79761 Y53.82047
X66.56893 Y53.81610
X66.36568 Y53.77177
X66.15656 Y53.67866
X65.96726 Y53.54000
X61.62406 Y53.54000
X61.44702 Y53.51963
X61.29648 Y53.46995
X61.19107 Y53.41361
X61.05157 Y53.30284
X58.74873 Y51.00000
G04 P0 ( dwell for no time -- G64 should not smooth over this point )
G00 Z1.50000 ( retract )

G00 X21.54446 Y52.02080 ( rapid move to begin. )
F60.00000
G01 Z-0.05000
G04 P0 ( dwell for no time -- G64 should not smooth over this point )
F120.00000
X21.54446 Y52.02080
X21.54446 Y30.16430
X20.69016 Y29.31000
X19.36946 Y29.31000
X19.25221 Y29.34579
X19.10446 Y29.36080
X17.78366 Y29.36080
X17.61544 Y29.34145
X17.47434 Y29.29504
X17.34546 Y29.22125
X17.21198 Y29.10106
X17.12511 Y28.98059
X17.06045 Y28.83535
X17.02687 Y28.66941
X17.02740 Y28.52090
X17.06045 Y28.36537
X17.12036 Y28.22951
X17.21196 Y28.09972
X17.33667 Y27.98521
X17.48412 Y27.90195
X17.61544 Y27.85930
X17.77320 Y27.84053
X19.10446 Y27.84000
X19.25219 Y27.85496
X19.36959 Y27.89080
X20.98406 Y27.89080
X21.11274 Y27.90297
X21.24634 Y27.94147
X21.36986 Y28.00530
X21.48579 Y28.09862
X22.75579 Y29.36862
X22.83818 Y29.46824
X22.91291 Y29.60804
X22.95142 Y29.74162
X22.96366 Y29.87040
X22.96366 Y35.51080
X25.13846 Y35.51080
X25.25588 Y35.47496
X25.40366 Y35.46000
X26.72446 Y35.46000
X26.87219 Y35.47496
X27.04305 Y35.53046
X27.17137 Y35.60519
X27.28951 Y35.71156
X27.38770 Y35.84951
X27.44762 Y35.98537
X27.47902 Y36.13056
X27.48123 Y36.28941
X27.45032 Y36.44524
X27.37724 Y36.60938
X27.28212 Y36.73658
X27.17140 Y36.83556
X27.03373 Y36.91504
X26.87221 Y36.96579
X26.72446 Y36.98080
X25.40366 Y36.98080
X25.25586 Y36.96579
X25.13864 Y36.93000
X22.96366 Y36.93000
X22.96366 Y52.73040
X22.94761 Y52.87833
X22.90544 Y53.01082
X22.84911 Y53.11620
X22.76239 Y53.22486
X22.63986 Y53.32545
X22.53448 Y53.38178
X22.40199 Y53.42395
X22.25406 Y53.44000
X6.55526 Y53.44000
X6.53753 Y53.61023
X6.48510 Y53.77152
X6.40032 Y53.91838
X6.29422 Y54.03703
X6.14033 Y54.14884
X5.99471 Y54.21307
X5.81838 Y54.24889
X5.65925 Y54.24833
X5.49334 Y54.21307
X5.34777 Y54.14884
X5.20939 Y54.05102
X5.08206 Y53.90960
X5.00296 Y53.77150
X4.95054 Y53.61021
X4.93286 Y53.44160
X4.93286 Y52.01920
X4.95054 Y51.85052
X5.03446 Y51.63360
X5.03446 Y49.31745
X4.94747 Y49.09033
X4.93040 Y48.95771
X4.93527 Y48.82393
X4.96177 Y48.69353
X5.00873 Y48.57003
X5.07518 Y48.45558
X5.15935 Y48.35332
X5.25945 Y48.26572
X5.37131 Y48.19614
X5.49113 Y48.14616
X5.68747 Y48.10765
X5.84081 Y48.11144
X5.99222 Y48.14440
X6.20852 Y48.25106
X6.32707 Y48.35134
X6.42328 Y48.47052
X6.49295 Y48.59962
X6.54002 Y48.74671
X6.55851 Y48.90028
X6.54779 Y49.05360
X6.50812 Y49.20310
X6.45366 Y49.31926
X6.45366 Y51.63365
X6.53481 Y51.84041
X6.55526 Y52.02080
X21.54446 Y52.02080
X21.44446 Y51.92080
X21.44446 Y30.20573
X20.64873 Y29.41000
X19.38533 Y29.41000
X19.26268 Y29.44523
X19.10446 Y29.46080
X17.78366 Y29.46080
X17.58455 Y29.43654
X17.43365 Y29.38638
X17.29545 Y29.30784
X17.13108 Y29.15984
X17.03850 Y29.03057
X16.96535 Y28.86624
X16.92687 Y28.66941
X16.93124 Y28.48978
X16.95994 Y28.35473
X17.04990 Y28.15265
X17.14424 Y28.02466
X17.26164 Y27.91747
X17.43367 Y27.81435
X17.62544 Y27.75552
X17.78366 Y27.74000
X19.10446 Y27.74000
X19.26263 Y27.75552
X19.38538 Y27.79080
X21.00364 Y27.79174
X21.12254 Y27.80345
X21.27535 Y27.84577
X21.41700 Y27.91711
X21.55650 Y28.02791
X22.82650 Y29.29791
X22.91548 Y29.40479
X23.00859 Y29.57901
X23.05093 Y29.73179
X23.06366 Y29.87040
X23.06366 Y35.41080
X25.12258 Y35.41080
X25.24544 Y35.37552
X25.40366 Y35.36000
X26.72446 Y35.36000
X26.88263 Y35.37552
X27.09306 Y35.44387
X27.24643 Y35.53747
X27.36383 Y35.64463
X27.47907 Y35.80882
X27.54272 Y35.95449
X27.57683 Y36.10978
X27.58123 Y36.28941
X27.54813 Y36.46602
X27.45814 Y36.66815
X27.34902 Y36.81090
X27.21262 Y36.92784
X27.07440 Y37.00640
X26.88268 Y37.06523
X26.72446 Y37.08080
X25.40366 Y37.08080
X25.24539 Y37.06523
X25.12284 Y37.03000
X23.06366 Y37.03000
X23.06366 Y52.73040
X23.04331 Y52.90734
X22.99363 Y53.05796
X22.93729 Y53.16334
X22.83968 Y53.28831
X22.68700 Y53.41363
X22.58162 Y53.46997
X22.43100 Y53.51965
X22.25406 Y53.54000
X6.64601 Y53.54000
X6.62991 Y53.65125
X6.57647 Y53.81219
X6.46804 Y53.99342
X6.35374 Y54.11874
X6.19963 Y54.23070
X6.04515 Y54.30068
X5.81838 Y54.34889
X5.64878 Y54.34777
X5.46245 Y54.30817
X5.30708 Y54.24020
X5.15061 Y54.13192
X4.99547 Y53.95961
X4.91160 Y53.81219
X4.85272 Y53.63098
X4.83286 Y53.44160
X4.83286 Y52.01920
X4.85275 Y51.82974
X4.93446 Y51.60681
X4.93446 Y49.34123
X4.84841 Y49.10409
X4.83042 Y48.95507
X4.83708 Y48.80501
X4.86794 Y48.65891
X4.92176 Y48.52068
X4.99733 Y48.39279
X5.09275 Y48.27872
X5.20581 Y48.18131
X5.33187 Y48.10425
X5.46710 Y48.04908
X5.67634 Y48.00826
X5.84856 Y48.01174
X6.01868 Y48.04796
X6.17848 Y48.11550
X6.26887 Y48.17133
X6.40149 Y48.28454
X6.50890 Y48.41885
X6.58312 Y48.55639
X6.63674 Y48.72131
X6.65828 Y48.89365
X6.64703 Y49.06582
X6.60327 Y49.23389
X6.55366 Y49.34491
X6.55366 Y51.60686
X6.62991 Y51.80950
X6.64599 Y51.92080
X21.44446 Y51.92080
G04 P0 ( dwell for no time -- G64 should not smooth over this point )
G00 Z1.50000 ( retract )

G00 X17.51864 Y36.93000 ( rapid move to begin. )
F60.00000
G01 Z-0.05000
G04 P0 ( dwell for no time -- G64 should not smooth over this point )
F120.00000
X17.51864 Y36.93000
X11.22185 Y36.93000
X11.04344 Y37.00490
X10.82393 Y37.03498
X10.61372 Y37.00737
X10.42642 Y36.93000
X6.14144 Y36.93000
X5.93639 Y37.01191
X5.69623 Y37.03368
X5.53789 Y37.00856
X5.38716 Y36.95276
X5.24904 Y36.86747
X5.13428 Y36.76068
X5.04066 Y36.63147
X4.97421 Y36.48702
X4.93718 Y36.33315
X4.93073 Y36.17278
X4.95384 Y36.02213
X5.00502 Y35.87747
X5.08226 Y35.74522
X5.18285 Y35.62980
X5.29578 Y35.54009
X5.43029 Y35.46851
X5.57741 Y35.42292
X5.72968 Y35.40580
X5.95346 Y35.43318
X6.14172 Y35.51080
X10.42619 Y35.51080
X10.60465 Y35.43587
X10.82416 Y35.40580
X11.03437 Y35.43341
X11.22172 Y35.51080
X17.51846 Y35.51080
X17.63588 Y35.47496
X17.78366 Y35.46000
X19.10446 Y35.46000
X19.27263 Y35.47930
X19.41370 Y35.52571
X19.54261 Y35.59950
X19.66951 Y35.71156
X19.76770 Y35.84951
X19.82762 Y35.98537
X19.86067 Y36.14090
X19.86123 Y36.28941
X19.82762 Y36.45535
X19.76295 Y36.60059
X19.67609 Y36.72106
X19.55140 Y36.83556
X19.42305 Y36.91029
X19.27263 Y36.96145
X19.10446 Y36.98080
X17.78366 Y36.98080
X17.63586 Y36.96579
X17.51864 Y36.93000
X17.50284 Y37.03000
X11.24649 Y37.03000
X11.06457 Y37.10264
X10.81781 Y37.13480
X10.59383 Y37.10536
X10.40199 Y37.03000
X6.16560 Y37.03000
X5.95358 Y37.11042
X5.68602 Y37.13315
X5.50847 Y37.10414
X5.33946 Y37.04064
X5.18501 Y36.94427
X5.05666 Y36.82375
X4.95227 Y36.67824
X4.87840 Y36.51570
X4.83764 Y36.34270
X4.83123 Y36.16279
X4.85793 Y35.99381
X4.91612 Y35.83170
X5.00352 Y35.68357
X5.11701 Y35.55454
X5.25318 Y35.44865
X5.40540 Y35.37074
X5.57147 Y35.32218
X5.72382 Y35.30597
X5.97319 Y35.33513
X6.16616 Y35.41080
X10.40156 Y35.41080
X10.58352 Y35.33813
X10.83028 Y35.30597
X11.05426 Y35.33541
X11.24616 Y35.41080
X17.50258 Y35.41080
X17.62544 Y35.37552
X17.78366 Y35.36000
X19.10446 Y35.36000
X19.30352 Y35.38421
X19.45440 Y35.43435
X19.59262 Y35.51291
X19.74383 Y35.64463
X19.85907 Y35.80882
X19.92272 Y35.95449
X19.96011 Y36.13043
X19.96123 Y36.28941
X19.92272 Y36.48624
X19.84957 Y36.65060
X19.75699 Y36.77984
X19.62643 Y36.90328
X19.47306 Y36.99688
X19.30352 Y37.05654
X19.10446 Y37.08080
X17.78366 Y37.08080
X17.62539 Y37.06523
X17.50284 Y37.03000
G04 P0 ( dwell for no time -- G64 should not smooth over this point )
G00 Z1.50000 ( retract )

G00 X19.10446 Y31.90080 ( rapid move to begin. )
F60.00000
G01 Z-0.05000
G04 P0 ( dwell for no time -- G64 should not smooth over this point )
F120.00000
X19.10446 Y31.90080
X17.78366 Y31.90080
X17.63586 Y31.88579
X17.47434 Y31.83504
X17.33667 Y31.75554
X17.22595 Y31.65658
X17.12036 Y31.51127
X17.06045 Y31.37535
X17.02687 Y31.20941
X17.02740 Y31.06090
X17.05775 Y30.91551
X17.13080 Y30.75142
X17.21854 Y30.63156
X17.32854 Y30.53179
X17.47434 Y30.44571
X17.63588 Y30.39496
X17.78366 Y30.38000
X19.10446 Y30.38000
X19.27263 Y30.39930
X19.42305 Y30.45046
X19.55137 Y30.52519
X19.66212 Y30.62417
X19.76770 Y30.76951
X19.82762 Y30.90537
X19.85902 Y31.05056
X19.85902 Y31.23019
X19.82762 Y31.37535
X19.76770 Y31.51127
X19.66212 Y31.65658
X19.55140 Y31.75556
X19.41373 Y31.83504
X19.25221 Y31.88579
X19.10446 Y31.90080
X19.10446 Y32.00080
X17.76270 Y31.99968
X17.62539 Y31.98523
X17.45323 Y31.93390
X17.29545 Y31.84784
X17.15905 Y31.73090
X17.04993 Y31.58815
X16.95994 Y31.38602
X16.92687 Y31.20941
X16.93124 Y31.02978
X16.96535 Y30.87449
X17.02900 Y30.72882
X17.14424 Y30.56466
X17.29545 Y30.43291
X17.43367 Y30.35435
X17.62544 Y30.29552
X17.78366 Y30.28000
X19.12534 Y30.28109
X19.30352 Y30.30421
X19.43484 Y30.34685
X19.59262 Y30.43291
X19.75701 Y30.58094
X19.85907 Y30.72882
X19.92272 Y30.87449
X19.96123 Y31.07136
X19.95683 Y31.25097
X19.92272 Y31.40624
X19.83814 Y31.58815
X19.72902 Y31.73090
X19.62643 Y31.82328
X19.43484 Y31.93390
X19.26268 Y31.98523
X19.10446 Y32.00080
G04 P0 ( dwell for no time -- G64 should not smooth over this point )
G00 Z1.50000 ( retract )

G00 X25.40366 Y32.92000 ( rapid move to begin. )
F60.00000
G01 Z-0.05000
G04 P0 ( dwell for no time -- G64 should not smooth over this point )
F120.00000
X25.40366 Y32.92000
X26.72446 Y32.92000
X26.89263 Y32.93930
X27.03370 Y32.98571
X27.17137 Y33.06519
X27.28212 Y33.16417
X27.38770 Y33.30951
X27.44762 Y33.44537
X27.48067 Y33.60090
X27.48123 Y33.74941
X27.45032 Y33.90524
X27.37724 Y34.06938
X27.28212 Y34.19658
X27.17953 Y34.28896
X27.03373 Y34.37504
X26.87221 Y34.42579
X26.72446 Y34.44080
X25.40366 Y34.44080
X25.23544 Y34.42145
X25.08502 Y34.37029
X24.95667 Y34.29554
X24.84595 Y34.19658
X24.74511 Y34.06059
X24.68045 Y33.91535
X24.64905 Y33.77019
X24.64905 Y33.59056
X24.68045 Y33.44537
X24.74036 Y33.30951
X24.83854 Y33.17156
X24.95667 Y33.06521
X25.09434 Y32.98571
X25.23544 Y32.93930
X25.40366 Y32.92000
X25.40366 Y32.82000
X26.74534 Y32.82109
X26.92352 Y32.84421
X27.05484 Y32.88685
X27.21262 Y32.97291
X27.37701 Y33.12094
X27.47907 Y33.26882
X27.54813 Y33.43473
X27.58011 Y33.59043
X27.57683 Y33.79097
X27.54272 Y33.94624
X27.46957 Y34.11060
X27.34902 Y34.27090
X27.21262 Y34.38784
X27.07440 Y34.46640
X26.88268 Y34.52523
X26.72446 Y34.54080
X25.38270 Y34.53968
X25.24539 Y34.52523
X25.07323 Y34.47390
X24.91545 Y34.38784
X24.75108 Y34.23984
X24.65850 Y34.11057
X24.58535 Y33.94624
X24.54687 Y33.74941
X24.55124 Y33.56978
X24.58535 Y33.41449
X24.64900 Y33.26882
X24.75106 Y33.12094
X24.91545 Y32.97291
X25.05367 Y32.89435
X25.20455 Y32.84421
X25.40366 Y32.82000
G04 P0 ( dwell for no time -- G64 should not smooth over this point )
G00 Z1.50000 ( retract )

G00 X26.72446 Y31.90080 ( rapid move to begin. )
F60.00000
G01 Z-0.05000
G04 P0 ( dwell for no time -- G64 should not smooth over this point )
F120.00000
X26.72446 Y31.90080
X25.40366 Y31.90080
X25.25586 Y31.88579
X25.09434 Y31.83504
X24.95667 Y31.75554
X24.84595 Y31.65658
X24.74036 Y31.51127
X24.68045 Y31.37535
X24.64687 Y31.20941
X24.64740 Y31.06090
X24.67775 Y30.91551
X24.75080 Y30.75142
X24.83854 Y30.63156
X24.94854 Y30.53179
X25.09434 Y30.44571
X25.25588 Y30.39496
X25.40366 Y30.38000
X26.72446 Y30.38000
X26.89263 Y30.39930
X27.04305 Y30.45046
X27.17137 Y30.52519
X27.28212 Y30.62417
X27.38770 Y30.76951
X27.44762 Y30.90537
X27.47902 Y31.05056
X27.47902 Y31.23019
X27.44762 Y31.37535
X27.38770 Y31.51127
X27.28212 Y31.65658
X27.17140 Y31.75556
X27.03373 Y31.83504
X26.87221 Y31.88579
X26.72446 Y31.90080
X26.72446 Y32.00080
X25.38270 Y31.99968
X25.24539 Y31.98523
X25.07323 Y31.93390
X24.91545 Y31.84784
X24.77905 Y31.73090
X24.66993 Y31.58815
X24.57994 Y31.38602
X24.54687 Y31.20941
X24.55124 Y31.02978
X24.58535 Y30.87449
X24.64900 Y30.72882
X24.76424 Y30.56466
X24.91545 Y30.43291
X25.05367 Y30.35435
X25.24544 Y30.29552
X25.40366 Y30.28000
X26.74534 Y30.28109
X26.92352 Y30.30421
X27.05484 Y30.34685
X27.21262 Y30.43291
X27.37701 Y30.58094
X27.47907 Y30.72882
X27.54272 Y30.87449
X27.58123 Y31.07136
X27.57683 Y31.25097
X27.54272 Y31.40624
X27.45814 Y31.58815
X27.34902 Y31.73090
X27.24643 Y31.82328
X27.05484 Y31.93390
X26.88268 Y31.98523
X26.72446 Y32.00080
G04 P0 ( dwell for no time -- G64 should not smooth over this point )
G00 Z1.50000 ( retract )

G00 X25.40366 Y27.84000 ( rapid move to begin. )
F60.00000
G01 Z-0.05000
G04 P0 ( dwell for no time -- G64 should not smooth over this point )
F120.00000
X25.40366 Y27.84000
X26.72446 Y27.84000
X26.89263 Y27.85930
X27.03370 Y27.90571
X27.17137 Y27.98519
X27.28212 Y28.08417
X27.38770 Y28.22951
X27.44762 Y28.36537
X27.48067 Y28.52090
X27.48123 Y28.66941
X27.45032 Y28.82524
X27.37724 Y28.98938
X27.28212 Y29.11658
X27.17953 Y29.20896
X27.03373 Y29.29504
X26.87221 Y29.34579
X26.72446 Y29.36080
X25.40366 Y29.36080
X25.23544 Y29.34145
X25.08502 Y29.29029
X24.95667 Y29.21554
X24.84595 Y29.11658
X24.74511 Y28.98059
X24.68045 Y28.83535
X24.64905 Y28.69019
X24.64905 Y28.51056
X24.68045 Y28.36537
X24.74036 Y28.22951
X24.83854 Y28.09156
X24.95667 Y27.98521
X25.09434 Y27.90571
X25.23544 Y27.85930
X25.40366 Y27.84000
X25.40366 Y27.74000
X26.74534 Y27.74109
X26.92352 Y27.76421
X27.05484 Y27.80685
X27.21262 Y27.89291
X27.37701 Y28.04094
X27.47907 Y28.18882
X27.54813 Y28.35473
X27.58011 Y28.51043
X27.57683 Y28.71097
X27.54272 Y28.86624
X27.46957 Y29.03060
X27.34902 Y29.19090
X27.21262 Y29.30784
X27.07440 Y29.38640
X26.88268 Y29.44523
X26.72446 Y29.46080
X25.38270 Y29.45968
X25.24539 Y29.44523
X25.07323 Y29.39390
X24.91545 Y29.30784
X24.75108 Y29.15984
X24.65850 Y29.03057
X24.58535 Y28.86624
X24.54687 Y28.66941
X24.55124 Y28.48978
X24.58535 Y28.33449
X24.64900 Y28.18882
X24.75106 Y28.04094
X24.91545 Y27.89291
X25.05367 Y27.81435
X25.20455 Y27.76421
X25.40366 Y27.74000
G04 P0 ( dwell for no time -- G64 should not smooth over this point )
G00 Z1.50000 ( retract )

G00 X26.72446 Y26.82080 ( rapid move to begin. )
F60.00000
G01 Z-0.05000
G04 P0 ( dwell for no time -- G64 should not smooth over this point )
F120.00000
X26.72446 Y26.82080
X25.40366 Y26.82080
X25.25586 Y26.80579
X25.09434 Y26.75504
X24.95667 Y26.67554
X24.84595 Y26.57658
X24.74036 Y26.43127
X24.68045 Y26.29535
X24.64687 Y26.12941
X24.64740 Y25.98090
X24.67775 Y25.83551
X24.75080 Y25.67142
X24.83854 Y25.55156
X24.94854 Y25.45179
X25.09434 Y25.36571
X25.25588 Y25.31496
X25.40366 Y25.30000
X26.72446 Y25.30000
X26.89263 Y25.31930
X27.04305 Y25.37046
X27.17137 Y25.44519
X27.28212 Y25.54417
X27.38770 Y25.68951
X27.44762 Y25.82537
X27.47902 Y25.97056
X27.47902 Y26.15019
X27.44762 Y26.29535
X27.38770 Y26.43127
X27.28212 Y26.57658
X27.17140 Y26.67556
X27.03373 Y26.75504
X26.87221 Y26.80579
X26.72446 Y26.82080
X26.72446 Y26.92080
X25.38270 Y26.91968
X25.24539 Y26.90523
X25.07323 Y26.85390
X24.91545 Y26.76784
X24.77905 Y26.65090
X24.66993 Y26.50815
X24.57994 Y26.30602
X24.54687 Y26.12941
X24.55124 Y25.94978
X24.58535 Y25.79449
X24.64900 Y25.64882
X24.76424 Y25.48466
X24.91545 Y25.35291
X25.05367 Y25.27435
X25.24544 Y25.21552
X25.40366 Y25.20000
X26.74534 Y25.20109
X26.92352 Y25.22421
X27.05484 Y25.26685
X27.21262 Y25.35291
X27.37701 Y25.50094
X27.47907 Y25.64882
X27.54272 Y25.79449
X27.58123 Y25.99136
X27.57683 Y26.17097
X27.54272 Y26.32624
X27.45814 Y26.50815
X27.34902 Y26.65090
X27.24643 Y26.74328
X27.05484 Y26.85390
X26.88268 Y26.90523
X26.72446 Y26.92080
G04 P0 ( dwell for no time -- G64 should not smooth over this point )
G00 Z1.50000 ( retract )

G00 X25.40366 Y22.76000 ( rapid move to begin. )
F60.00000
G01 Z-0.05000
G04 P0 ( dwell for no time -- G64 should not smooth over this point )
F120.00000
X25.40366 Y22.76000
X26.72446 Y22.76000
X26.89263 Y22.77930
X27.03370 Y22.82571
X27.17137 Y22.90519
X27.28212 Y23.00417
X27.38770 Y23.14951
X27.44762 Y23.28537
X27.48067 Y23.44090
X27.48123 Y23.58941
X27.45032 Y23.74524
X27.37724 Y23.90938
X27.28212 Y24.03658
X27.17953 Y24.12896
X27.03373 Y24.21504
X26.87221 Y24.26579
X26.72446 Y24.28080
X25.40366 Y24.28080
X25.23544 Y24.26145
X25.08502 Y24.21029
X24.95667 Y24.13554
X24.84595 Y24.03658
X24.74511 Y23.90059
X24.68045 Y23.75535
X24.64905 Y23.61019
X24.64905 Y23.43056
X24.68045 Y23.28537
X24.74036 Y23.14951
X24.83854 Y23.01156
X24.95667 Y22.90521
X25.09434 Y22.82571
X25.23544 Y22.77930
X25.40366 Y22.76000
X25.40366 Y22.66000
X26.74534 Y22.66109
X26.92352 Y22.68421
X27.05484 Y22.72685
X27.21262 Y22.81291
X27.37701 Y22.96094
X27.47907 Y23.10882
X27.54813 Y23.27473
X27.58011 Y23.43043
X27.57683 Y23.63097
X27.54272 Y23.78624
X27.46957 Y23.95060
X27.34902 Y24.11090
X27.21262 Y24.22784
X27.07440 Y24.30640
X26.88268 Y24.36523
X26.72446 Y24.38080
X25.38270 Y24.37968
X25.24539 Y24.36523
X25.07323 Y24.31390
X24.91545 Y24.22784
X24.75108 Y24.07984
X24.65850 Y23.95057
X24.58535 Y23.78624
X24.54687 Y23.58941
X24.55124 Y23.40978
X24.58535 Y23.25449
X24.64900 Y23.10882
X24.75106 Y22.96094
X24.91545 Y22.81291
X25.05367 Y22.73435
X25.20455 Y22.68421
X25.40366 Y22.66000
G04 P0 ( dwell for no time -- G64 should not smooth over this point )
G00 Z1.50000 ( retract )

G00 X25.40366 Y20.22000 ( rapid move to begin. )
F60.00000
G01 Z-0.05000
G04 P0 ( dwell for no time -- G64 should not smooth over this point )
F120.00000
X25.40366 Y20.22000
X26.72446 Y20.22000
X26.89263 Y20.23930
X27.03370 Y20.28571
X27.17137 Y20.36519
X27.28212 Y20.46417
X27.38770 Y20.60951
X27.44762 Y20.74537
X27.48067 Y20.90090
X27.48123 Y21.04941
X27.45032 Y21.20524
X27.37724 Y21.36938
X27.28212 Y21.49658
X27.17953 Y21.58896
X27.03373 Y21.67504
X26.87221 Y21.72579
X26.72446 Y21.74080
X25.40366 Y21.74080
X25.23544 Y21.72145
X25.08502 Y21.67029
X24.95667 Y21.59554
X24.84595 Y21.49658
X24.74511 Y21.36059
X24.68045 Y21.21535
X24.64905 Y21.07019
X24.64905 Y20.89056
X24.68045 Y20.74537
X24.74036 Y20.60951
X24.83854 Y20.47156
X24.95667 Y20.36521
X25.09434 Y20.28571
X25.23544 Y20.23930
X25.40366 Y20.22000
X25.40366 Y20.12000
X26.74534 Y20.12109
X26.92352 Y20.14421
X27.05484 Y20.18685
X27.21262 Y20.27291
X27.37701 Y20.42094
X27.47907 Y20.56882
X27.54813 Y20.73473
X27.58011 Y20.89043
X27.57683 Y21.09097
X27.54272 Y21.24624
X27.46957 Y21.41060
X27.34902 Y21.57090
X27.21262 Y21.68784
X27.07440 Y21.76640
X26.88268 Y21.82523
X26.72446 Y21.84080
X25.38270 Y21.83968
X25.24539 Y21.82523
X25.07323 Y21.77390
X24.91545 Y21.68784
X24.75108 Y21.53984
X24.65850 Y21.41057
X24.58535 Y21.24624
X24.54687 Y21.04941
X24.55124 Y20.86978
X24.58535 Y20.71449
X24.64900 Y20.56882
X24.75106 Y20.42094
X24.91545 Y20.27291
X25.05367 Y20.19435
X25.20455 Y20.14421
X25.40366 Y20.12000
G04 P0 ( dwell for no time -- G64 should not smooth over this point )
G00 Z1.50000 ( retract )

G00 X13.92446 Y24.23000 ( rapid move to begin. )
F60.00000
G01 Z-0.05000
G04 P0 ( dwell for no time -- G64 should not smooth over this point )
F120.00000
X13.92446 Y24.23000
X11.22185 Y24.23000
X11.04344 Y24.30490
X10.82393 Y24.33498
X10.61372 Y24.30737
X10.42642 Y24.23000
X5.74406 Y24.23000
X5.59608 Y24.21395
X5.46359 Y24.17178
X5.35821 Y24.11545
X5.24955 Y24.02873
X5.15986 Y23.92248
X5.08513 Y23.78268
X5.04663 Y23.64910
X5.03446 Y23.52040
X5.03446 Y12.35547
X4.99865 Y12.23815
X4.98366 Y12.09037
X5.00299 Y11.92220
X5.05415 Y11.77178
X5.13548 Y11.63531
X5.22786 Y11.53272
X5.35506 Y11.43759
X5.50906 Y11.36721
X5.67505 Y11.33363
X5.81307 Y11.33363
X5.96890 Y11.36452
X6.11490 Y11.42713
X6.25282 Y11.52530
X6.36491 Y11.65222
X6.44246 Y11.79088
X6.48945 Y11.94262
X6.50390 Y12.07991
X6.48945 Y12.23815
X6.45366 Y12.35537
X6.45366 Y22.81080
X10.42619 Y22.81080
X10.60465 Y22.73587
X10.82416 Y22.70580
X11.03437 Y22.73341
X11.22172 Y22.81080
X17.51846 Y22.81080
X17.63588 Y22.77496
X17.78366 Y22.76000
X19.10446 Y22.76000
X19.27263 Y22.77930
X19.42305 Y22.83046
X19.55137 Y22.90519
X19.66212 Y23.00417
X19.75727 Y23.13142
X19.82762 Y23.28537
X19.86067 Y23.44090
X19.85902 Y23.61019
X19.82386 Y23.76513
X19.75724 Y23.90938
X19.66212 Y24.03658
X19.55953 Y24.12896
X19.41373 Y24.21504
X19.27263 Y24.26145
X19.10446 Y24.28080
X17.78366 Y24.28080
X17.63586 Y24.26579
X17.51864 Y24.23000
X15.34366 Y24.23000
X15.34366 Y32.97080
X17.51846 Y32.97080
X17.63588 Y32.93496
X17.78366 Y32.92000
X19.10446 Y32.92000
X19.25219 Y32.93496
X19.40395 Y32.98195
X19.55137 Y33.06519
X19.67611 Y33.17972
X19.75727 Y33.29142
X19.82386 Y33.43562
X19.86123 Y33.61136
X19.86123 Y33.74941
X19.83032 Y33.90524
X19.76295 Y34.06059
X19.66212 Y34.19658
X19.55140 Y34.29556
X19.42305 Y34.37029
X19.27263 Y34.42145
X19.10446 Y34.44080
X17.78366 Y34.44080
X17.63586 Y34.42579
X17.51864 Y34.39000
X14.62423 Y34.38949
X14.48608 Y34.37395
X14.37173 Y34.33928
X14.24821 Y34.27545
X14.13955 Y34.18873
X14.03896 Y34.06620
X13.98263 Y33.96082
X13.94046 Y33.82833
X13.92446 Y33.68040
X13.92446 Y24.23000
X13.82446 Y24.33000
X11.24649 Y24.33000
X11.06457 Y24.40264
X10.84540 Y24.43457
X10.59383 Y24.40536
X10.40199 Y24.33000
X5.74406 Y24.33000
X5.56707 Y24.30965
X5.41645 Y24.25997
X5.31107 Y24.20363
X5.18610 Y24.10602
X5.06077 Y23.95334
X5.00444 Y23.84796
X4.95475 Y23.69734
X4.93446 Y23.52040
X4.93446 Y12.37135
X4.89921 Y12.24862
X4.88366 Y12.09037
X4.90789 Y11.89131
X4.96756 Y11.72177
X5.06116 Y11.56840
X5.15354 Y11.46581
X5.29628 Y11.35670
X5.47817 Y11.27211
X5.63347 Y11.23800
X5.81307 Y11.23363
X6.02948 Y11.27961
X6.15559 Y11.33577
X6.30347 Y11.43782
X6.42694 Y11.56840
X6.53004 Y11.74041
X6.58889 Y11.93216
X6.60334 Y12.11133
X6.58889 Y12.24862
X6.55366 Y12.37117
X6.55366 Y22.71080
X10.40156 Y22.71080
X10.58352 Y22.63813
X10.83028 Y22.60597
X11.05426 Y22.63541
X11.24616 Y22.71080
X17.50258 Y22.71080
X17.62544 Y22.67552
X17.78366 Y22.66000
X19.10446 Y22.66000
X19.30352 Y22.68421
X19.47306 Y22.74387
X19.62643 Y22.83747
X19.72902 Y22.92985
X19.83816 Y23.07265
X19.92272 Y23.25449
X19.96011 Y23.43043
X19.95683 Y23.63097
X19.91523 Y23.80579
X19.83814 Y23.96815
X19.72902 Y24.11090
X19.62643 Y24.20328
X19.45440 Y24.30640
X19.30352 Y24.35654
X19.10446 Y24.38080
X17.78366 Y24.38080
X17.62539 Y24.36523
X17.50284 Y24.33000
X15.44366 Y24.33000
X15.44366 Y32.87080
X17.50258 Y32.87080
X17.62544 Y32.83552
X17.78366 Y32.82000
X19.10446 Y32.82000
X19.30352 Y32.84421
X19.45440 Y32.89435
X19.62643 Y32.99747
X19.74383 Y33.10463
X19.83816 Y33.23265
X19.92272 Y33.41449
X19.96123 Y33.61136
X19.96123 Y33.74941
X19.92813 Y33.92602
X19.84957 Y34.11060
X19.72902 Y34.27090
X19.62643 Y34.36328
X19.47306 Y34.45688
X19.30352 Y34.51654
X19.10446 Y34.54080
X17.78366 Y34.54080
X17.62539 Y34.52523
X17.50284 Y34.49000
X14.61440 Y34.48901
X14.45707 Y34.46965
X14.34272 Y34.43498
X14.20107 Y34.36363
X14.04839 Y34.23831
X13.95077 Y34.11334
X13.89444 Y34.00796
X13.84475 Y33.85734
X13.82446 Y33.68040
X13.82446 Y24.33000
G04 P0 ( dwell for no time -- G64 should not smooth over this point )
G00 Z1.50000 ( retract )

G00 X39.47366 Y13.75918 ( rapid move to begin. )
F60.00000
G01 Z-0.05000
G04 P0 ( dwell for no time -- G64 should not smooth over this point )
F120.00000
X39.47366 Y13.75918
X39.47366 Y47.25274
X39.55192 Y47.44349
X39.57849 Y47.67069
X39.55885 Y47.82934
X39.50894 Y47.98032
X39.43015 Y48.11949
X39.32588 Y48.24037
X39.19995 Y48.33866
X39.05639 Y48.41083
X38.90300 Y48.45314
X38.74384 Y48.46485
X38.58816 Y48.44588
X38.43825 Y48.39711
X38.30061 Y48.32045
X38.18776 Y48.22627
X38.08999 Y48.10801
X38.01514 Y47.97115
X37.96805 Y47.82403
X37.94956 Y47.66892
X37.97651 Y47.44225
X38.05446 Y47.25271
X38.05446 Y13.75824
X37.97953 Y13.57978
X37.94946 Y13.36027
X37.98075 Y13.13673
X38.06510 Y12.94204
X38.21834 Y12.75545
X38.42543 Y12.61941
X38.65614 Y12.55286
X38.81552 Y12.54732
X38.96444 Y12.57071
X39.19268 Y12.66756
X39.31234 Y12.75779
X39.41946 Y12.87648
X39.53208 Y13.08859
X39.57826 Y13.33233
X39.55372 Y13.56078
X39.47366 Y13.75918
X39.57366 Y13.78476
X39.57366 Y47.22833
X39.65004 Y47.42414
X39.67826 Y47.67755
X39.65540 Y47.85543
X39.59855 Y48.02472
X39.50935 Y48.18052
X39.39169 Y48.31568
X39.24976 Y48.42538
X39.08824 Y48.50562
X38.91577 Y48.55233
X38.73711 Y48.56462
X38.56243 Y48.54252
X38.41219 Y48.49462
X38.25629 Y48.41113
X38.12009 Y48.29990
X38.00963 Y48.16752
X37.92497 Y48.01438
X37.87133 Y47.84941
X37.84976 Y47.67539
X37.87841 Y47.42277
X37.95446 Y47.22830
X37.95446 Y13.78288
X37.88179 Y13.60091
X37.84963 Y13.35415
X37.88644 Y13.10348
X37.97630 Y12.89604
X38.08469 Y12.74801
X38.21735 Y12.62715
X38.37000 Y12.53500
X38.53937 Y12.47379
X38.71727 Y12.44697
X38.89642 Y12.45540
X39.06995 Y12.49843
X39.23205 Y12.57457
X39.37643 Y12.68103
X39.49728 Y12.81369
X39.59030 Y12.96815
X39.65090 Y13.13678
X39.67747 Y13.31361
X39.66904 Y13.49276
X39.62601 Y13.66629
X39.57366 Y13.78476
G04 P0 ( dwell for no time -- G64 should not smooth over this point )
G00 Z1.50000 ( retract )

G00 X43.55016 Y5.18000 ( rapid move to begin. )
F60.00000
G01 Z-0.05000
G04 P0 ( dwell for no time -- G64 should not smooth over this point )
F120.00000
X43.55016 Y5.18000
X18.84287 Y5.18000
X18.64444 Y5.26006
X18.41599 Y5.28460
X18.25806 Y5.26357
X18.10700 Y5.21211
X17.96814 Y5.13161
X17.84807 Y5.02585
X17.75153 Y4.89951
X17.68125 Y4.75651
X17.64002 Y4.60187
X17.62984 Y4.44233
X17.65087 Y4.28440
X17.70233 Y4.13334
X17.78282 Y3.99448
X17.88859 Y3.87441
X18.01493 Y3.77787
X18.12638 Y3.72029
X18.23372 Y3.68341
X18.44393 Y3.65580
X18.66344 Y3.68587
X18.84187 Y3.76080
X43.84406 Y3.76080
X43.99196 Y3.77680
X44.12448 Y3.81897
X44.24614 Y3.88620
X44.34579 Y3.96862
X49.14446 Y8.76729
X49.32419 Y8.84083
X49.49873 Y8.97298
X49.61522 Y9.11913
X49.69462 Y9.28601
X49.73386 Y9.46147
X49.73478 Y9.63038
X49.69703 Y9.80763
X49.63366 Y9.94882
X49.63366 Y18.91713
X49.70384 Y19.10395
X49.72403 Y19.28035
X49.70818 Y19.43636
X49.65863 Y19.59597
X49.57125 Y19.75058
X49.45119 Y19.88147
X49.31471 Y19.97791
X49.17125 Y20.04121
X48.99721 Y20.07654
X48.84044 Y20.07598
X48.67682 Y20.04121
X48.51530 Y19.96747
X48.38136 Y19.86747
X48.27684 Y19.75056
X48.19798 Y19.61507
X48.14425 Y19.45678
X48.12459 Y19.29084
X48.14425 Y19.10395
X48.21446 Y18.91711
X48.21446 Y9.94766
X48.14138 Y9.77123
X43.55016 Y5.18000
X43.50873 Y5.28000
X18.86847 Y5.28000
X18.66484 Y5.35795
X18.41683 Y5.38460
X18.23941 Y5.36181
X18.06961 Y5.30484
X17.91333 Y5.21526
X17.77792 Y5.09712
X17.66888 Y4.95579
X17.58922 Y4.79565
X17.54213 Y4.62227
X17.52984 Y4.44317
X17.55262 Y4.26575
X17.60959 Y4.09595
X17.69918 Y3.93967
X17.81731 Y3.80426
X17.95864 Y3.69522
X18.09308 Y3.62600
X18.21383 Y3.58541
X18.43781 Y3.55597
X18.68457 Y3.58813
X18.86651 Y3.66080
X43.84406 Y3.66080
X44.02097 Y3.68110
X44.17162 Y3.73078
X44.30959 Y3.80891
X44.41650 Y3.89791
X49.19777 Y8.67918
X49.37836 Y8.75678
X49.57278 Y8.90577
X49.70257 Y9.07047
X49.79068 Y9.25820
X49.83114 Y9.43364
X49.83465 Y9.63524
X49.79335 Y9.83455
X49.73366 Y9.97407
X49.73366 Y18.89034
X49.79894 Y19.07306
X49.82294 Y19.30131
X49.80762 Y19.44682
X49.75373 Y19.62686
X49.63897 Y19.82561
X49.52624 Y19.94919
X49.39157 Y20.04837
X49.20216 Y20.13631
X49.01812 Y20.17542
X48.82998 Y20.17542
X48.64590 Y20.13631
X48.45652 Y20.04837
X48.32183 Y19.94919
X48.18456 Y19.79181
X48.10186 Y19.64642
X48.04047 Y19.44682
X48.02406 Y19.28035
X48.04047 Y19.11391
X48.11446 Y18.89031
X48.11446 Y9.97166
X48.05370 Y9.82497
X43.50873 Y5.28000

G04 P0 ( dwell for no time -- G64 should not smooth over this point )
G00 Z10.000 ( retract )

M5 ( Spindle off. )
M9 ( Coolant off. )
M2 ( Program end. )

