( pcb2gcode 1.3.2 )
( Software-independent Gcode )

( This file uses only one drill bit. Forced by 'onedrill' option )

G94       (Millimeters per minute feed rate.)
G21       (Units == Millimeters.)
G91.1     (Incremental arc distance mode.)
G90       (Absolute coordinates.)
S10000     (RPM spindle speed.)

G00 Z10.00000 (Retract)
T1
M5      (Spindle stop.)
(MSG, Change tool bit to drill size 1.19000 mm)
M6      (Tool change.)
M0      (Temporary machine stop.)
M3      (Spindle on clockwise.)

G81 R1.50000 Z-1.70000 F60.00000 X81.94040 Y24.79040
X81.94040 Y27.33040
X81.94040 Y29.87040
X73.05040 Y27.33040
X73.05040 Y24.79040
X69.24040 Y27.33040
X64.16040 Y32.41040
X64.16040 Y34.95040
X64.16040 Y37.49040
X56.54040 Y27.33040
X48.92040 Y22.68040
X48.92040 Y19.28040
X48.92040 Y9.55040
X38.76040 Y13.36040
X26.06040 Y13.36040
X26.06040 Y20.98040
X26.06040 Y23.52040
X26.06040 Y26.06040
X26.06040 Y28.60040
X26.06040 Y31.14040
X26.06040 Y33.68040
X26.06040 Y36.22040
X18.44040 Y36.22040
X18.44040 Y33.68040
X18.44040 Y31.14040
X18.44040 Y28.60040
X18.44040 Y26.06040
X18.44040 Y23.52040
X18.44040 Y20.98040
X18.44040 Y17.17040
X10.82040 Y23.52040
X5.74040 Y12.09040
X5.74040 Y7.01040
X18.44040 Y4.47040
X10.82040 Y36.22040
X5.74040 Y36.22040
X5.74040 Y48.92040
X5.74040 Y52.73040
X3.20040 Y52.73040
X38.76040 Y50.19040
X38.76040 Y47.65040
X66.70040 Y52.73040
X74.32040 Y52.73040
X61.62040 Y9.55040

G00 Z10.000 ( All done -- retract )

M5      (Spindle off.)
M9      (Coolant off.)
M2      (Program end.)

