( pcb2gcode 1.3.2 )
( Software-independent Gcode )

G94 ( Millimeters per minute feed rate. )
G21 ( Units == Millimeters. )

G90 ( Absolute coordinates. )
S10000 ( RPM spindle speed. )
G64 P0.01000 ( set maximum deviation from commanded toolpath )
F120.00000 ( Feedrate. )

F120.00000 ( Feedrate. )
M3 ( Spindle on clockwise. )
G04 P0 ( dwell for no time -- G64 should not smooth over this point )
G00 Z1.50000 ( retract )

G00 X9.13450 Y28.14000 ( rapid move to begin. )
F60.00000
G01 Z-0.05000
G04 P0 ( dwell for no time -- G64 should not smooth over this point )
F120.00000
X9.13450 Y28.14000
X2.30927 Y28.14000
X2.18661 Y28.17523
X2.02834 Y28.19080
X0.68661 Y28.18968
X0.50848 Y28.16654
X0.35761 Y28.11640
X0.18557 Y28.01328
X0.05502 Y27.88984
X-0.03757 Y27.76060
X-0.11072 Y27.59624
X-0.14922 Y27.39941
X-0.14811 Y27.24043
X-0.11072 Y27.06449
X-0.04707 Y26.91882
X0.08298 Y26.73985
X0.21938 Y26.62291
X0.35761 Y26.54435
X0.50848 Y26.49421
X0.68666 Y26.47109
X2.02834 Y26.47000
X2.18656 Y26.48552
X2.30932 Y26.52080
X9.13435 Y26.52080
X9.35736 Y26.43906
X9.54674 Y26.41920
X10.99002 Y26.42029
X11.15860 Y26.43909
X11.38154 Y26.52080
X13.64346 Y26.52080
X13.75717 Y26.47018
X13.90881 Y26.42972
X14.01498 Y26.41730
X14.19037 Y26.42400
X14.36289 Y26.46464
X14.50993 Y26.52964
X14.72273 Y26.69179
X14.88011 Y26.90978
X14.92458 Y27.00988
X14.97058 Y27.18280
X14.98204 Y27.36190
X14.96258 Y27.52057
X14.90919 Y27.68849
X14.83975 Y27.82057
X14.66571 Y28.02219
X14.54442 Y28.11069
X14.37919 Y28.19006
X14.23363 Y28.22953
X14.08623 Y28.24460
X13.95415 Y28.23766
X13.82215 Y28.21112
X13.64625 Y28.14000
X11.38149 Y28.14000
X11.17884 Y28.21625
X10.99007 Y28.24048
X9.54674 Y28.24160
X9.33709 Y28.21625
X9.13450 Y28.14000
G04 P0 ( dwell for no time -- G64 should not smooth over this point )
G00 Z1.50000 ( retract )

G00 X18.20652 Y36.68080 ( rapid move to begin. )
F60.00000
G01 Z-0.05000
G04 P0 ( dwell for no time -- G64 should not smooth over this point )
F120.00000
X18.20652 Y36.68080
X18.32938 Y36.64552
X18.48754 Y36.63000
X19.80834 Y36.63000
X20.00745 Y36.65421
X20.17700 Y36.71387
X20.33036 Y36.80747
X20.44776 Y36.91466
X20.56300 Y37.07882
X20.62665 Y37.22449
X20.66077 Y37.37978
X20.66514 Y37.55941
X20.62665 Y37.75624
X20.55350 Y37.92057
X20.43295 Y38.08090
X20.33036 Y38.17328
X20.17700 Y38.26688
X20.00745 Y38.32654
X19.80834 Y38.35080
X18.48754 Y38.35080
X18.32933 Y38.33523
X18.20677 Y38.30000
X2.17754 Y38.30000
X2.17754 Y49.72802
X4.37032 Y51.92080
X8.25231 Y51.92080
X8.44047 Y51.78209
X8.64961 Y51.68900
X8.89439 Y51.64033
X9.12307 Y51.64468
X9.32632 Y51.68900
X9.53544 Y51.78209
X9.70437 Y51.90348
X9.87382 Y52.08679
X9.99576 Y52.30457
X10.06229 Y52.52342
X10.08294 Y52.73037
X10.05360 Y52.97825
X9.97877 Y53.19438
X9.88522 Y53.35643
X9.70437 Y53.55727
X9.53546 Y53.67866
X9.34585 Y53.76428
X9.08149 Y53.82047
X8.85284 Y53.81610
X8.64961 Y53.77177
X8.44050 Y53.67868
X8.25114 Y53.54000
X4.03494 Y53.54000
X3.85801 Y53.51965
X3.70738 Y53.46997
X3.60200 Y53.41363
X3.46250 Y53.30284
X0.79550 Y50.63584
X0.70129 Y50.52126
X0.60711 Y50.33866
X0.57280 Y50.21105
X0.55834 Y50.06340
X0.55834 Y30.71619
X0.33894 Y30.64688
X0.18557 Y30.55328
X0.08298 Y30.46090
X-0.04707 Y30.28193
X-0.11072 Y30.13624
X-0.14922 Y29.93941
X-0.14811 Y29.78043
X-0.10323 Y29.58493
X-0.04707 Y29.45882
X0.05499 Y29.31094
X0.18557 Y29.18747
X0.37716 Y29.07685
X0.50848 Y29.03421
X0.68666 Y29.01109
X2.02834 Y29.01000
X2.18656 Y29.02552
X2.37833 Y29.08435
X2.55036 Y29.18747
X2.66776 Y29.29466
X2.76210 Y29.42265
X2.85206 Y29.62473
X2.88514 Y29.80136
X2.88077 Y29.98097
X2.84665 Y30.13624
X2.77350 Y30.30057
X2.65295 Y30.46090
X2.51656 Y30.57784
X2.37835 Y30.65638
X2.17754 Y30.71617
X2.17754 Y36.68080
X18.20652 Y36.68080
G04 P0 ( dwell for no time -- G64 should not smooth over this point )
G00 Z1.50000 ( retract )

G00 X20.08932 Y34.14080 ( rapid move to begin. )
F60.00000
G01 Z-0.05000
G04 P0 ( dwell for no time -- G64 should not smooth over this point )
F120.00000
X20.08932 Y34.14080
X20.87834 Y34.14080
X20.87834 Y9.97229
X20.80100 Y9.77275
X20.77400 Y9.51596
X20.79917 Y9.33458
X20.86031 Y9.16112
X20.95515 Y9.00313
X21.07905 Y8.86793
X21.22810 Y8.75977
X21.39470 Y8.68406
X21.57344 Y8.64299
X21.75632 Y8.63831
X21.92297 Y8.66645
X22.08205 Y8.72500
X22.22878 Y8.81278
X22.35462 Y8.92419
X22.45865 Y9.05784
X22.53648 Y9.20895
X22.58126 Y9.35396
X22.60216 Y9.52228
X22.57435 Y9.77499
X22.49754 Y9.97247
X22.49754 Y34.95040
X22.48489 Y35.08891
X22.42757 Y35.27796
X22.34943 Y35.41593
X22.24590 Y35.53602
X22.12094 Y35.63363
X22.01555 Y35.68997
X21.86493 Y35.73965
X21.70760 Y35.75901
X20.08927 Y35.76000
X19.96661 Y35.79523
X19.80834 Y35.81080
X18.46661 Y35.80968
X18.32933 Y35.79523
X18.15716 Y35.74390
X17.99938 Y35.65784
X17.86298 Y35.54090
X17.74243 Y35.38060
X17.66928 Y35.21624
X17.63078 Y35.01941
X17.63189 Y34.86043
X17.66928 Y34.68449
X17.73293 Y34.53882
X17.84817 Y34.37463
X17.96557 Y34.26747
X18.11894 Y34.17387
X18.28848 Y34.11421
X18.48754 Y34.09000
X19.80834 Y34.09000
X19.96656 Y34.10552
X20.08932 Y34.14080
G04 P0 ( dwell for no time -- G64 should not smooth over this point )
G00 Z1.50000 ( retract )

G00 X45.35754 Y13.78481 ( rapid move to begin. )
F60.00000
G01 Z-0.05000
G04 P0 ( dwell for no time -- G64 should not smooth over this point )
F120.00000
X45.35754 Y13.78481
X45.35754 Y47.22828
X45.43395 Y47.42414
X45.46216 Y47.67755
X45.43930 Y47.85543
X45.38246 Y48.02472
X45.29325 Y48.18052
X45.17560 Y48.31568
X45.03367 Y48.42538
X44.87215 Y48.50562
X44.69968 Y48.55233
X44.52102 Y48.56462
X44.34634 Y48.54252
X44.19610 Y48.49462
X44.04020 Y48.41113
X43.90400 Y48.29990
X43.79354 Y48.16752
X43.70888 Y48.01438
X43.65523 Y47.84941
X43.63367 Y47.67539
X43.66232 Y47.42277
X43.73834 Y47.22835
X43.73834 Y13.78283
X43.66570 Y13.60091
X43.63354 Y13.35415
X43.67040 Y13.10338
X43.76057 Y12.89540
X43.86859 Y12.74801
X44.00123 Y12.62718
X44.15572 Y12.53414
X44.32435 Y12.47353
X44.50118 Y12.44697
X44.68033 Y12.45540
X44.85472 Y12.49876
X45.01670 Y12.57501
X45.16034 Y12.68103
X45.28116 Y12.81367
X45.37420 Y12.96815
X45.43481 Y13.13678
X45.46138 Y13.31361
X45.45294 Y13.49276
X45.40959 Y13.66716
X45.35754 Y13.78481
G04 P0 ( dwell for no time -- G64 should not smooth over this point )
G00 Z1.50000 ( retract )

G00 X42.34327 Y9.09000 ( rapid move to begin. )
F60.00000
G01 Z-0.05000
G04 P0 ( dwell for no time -- G64 should not smooth over this point )
F120.00000
X42.34327 Y9.09000
X39.00754 Y12.42573
X39.00754 Y27.33040
X38.99489 Y27.46891
X38.95258 Y27.62169
X38.85943 Y27.79593
X38.78362 Y27.88831
X38.66352 Y27.99184
X38.52555 Y28.06997
X38.33655 Y28.12727
X38.19794 Y28.14000
X35.19754 Y28.14000
X35.19754 Y49.38080
X44.12681 Y49.38080
X44.35772 Y49.29609
X44.50344 Y49.27717
X44.64749 Y49.28131
X44.87085 Y49.33478
X45.07395 Y49.44229
X45.24350 Y49.59665
X45.35866 Y49.76724
X45.43826 Y49.98138
X45.46224 Y50.20948
X45.42851 Y50.43721
X45.33958 Y50.64824
X45.19747 Y50.83416
X45.01502 Y50.97661
X44.80141 Y51.06906
X44.57154 Y51.10457
X44.31881 Y51.07564
X44.12590 Y51.00000
X24.56327 Y51.00000
X22.26043 Y53.30284
X22.12094 Y53.41361
X21.97933 Y53.48493
X21.82655 Y53.52727
X21.68794 Y53.54000
X17.34358 Y53.54000
X17.15546 Y53.67866
X16.96585 Y53.76428
X16.70149 Y53.82047
X16.51439 Y53.82047
X16.28983 Y53.77721
X16.06050 Y53.67868
X15.87528 Y53.54411
X15.71069 Y53.35643
X15.61714 Y53.19438
X15.54231 Y52.97825
X15.51297 Y52.73037
X15.54231 Y52.48252
X15.61714 Y52.26639
X15.71069 Y52.10434
X15.86047 Y51.93147
X16.06047 Y51.78209
X16.28983 Y51.68356
X16.47284 Y51.64468
X16.70149 Y51.64033
X16.96585 Y51.69649
X17.15544 Y51.78209
X17.34480 Y51.92080
X21.35261 Y51.92080
X23.65550 Y49.61791
X23.79500 Y49.50711
X23.90038 Y49.45078
X24.05103 Y49.40110
X24.22794 Y49.38080
X33.57834 Y49.38080
X33.57834 Y28.14000
X27.18905 Y28.14000
X26.95819 Y28.22468
X26.81247 Y28.24361
X26.67041 Y28.23977
X26.48671 Y28.20065
X26.31331 Y28.12397
X26.16012 Y28.01376
X26.03205 Y27.87348
X25.93584 Y27.70995
X25.87983 Y27.54887
X25.85382 Y27.35969
X25.86733 Y27.17112
X25.90378 Y27.03190
X25.96485 Y26.89349
X26.04785 Y26.76705
X26.15080 Y26.65585
X26.26990 Y26.56368
X26.40373 Y26.49182
X26.54684 Y26.44325
X26.69545 Y26.41900
X26.83413 Y26.41841
X26.97241 Y26.43919
X27.18946 Y26.52080
X33.57834 Y26.52080
X33.57834 Y23.07041
X33.50438 Y22.84684
X33.48797 Y22.68037
X33.50438 Y22.51393
X33.57529 Y22.29566
X33.67303 Y22.13513
X33.78578 Y22.01154
X33.92043 Y21.91238
X34.09028 Y21.83196
X34.31479 Y21.78423
X34.48202 Y21.78533
X34.66610 Y21.82444
X34.81931 Y21.89150
X34.97387 Y21.99838
X35.10288 Y22.13513
X35.20062 Y22.29566
X35.27153 Y22.51393
X35.28794 Y22.68037
X35.27153 Y22.84684
X35.19754 Y23.07044
X35.19754 Y26.52080
X37.38834 Y26.52080
X37.38834 Y12.09040
X37.40871 Y11.91336
X37.45840 Y11.76282
X37.51473 Y11.65741
X37.62550 Y11.51791
X41.43550 Y7.70791
X41.57500 Y7.59711
X41.68038 Y7.54078
X41.83103 Y7.49110
X42.00794 Y7.47080
X52.16794 Y7.47080
X52.30650 Y7.48345
X52.45928 Y7.52577
X52.63352 Y7.61891
X52.75362 Y7.72244
X52.85123 Y7.84741
X52.90757 Y7.95279
X52.95725 Y8.10341
X52.97754 Y8.28040
X52.97754 Y16.36080
X58.51794 Y16.36080
X58.70649 Y16.38389
X58.86133 Y16.43771
X58.97585 Y16.50370
X59.09043 Y16.59791
X61.63043 Y19.13791
X61.74123 Y19.27741
X61.81258 Y19.41906
X61.85489 Y19.57184
X61.86754 Y19.71040
X61.86754 Y24.45502
X62.66332 Y25.25080
X63.92652 Y25.25080
X64.04938 Y25.21552
X64.20754 Y25.20000
X65.52834 Y25.20000
X65.72745 Y25.22421
X65.87833 Y25.27435
X66.05036 Y25.37747
X66.16776 Y25.48466
X66.28300 Y25.64882
X66.34665 Y25.79449
X66.38077 Y25.94978
X66.38514 Y26.12941
X66.34665 Y26.32624
X66.27350 Y26.49057
X66.15295 Y26.65090
X66.01656 Y26.76784
X65.85877 Y26.85390
X65.68661 Y26.90523
X65.54930 Y26.91968
X64.20754 Y26.92080
X64.04933 Y26.90523
X63.92677 Y26.87000
X62.32794 Y26.87000
X62.18939 Y26.85727
X62.00038 Y26.79997
X61.89500 Y26.74363
X61.77003 Y26.64602
X60.48550 Y25.36284
X60.37095 Y25.21781
X60.31085 Y25.10010
X60.26280 Y24.93805
X60.24834 Y24.79040
X60.24834 Y20.04568
X58.18266 Y17.98000
X52.16794 Y17.98000
X51.99101 Y17.95965
X51.84038 Y17.90997
X51.70241 Y17.83184
X51.58232 Y17.72831
X51.48471 Y17.60334
X51.41336 Y17.46169
X51.37107 Y17.30896
X51.35834 Y17.17040
X51.35834 Y9.09000
X42.34327 Y9.09000
G04 P0 ( dwell for no time -- G64 should not smooth over this point )
G00 Z1.50000 ( retract )

G00 X57.90834 Y21.84080 ( rapid move to begin. )
F60.00000
G01 Z-0.05000
G04 P0 ( dwell for no time -- G64 should not smooth over this point )
F120.00000
X57.90834 Y21.84080
X56.56661 Y21.83968
X56.42933 Y21.82523
X56.25716 Y21.77390
X56.09938 Y21.68784
X55.96298 Y21.57090
X55.85386 Y21.42815
X55.76387 Y21.22602
X55.73078 Y21.04941
X55.73189 Y20.89043
X55.76928 Y20.71449
X55.85384 Y20.53265
X55.96298 Y20.38985
X56.06557 Y20.29747
X56.21894 Y20.20387
X56.38848 Y20.14421
X56.56666 Y20.12109
X57.92925 Y20.12109
X58.10745 Y20.14421
X58.23877 Y20.18685
X58.39656 Y20.27291
X58.56094 Y20.42094
X58.66300 Y20.56882
X58.72665 Y20.71449
X58.76514 Y20.91136
X58.76077 Y21.09097
X58.72665 Y21.24624
X58.64207 Y21.42815
X58.53295 Y21.57090
X58.43036 Y21.66328
X58.23877 Y21.77390
X58.06661 Y21.82523
X57.90834 Y21.84080
G04 P0 ( dwell for no time -- G64 should not smooth over this point )
G00 Z1.50000 ( retract )

G00 X57.90834 Y24.38080 ( rapid move to begin. )
F60.00000
G01 Z-0.05000
G04 P0 ( dwell for no time -- G64 should not smooth over this point )
F120.00000
X57.90834 Y24.38080
X56.56661 Y24.37968
X56.42933 Y24.36523
X56.25716 Y24.31390
X56.09938 Y24.22784
X55.96298 Y24.11090
X55.85386 Y23.96815
X55.76387 Y23.76602
X55.73078 Y23.58941
X55.73189 Y23.43043
X55.76928 Y23.25449
X55.85384 Y23.07265
X55.96298 Y22.92985
X56.06557 Y22.83747
X56.21894 Y22.74387
X56.38848 Y22.68421
X56.56666 Y22.66109
X57.92925 Y22.66109
X58.10745 Y22.68421
X58.23877 Y22.72685
X58.39656 Y22.81291
X58.56094 Y22.96094
X58.66300 Y23.10882
X58.72665 Y23.25449
X58.76514 Y23.45136
X58.76077 Y23.63097
X58.72665 Y23.78624
X58.64207 Y23.96815
X58.53295 Y24.11090
X58.43036 Y24.20328
X58.23877 Y24.31390
X58.06661 Y24.36523
X57.90834 Y24.38080
G04 P0 ( dwell for no time -- G64 should not smooth over this point )
G00 Z1.50000 ( retract )

G00 X56.58754 Y25.20000 ( rapid move to begin. )
F60.00000
G01 Z-0.05000
G04 P0 ( dwell for no time -- G64 should not smooth over this point )
F120.00000
X56.58754 Y25.20000
X57.92925 Y25.20109
X58.10745 Y25.22421
X58.23877 Y25.26685
X58.39656 Y25.35291
X58.56094 Y25.50094
X58.66300 Y25.64882
X58.73206 Y25.81473
X58.76514 Y25.99136
X58.76077 Y26.17097
X58.72665 Y26.32624
X58.65350 Y26.49057
X58.53295 Y26.65090
X58.39656 Y26.76784
X58.25835 Y26.84638
X58.06661 Y26.90523
X57.90834 Y26.92080
X56.56661 Y26.91968
X56.42933 Y26.90523
X56.25716 Y26.85390
X56.09938 Y26.76784
X55.93502 Y26.61984
X55.84243 Y26.49060
X55.76928 Y26.32624
X55.73078 Y26.12941
X55.73189 Y25.97043
X55.76928 Y25.79449
X55.85384 Y25.61265
X55.94817 Y25.48463
X56.06557 Y25.37747
X56.25716 Y25.26685
X56.42938 Y25.21552
X56.58754 Y25.20000
G04 P0 ( dwell for no time -- G64 should not smooth over this point )
G00 Z1.50000 ( retract )

G00 X57.90834 Y29.46080 ( rapid move to begin. )
F60.00000
G01 Z-0.05000
G04 P0 ( dwell for no time -- G64 should not smooth over this point )
F120.00000
X57.90834 Y29.46080
X56.56661 Y29.45968
X56.42933 Y29.44523
X56.25716 Y29.39390
X56.09938 Y29.30784
X55.96298 Y29.19090
X55.85386 Y29.04815
X55.76387 Y28.84602
X55.73078 Y28.66941
X55.73189 Y28.51043
X55.76928 Y28.33449
X55.85384 Y28.15265
X55.96298 Y28.00985
X56.06557 Y27.91747
X56.21894 Y27.82387
X56.38848 Y27.76421
X56.56666 Y27.74109
X57.92925 Y27.74109
X58.10745 Y27.76421
X58.23877 Y27.80685
X58.39656 Y27.89291
X58.56094 Y28.04094
X58.66300 Y28.18882
X58.72665 Y28.33449
X58.76514 Y28.53136
X58.76077 Y28.71097
X58.72665 Y28.86624
X58.64207 Y29.04815
X58.53295 Y29.19090
X58.43036 Y29.28328
X58.23877 Y29.39390
X58.06661 Y29.44523
X57.90834 Y29.46080
G04 P0 ( dwell for no time -- G64 should not smooth over this point )
G00 Z1.50000 ( retract )

G00 X56.58754 Y30.28000 ( rapid move to begin. )
F60.00000
G01 Z-0.05000
G04 P0 ( dwell for no time -- G64 should not smooth over this point )
F120.00000
X56.58754 Y30.28000
X57.92925 Y30.28109
X58.10745 Y30.30421
X58.23877 Y30.34685
X58.39656 Y30.43291
X58.56094 Y30.58094
X58.66300 Y30.72882
X58.73206 Y30.89473
X58.76514 Y31.07136
X58.76077 Y31.25097
X58.72665 Y31.40624
X58.65350 Y31.57057
X58.53295 Y31.73090
X58.39656 Y31.84784
X58.25835 Y31.92638
X58.06661 Y31.98523
X57.90834 Y32.00080
X56.56661 Y31.99968
X56.42933 Y31.98523
X56.25716 Y31.93390
X56.09938 Y31.84784
X55.93502 Y31.69984
X55.84243 Y31.57060
X55.76928 Y31.40624
X55.73078 Y31.20941
X55.73189 Y31.05043
X55.76928 Y30.87449
X55.85384 Y30.69265
X55.94817 Y30.56463
X56.06557 Y30.45747
X56.25716 Y30.34685
X56.42938 Y30.29552
X56.58754 Y30.28000
G04 P0 ( dwell for no time -- G64 should not smooth over this point )
G00 Z1.50000 ( retract )

G00 X57.90834 Y34.54080 ( rapid move to begin. )
F60.00000
G01 Z-0.05000
G04 P0 ( dwell for no time -- G64 should not smooth over this point )
F120.00000
X57.90834 Y34.54080
X56.56661 Y34.53968
X56.42933 Y34.52523
X56.25716 Y34.47390
X56.09938 Y34.38784
X55.96298 Y34.27090
X55.85386 Y34.12815
X55.76387 Y33.92602
X55.73078 Y33.74941
X55.73189 Y33.59043
X55.76928 Y33.41449
X55.85384 Y33.23265
X55.96298 Y33.08985
X56.06557 Y32.99747
X56.21894 Y32.90387
X56.38848 Y32.84421
X56.56666 Y32.82109
X57.92925 Y32.82109
X58.10745 Y32.84421
X58.23877 Y32.88685
X58.39656 Y32.97291
X58.56094 Y33.12094
X58.66300 Y33.26882
X58.72665 Y33.41449
X58.76514 Y33.61136
X58.76077 Y33.79097
X58.72665 Y33.94624
X58.64207 Y34.12815
X58.53295 Y34.27090
X58.43036 Y34.36328
X58.23877 Y34.47390
X58.06661 Y34.52523
X57.90834 Y34.54080
G04 P0 ( dwell for no time -- G64 should not smooth over this point )
G00 Z1.50000 ( retract )

G00 X64.20754 Y30.28000 ( rapid move to begin. )
F60.00000
G01 Z-0.05000
G04 P0 ( dwell for no time -- G64 should not smooth over this point )
F120.00000
X64.20754 Y30.28000
X65.54925 Y30.28109
X65.72745 Y30.30421
X65.85877 Y30.34685
X66.01656 Y30.43291
X66.18094 Y30.58094
X66.28300 Y30.72882
X66.35206 Y30.89473
X66.38514 Y31.07136
X66.38077 Y31.25097
X66.34665 Y31.40624
X66.27350 Y31.57057
X66.15295 Y31.73090
X66.01656 Y31.84784
X65.87835 Y31.92638
X65.68661 Y31.98523
X65.52834 Y32.00080
X64.18661 Y31.99968
X64.04933 Y31.98523
X63.87716 Y31.93390
X63.71938 Y31.84784
X63.55502 Y31.69984
X63.46243 Y31.57060
X63.38928 Y31.40624
X63.35078 Y31.20941
X63.35189 Y31.05043
X63.38928 Y30.87449
X63.47384 Y30.69265
X63.56817 Y30.56463
X63.68557 Y30.45747
X63.87716 Y30.34685
X64.04938 Y30.29552
X64.20754 Y30.28000
G04 P0 ( dwell for no time -- G64 should not smooth over this point )
G00 Z1.50000 ( retract )

G00 X72.06546 Y35.41080 ( rapid move to begin. )
F60.00000
G01 Z-0.05000
G04 P0 ( dwell for no time -- G64 should not smooth over this point )
F120.00000
X72.06546 Y35.41080
X72.24743 Y35.33813
X72.46661 Y35.30620
X72.71817 Y35.33541
X72.91007 Y35.41080
X77.14635 Y35.41080
X77.32928 Y35.33772
X77.46365 Y35.31199
X77.69652 Y35.31486
X77.86997 Y35.35708
X78.03512 Y35.43409
X78.17960 Y35.54037
X78.29926 Y35.67107
X78.39202 Y35.82358
X78.45346 Y35.99142
X78.48110 Y36.16830
X78.47401 Y36.34532
X78.39588 Y36.60907
X78.31945 Y36.74174
X78.20848 Y36.87328
X77.98422 Y37.03480
X77.84295 Y37.09271
X77.67356 Y37.12891
X77.43690 Y37.12538
X77.31178 Y37.09820
X77.14590 Y37.03000
X72.91040 Y37.03000
X72.72848 Y37.10264
X72.48172 Y37.13480
X72.25774 Y37.10536
X72.06590 Y37.03000
X65.80927 Y37.03000
X65.68661 Y37.06523
X65.52834 Y37.08080
X64.18661 Y37.07968
X64.00848 Y37.05654
X63.85761 Y37.00640
X63.71938 Y36.92784
X63.58298 Y36.81090
X63.45293 Y36.63193
X63.38928 Y36.48624
X63.35078 Y36.28941
X63.35189 Y36.13043
X63.38928 Y35.95449
X63.45293 Y35.80882
X63.56817 Y35.64463
X63.68557 Y35.53747
X63.85761 Y35.43435
X64.00848 Y35.38421
X64.18666 Y35.36109
X65.52834 Y35.36000
X65.68656 Y35.37552
X65.80932 Y35.41080
X72.06546 Y35.41080
G04 P0 ( dwell for no time -- G64 should not smooth over this point )
G00 Z1.50000 ( retract )

G00 X72.06546 Y22.71080 ( rapid move to begin. )
F60.00000
G01 Z-0.05000
G04 P0 ( dwell for no time -- G64 should not smooth over this point )
F120.00000
X72.06546 Y22.71080
X72.24743 Y22.63813
X72.49419 Y22.60597
X72.71817 Y22.63541
X72.91007 Y22.71080
X76.75834 Y22.71080
X76.75834 Y12.37127
X76.72311 Y12.24862
X76.70866 Y12.11133
X76.72311 Y11.93216
X76.78196 Y11.74041
X76.88506 Y11.56840
X77.00851 Y11.43785
X77.15641 Y11.33577
X77.30211 Y11.27211
X77.49893 Y11.23363
X77.67853 Y11.23800
X77.81359 Y11.26670
X77.97950 Y11.33577
X78.14366 Y11.45101
X78.27541 Y11.60221
X78.35397 Y11.74044
X78.40411 Y11.89131
X78.42834 Y12.09037
X78.41280 Y12.24862
X78.37754 Y12.37125
X78.37754 Y23.52040
X78.35725 Y23.69734
X78.30757 Y23.84796
X78.25123 Y23.95334
X78.12590 Y24.10602
X78.00094 Y24.20363
X77.89555 Y24.25997
X77.74493 Y24.30965
X77.56794 Y24.33000
X72.91040 Y24.33000
X72.72848 Y24.40264
X72.48172 Y24.43480
X72.25774 Y24.40536
X72.06590 Y24.33000
X69.48754 Y24.33000
X69.48754 Y33.68040
X69.46725 Y33.85734
X69.41757 Y34.00796
X69.36123 Y34.11334
X69.26362 Y34.23831
X69.11094 Y34.36363
X69.00555 Y34.41997
X68.85493 Y34.46965
X68.67794 Y34.49000
X65.80927 Y34.49000
X65.68661 Y34.52523
X65.52834 Y34.54080
X64.20754 Y34.54080
X64.00848 Y34.51654
X63.85761 Y34.46640
X63.71938 Y34.38784
X63.58298 Y34.27090
X63.45293 Y34.09193
X63.38928 Y33.94624
X63.35517 Y33.79097
X63.35189 Y33.59043
X63.39677 Y33.39493
X63.45293 Y33.26882
X63.55499 Y33.12094
X63.68557 Y32.99747
X63.87716 Y32.88685
X64.04938 Y32.83552
X64.20754 Y32.82000
X65.52834 Y32.82000
X65.68656 Y32.83552
X65.80932 Y32.87080
X67.86834 Y32.87080
X67.86834 Y24.33000
X65.80927 Y24.33000
X65.68661 Y24.36523
X65.52834 Y24.38080
X64.20754 Y24.38080
X64.00848 Y24.35654
X63.85761 Y24.30640
X63.68557 Y24.20328
X63.58298 Y24.11090
X63.47386 Y23.96815
X63.39677 Y23.80579
X63.35517 Y23.63097
X63.35189 Y23.43043
X63.38928 Y23.25449
X63.47384 Y23.07265
X63.58298 Y22.92985
X63.68557 Y22.83747
X63.83894 Y22.74387
X64.00848 Y22.68421
X64.20754 Y22.66000
X65.52834 Y22.66000
X65.68656 Y22.67552
X65.80932 Y22.71080
X72.06546 Y22.71080
G04 P0 ( dwell for no time -- G64 should not smooth over this point )
G00 Z1.50000 ( retract )

G00 X64.44554 Y5.28000 ( rapid move to begin. )
F60.00000
G01 Z-0.05000
G04 P0 ( dwell for no time -- G64 should not smooth over this point )
F120.00000
X64.44554 Y5.28000
X39.80327 Y5.28000
X35.25832 Y9.82495
X35.19754 Y9.97163
X35.19754 Y18.89028
X35.27153 Y19.11391
X35.28794 Y19.28035
X35.27153 Y19.44682
X35.20062 Y19.66509
X35.10288 Y19.82561
X34.99018 Y19.94919
X34.85548 Y20.04837
X34.68563 Y20.12879
X34.48202 Y20.17542
X34.29389 Y20.17542
X34.13006 Y20.14172
X33.92043 Y20.04837
X33.78576 Y19.94919
X33.67303 Y19.82561
X33.56577 Y19.64642
X33.50438 Y19.44682
X33.48797 Y19.28035
X33.51306 Y19.07306
X33.57834 Y18.89036
X33.57834 Y9.97410
X33.51865 Y9.83455
X33.47735 Y9.63524
X33.47834 Y9.45525
X33.52135 Y9.25815
X33.60964 Y9.07016
X33.73923 Y8.90577
X33.93364 Y8.75678
X34.11421 Y8.67921
X38.89550 Y3.89791
X39.00241 Y3.80891
X39.14038 Y3.73078
X39.29103 Y3.68110
X39.46794 Y3.66080
X64.44348 Y3.66080
X64.64717 Y3.58282
X64.89517 Y3.55618
X65.09156 Y3.58353
X65.26019 Y3.64414
X65.41468 Y3.73718
X65.54732 Y3.85801
X65.65334 Y4.00164
X65.72959 Y4.16362
X65.77294 Y4.33802
X65.78138 Y4.51716
X65.75481 Y4.69400
X65.69420 Y4.86263
X65.60116 Y5.01711
X65.48034 Y5.14975
X65.33294 Y5.25777
X65.12497 Y5.34794
X64.97356 Y5.37870
X64.74940 Y5.37710
X64.60150 Y5.34515
X64.44554 Y5.28000
G04 P0 ( dwell for no time -- G64 should not smooth over this point )
G00 Z1.50000 ( retract )

G00 X67.07266 Y1.47000 ( rapid move to begin. )
F60.00000
G01 Z-0.05000
G04 P0 ( dwell for no time -- G64 should not smooth over this point )
F120.00000
X67.07266 Y1.47000
X11.06754 Y1.47000
X11.06754 Y21.44080
X16.60794 Y21.44080
X16.74650 Y21.45345
X16.89928 Y21.49577
X17.04094 Y21.56711
X17.18043 Y21.67791
X19.73443 Y24.23345
X19.83499 Y24.36294
X19.89508 Y24.48065
X19.94314 Y24.64275
X19.95754 Y24.79040
X19.95754 Y31.56455
X20.15833 Y31.62435
X20.29656 Y31.70291
X20.44776 Y31.83466
X20.56300 Y31.99882
X20.62665 Y32.14449
X20.66514 Y32.34136
X20.66514 Y32.47941
X20.63206 Y32.65602
X20.56300 Y32.82193
X20.46092 Y32.96984
X20.33036 Y33.09328
X20.15835 Y33.19638
X20.00745 Y33.24654
X19.80834 Y33.27080
X18.48754 Y33.27080
X18.28848 Y33.24654
X18.13761 Y33.19640
X17.99938 Y33.11784
X17.83502 Y32.96984
X17.74243 Y32.84060
X17.67677 Y32.69579
X17.63517 Y32.52097
X17.63189 Y32.32043
X17.66928 Y32.14449
X17.75384 Y31.96265
X17.84817 Y31.83463
X17.99938 Y31.70291
X18.13761 Y31.62435
X18.33834 Y31.56458
X18.33834 Y25.12568
X16.27266 Y23.06000
X11.06754 Y23.06000
X11.06754 Y23.88842
X11.15860 Y23.89909
X11.33980 Y23.95797
X11.52101 Y24.06637
X11.64633 Y24.18067
X11.74689 Y24.31725
X11.82827 Y24.48923
X11.87646 Y24.71605
X11.87209 Y24.90627
X11.83577 Y25.07193
X11.75830 Y25.24597
X11.65951 Y25.38382
X11.52101 Y25.51438
X11.35845 Y25.61328
X11.13795 Y25.68494
X10.96914 Y25.70160
X9.54674 Y25.70160
X9.33709 Y25.67625
X9.13450 Y25.60000
X2.30927 Y25.60000
X2.18661 Y25.63523
X2.02834 Y25.65080
X0.68661 Y25.64968
X0.54933 Y25.63523
X0.37716 Y25.58390
X0.18557 Y25.47328
X0.08298 Y25.38090
X-0.02614 Y25.23815
X-0.11072 Y25.05624
X-0.14922 Y24.85941
X-0.14811 Y24.70043
X-0.11072 Y24.52449
X-0.02616 Y24.34265
X0.06817 Y24.21463
X0.21938 Y24.08291
X0.35761 Y24.00435
X0.54938 Y23.94552
X0.70754 Y23.93000
X2.02834 Y23.93000
X2.18656 Y23.94552
X2.30932 Y23.98080
X9.13435 Y23.98080
X9.33709 Y23.90450
X9.44834 Y23.88845
X9.44834 Y0.66040
X9.46107 Y0.52179
X9.50336 Y0.36906
X9.59650 Y0.19482
X9.70003 Y0.07473
X9.82500 Y-0.02289
X9.93038 Y-0.07922
X10.08101 Y-0.12890
X10.25794 Y-0.14920
X67.40794 Y-0.14920
X67.54650 Y-0.13655
X67.69928 Y-0.09423
X67.84094 Y-0.02289
X67.96590 Y0.07473
X70.28332 Y2.39080
X82.64794 Y2.39080
X82.80598 Y2.40655
X82.90801 Y2.43388
X83.13212 Y2.55173
X83.30890 Y2.73317
X83.42092 Y2.96024
X83.45754 Y3.20040
X83.45754 Y52.73040
X83.44489 Y52.86891
X83.40258 Y53.02169
X83.30943 Y53.19593
X83.23362 Y53.28831
X83.11352 Y53.39184
X82.93928 Y53.48498
X82.78655 Y53.52727
X82.64794 Y53.54000
X81.00992 Y53.54000
X80.99928 Y53.63098
X80.94040 Y53.81219
X80.85653 Y53.95961
X80.71769 Y54.11874
X80.54492 Y54.24020
X80.38955 Y54.30817
X80.20322 Y54.34777
X80.03362 Y54.34889
X79.82641 Y54.30817
X79.67101 Y54.24020
X79.48346 Y54.10393
X79.35940 Y53.95961
X79.27553 Y53.81219
X79.22209 Y53.65125
X79.19674 Y53.44160
X79.19674 Y52.01920
X79.21341 Y51.85039
X79.27556 Y51.64854
X79.35940 Y51.50114
X79.49827 Y51.34201
X79.65237 Y51.23005
X79.82641 Y51.15258
X80.03362 Y51.11189
X80.22387 Y51.11626
X80.38955 Y51.15258
X80.58109 Y51.24145
X80.71767 Y51.34201
X80.83197 Y51.46733
X80.94038 Y51.64854
X80.99925 Y51.82974
X81.00990 Y51.92080
X81.83834 Y51.92080
X81.83834 Y4.01000
X78.37754 Y4.01000
X78.37754 Y6.58551
X78.44267 Y6.74304
X78.47576 Y6.89872
X78.48122 Y7.06074
X78.45798 Y7.22119
X78.40784 Y7.37260
X78.33121 Y7.51439
X78.23068 Y7.64078
X78.11000 Y7.74710
X77.88209 Y7.86940
X77.72674 Y7.91116
X77.56677 Y7.92503
X77.40447 Y7.91032
X77.24854 Y7.86745
X77.11681 Y7.80603
X76.98285 Y7.71342
X76.80848 Y7.52008
X76.73012 Y7.37730
X76.67899 Y7.22564
X76.65489 Y7.06427
X76.65936 Y6.90535
X76.69207 Y6.74695
X76.75834 Y6.58559
X76.75834 Y4.01000
X70.75754 Y4.01000
X70.75754 Y20.98040
X70.74489 Y21.11891
X70.70258 Y21.27169
X70.60943 Y21.44593
X70.50590 Y21.56602
X70.41352 Y21.64184
X70.23928 Y21.73498
X70.08655 Y21.77727
X69.94794 Y21.79000
X65.80927 Y21.79000
X65.68661 Y21.82523
X65.52834 Y21.84080
X64.20754 Y21.84080
X64.00848 Y21.81654
X63.85761 Y21.76640
X63.71938 Y21.68784
X63.55502 Y21.53984
X63.46243 Y21.41060
X63.39677 Y21.26579
X63.35078 Y21.04941
X63.35517 Y20.86978
X63.38928 Y20.71449
X63.45293 Y20.56882
X63.56817 Y20.40463
X63.71938 Y20.27291
X63.85761 Y20.19435
X64.00848 Y20.14421
X64.20754 Y20.12000
X65.52834 Y20.12000
X65.68656 Y20.13552
X65.80932 Y20.17080
X69.13834 Y20.17080
X69.13834 Y17.98000
X65.29004 Y17.98000
X65.09817 Y18.05536
X64.84661 Y18.08457
X64.62743 Y18.05264
X64.44554 Y17.98000
X63.59794 Y17.98000
X63.45939 Y17.96727
X63.30666 Y17.92498
X63.16500 Y17.85363
X63.02550 Y17.74284
X59.45266 Y14.17000
X57.67235 Y14.17000
X57.55488 Y14.22197
X57.40182 Y14.26197
X57.29321 Y14.27389
X57.11581 Y14.26540
X56.86682 Y14.19182
X56.65333 Y14.05534
X56.48650 Y13.86708
X56.37624 Y13.63729
X56.34032 Y13.47346
X56.33512 Y13.30305
X56.37164 Y13.09964
X56.43913 Y12.93409
X56.51878 Y12.80879
X56.70591 Y12.62410
X56.83176 Y12.54630
X57.00004 Y12.48034
X57.19727 Y12.44712
X57.35267 Y12.45174
X57.52094 Y12.48740
X57.67319 Y12.55080
X59.78794 Y12.55080
X59.96493 Y12.57110
X60.11555 Y12.62078
X60.22094 Y12.67711
X60.36043 Y12.78791
X63.93332 Y16.36080
X64.44546 Y16.36080
X64.62743 Y16.28813
X64.87419 Y16.25597
X65.09817 Y16.28541
X65.29007 Y16.36080
X69.13834 Y16.36080
X69.13834 Y3.53568
X67.07266 Y1.47000
G04 P0 ( dwell for no time -- G64 should not smooth over this point )
G00 Z1.50000 ( retract )

G00 X76.66601 Y53.54000 ( rapid move to begin. )
F60.00000
G01 Z-0.05000
G04 P0 ( dwell for no time -- G64 should not smooth over this point )
F120.00000
X76.66601 Y53.54000
X61.05794 Y53.54000
X60.88101 Y53.51965
X60.73038 Y53.46997
X60.62500 Y53.41363
X60.47232 Y53.28831
X60.37471 Y53.16334
X60.31837 Y53.05796
X60.26869 Y52.90734
X60.24834 Y52.73040
X60.24834 Y37.03000
X58.18927 Y37.03000
X58.06661 Y37.06523
X57.90834 Y37.08080
X56.58754 Y37.08080
X56.42933 Y37.06523
X56.21894 Y36.99688
X56.06557 Y36.90328
X55.93502 Y36.77984
X55.84243 Y36.65060
X55.76928 Y36.48624
X55.73078 Y36.28941
X55.73189 Y36.13043
X55.77677 Y35.93493
X55.85384 Y35.77265
X55.94817 Y35.64463
X56.06557 Y35.53747
X56.21894 Y35.44387
X56.42938 Y35.37552
X56.58754 Y35.36000
X57.90834 Y35.36000
X58.06656 Y35.37552
X58.18932 Y35.41080
X60.24834 Y35.41080
X60.24834 Y29.87040
X60.26871 Y29.69336
X60.31840 Y29.54282
X60.37473 Y29.43741
X60.48550 Y29.29791
X61.75550 Y28.02791
X61.89500 Y27.91711
X62.00038 Y27.86078
X62.15103 Y27.81110
X62.32794 Y27.79080
X63.92652 Y27.79080
X64.04938 Y27.75552
X64.20754 Y27.74000
X65.52834 Y27.74000
X65.68656 Y27.75552
X65.89700 Y27.82387
X66.05036 Y27.91747
X66.18094 Y28.04094
X66.28300 Y28.18882
X66.34665 Y28.33449
X66.38077 Y28.48978
X66.38514 Y28.66941
X66.34665 Y28.86624
X66.26207 Y29.04815
X66.15295 Y29.19090
X66.05036 Y29.28328
X65.85877 Y29.39390
X65.68661 Y29.44523
X65.52834 Y29.46080
X64.20754 Y29.46080
X64.04933 Y29.44523
X63.92677 Y29.41000
X62.66327 Y29.41000
X61.86754 Y30.20573
X61.86754 Y51.92080
X76.66599 Y51.92080
X76.68209 Y51.80950
X76.75834 Y51.60691
X76.75834 Y49.34483
X76.68689 Y49.16592
X76.65626 Y48.99355
X76.65895 Y48.81921
X76.69545 Y48.64605
X76.76558 Y48.48136
X76.86632 Y48.33369
X76.99405 Y48.20823
X77.08387 Y48.14438
X77.24508 Y48.06465
X77.41785 Y48.01817
X77.59659 Y48.00623
X77.75524 Y48.02515
X77.89542 Y48.06678
X78.03393 Y48.13379
X78.15849 Y48.22243
X78.26703 Y48.33117
X78.35524 Y48.45555
X78.42181 Y48.59360
X78.47040 Y48.77384
X78.48237 Y48.92352
X78.47294 Y49.05144
X78.44577 Y49.17656
X78.37754 Y49.34250
X78.37754 Y51.60675
X78.45925 Y51.82974
X78.47914 Y52.01920
X78.47914 Y53.44160
X78.45928 Y53.63098
X78.40040 Y53.81219
X78.31653 Y53.95961
X78.16139 Y54.13192
X78.00492 Y54.24020
X77.84955 Y54.30817
X77.66322 Y54.34777
X77.49362 Y54.34889
X77.26685 Y54.30068
X77.11237 Y54.23070
X76.95827 Y54.11874
X76.84397 Y53.99342
X76.73553 Y53.81219
X76.68209 Y53.65125
X76.66601 Y53.54000

G04 P0 ( dwell for no time -- G64 should not smooth over this point )
G00 Z10.000 ( retract )

M5 ( Spindle off. )
M9 ( Coolant off. )
M2 ( Program end. )

