( pcb2gcode 1.3.2 )
( Software-independent Gcode )

G94 ( Millimeters per minute feed rate. )
G21 ( Units == Millimeters. )

G90 ( Absolute coordinates. )
S10000 ( RPM spindle speed. )
G64 P0.01000 ( set maximum deviation from commanded toolpath )
F120.00000 ( Feedrate. )

F120.00000 ( Feedrate. )
M3 ( Spindle on clockwise. )
G04 P0 ( dwell for no time -- G64 should not smooth over this point )
G00 Z1.50000 ( retract )

G00 X9.08401 Y28.34000 ( rapid move to begin. )
F60.00000
G01 Z-0.05000
G04 P0 ( dwell for no time -- G64 should not smooth over this point )
F120.00000
X9.08401 Y28.34000
X2.34091 Y28.34000
X2.20754 Y28.37414
X2.02834 Y28.39080
X0.70754 Y28.39080
X0.52840 Y28.37414
X0.27628 Y28.29911
X0.11938 Y28.21104
X-0.05085 Y28.06951
X-0.18793 Y27.89573
X-0.31176 Y27.61760
X-0.34922 Y27.39941
X-0.34046 Y27.17820
X-0.30091 Y27.00266
X-0.22977 Y26.83746
X-0.08044 Y26.62083
X0.05174 Y26.49885
X0.31539 Y26.34663
X0.52847 Y26.28661
X0.66576 Y26.27219
X2.02834 Y26.27000
X2.20746 Y26.28661
X2.34099 Y26.32080
X9.08766 Y26.32080
X9.31578 Y26.24343
X9.54674 Y26.21920
X11.01090 Y26.22139
X11.20018 Y26.24343
X11.43206 Y26.32080
X13.59591 Y26.32080
X13.76159 Y26.25880
X13.90460 Y26.22791
X14.07980 Y26.21595
X14.22461 Y26.22695
X14.43464 Y26.27795
X14.59974 Y26.35095
X14.72484 Y26.43005
X14.86042 Y26.54673
X14.95806 Y26.65971
X15.05407 Y26.81110
X15.11447 Y26.94711
X15.16238 Y27.11973
X15.18242 Y27.33718
X15.15966 Y27.55458
X15.08783 Y27.77841
X15.00137 Y27.93837
X14.80591 Y28.16482
X14.65938 Y28.27434
X14.43500 Y28.38211
X14.25717 Y28.42814
X14.07894 Y28.44447
X13.91785 Y28.43433
X13.75753 Y28.40040
X13.59776 Y28.34000
X11.42815 Y28.34000
X11.24064 Y28.40647
X11.01098 Y28.43939
X9.54674 Y28.44160
X9.27529 Y28.40647
X9.08401 Y28.34000
G04 P0 ( dwell for no time -- G64 should not smooth over this point )
G00 Z1.50000 ( retract )

G00 X20.67837 Y31.80997 ( rapid move to begin. )
F60.00000
G01 Z-0.05000
G04 P0 ( dwell for no time -- G64 should not smooth over this point )
F120.00000
X20.67837 Y31.80997
X20.74288 Y32.06984
X20.77174 Y32.34136
X20.75386 Y32.68190
X20.69247 Y32.96742
X20.62272 Y33.08741
X20.46420 Y33.24189
X20.20054 Y33.39412
X19.98754 Y33.45414
X19.80834 Y33.47080
X18.48754 Y33.47080
X18.30840 Y33.45414
X18.05628 Y33.37911
X17.89938 Y33.29104
X17.72915 Y33.14951
X17.56926 Y32.94060
X17.47906 Y32.73803
X17.43078 Y32.47941
X17.43954 Y32.25820
X17.47909 Y32.08266
X17.55023 Y31.91746
X17.69956 Y31.70083
X17.89938 Y31.52971
X18.05628 Y31.44162
X18.13834 Y31.41269
X18.13834 Y25.20853
X16.18981 Y23.26000
X11.26754 Y23.26000
X11.26754 Y23.72302
X11.42114 Y23.77524
X11.65482 Y23.91773
X11.79497 Y24.04684
X11.90871 Y24.19972
X12.03681 Y24.48745
X12.06772 Y24.63289
X12.07646 Y24.86472
X12.01097 Y25.17285
X11.90869 Y25.38110
X11.79497 Y25.53391
X11.65482 Y25.66302
X11.45845 Y25.78649
X11.15886 Y25.88384
X10.96914 Y25.90160
X9.54674 Y25.90160
X9.27529 Y25.86647
X9.08401 Y25.80000
X2.34091 Y25.80000
X2.20754 Y25.83414
X2.02834 Y25.85080
X0.66568 Y25.84859
X0.52840 Y25.83414
X0.31539 Y25.77412
X0.05174 Y25.62189
X-0.10678 Y25.46741
X-0.18793 Y25.35573
X-0.30094 Y25.11803
X-0.34922 Y24.85941
X-0.34046 Y24.63820
X-0.30091 Y24.46266
X-0.18796 Y24.22510
X-0.08044 Y24.08083
X0.11938 Y23.90971
X0.27628 Y23.82162
X0.52847 Y23.74661
X0.70754 Y23.73000
X2.02834 Y23.73000
X2.20746 Y23.74661
X2.34099 Y23.78080
X9.08766 Y23.78080
X9.24834 Y23.72304
X9.24834 Y0.66040
X9.27730 Y0.42537
X9.34199 Y0.23851
X9.39833 Y0.13312
X9.57316 Y-0.07988
X9.73071 Y-0.19926
X9.83610 Y-0.25560
X10.02297 Y-0.32029
X10.25794 Y-0.34920
X67.40794 Y-0.34920
X67.56608 Y-0.33558
X67.75732 Y-0.28562
X67.93522 Y-0.19926
X68.09278 Y-0.07988
X70.36618 Y2.19080
X82.66882 Y2.19133
X82.83727 Y2.20901
X82.97967 Y2.24716
X83.22409 Y2.37170
X83.41190 Y2.54079
X83.56122 Y2.77076
X83.63062 Y2.97015
X83.65754 Y3.20040
X83.65754 Y52.73040
X83.62864 Y52.96538
X83.56394 Y53.15224
X83.50761 Y53.25763
X83.33278 Y53.47063
X83.17522 Y53.59001
X83.06984 Y53.64635
X82.88297 Y53.71104
X82.64794 Y53.74000
X81.17533 Y53.74000
X81.12310 Y53.89354
X80.98061 Y54.12722
X80.85150 Y54.26735
X80.69862 Y54.38112
X80.41089 Y54.50921
X80.18229 Y54.54889
X80.03362 Y54.54889
X79.76461 Y54.49839
X79.58966 Y54.42290
X79.33482 Y54.23774
X79.18620 Y54.05961
X79.09283 Y53.89354
X79.03187 Y53.71305
X78.99674 Y53.44160
X78.99674 Y52.01920
X79.03187 Y51.74770
X79.09283 Y51.56718
X79.23533 Y51.33353
X79.36443 Y51.19337
X79.51724 Y51.07965
X79.76461 Y50.96236
X79.95049 Y50.92062
X80.18229 Y50.91189
X80.45135 Y50.96236
X80.69862 Y51.07963
X80.88112 Y51.22301
X81.02973 Y51.40114
X81.12310 Y51.56721
X81.17530 Y51.72080
X81.63834 Y51.72080
X81.63834 Y4.21000
X78.57754 Y4.21000
X78.57754 Y6.53862
X78.64173 Y6.71157
X78.67729 Y6.90258
X78.67889 Y7.10016
X78.64564 Y7.29473
X78.57985 Y7.47761
X78.48196 Y7.64819
X78.38021 Y7.77359
X78.23401 Y7.90402
X78.12197 Y7.97751
X77.94429 Y8.05950
X77.75461 Y8.10920
X77.55956 Y8.12490
X77.36195 Y8.10575
X77.20548 Y8.06435
X77.02441 Y7.98340
X76.90988 Y7.90994
X76.76243 Y7.78068
X76.65875 Y7.65503
X76.55880 Y7.48350
X76.49174 Y7.30024
X76.45735 Y7.10413
X76.45789 Y6.91040
X76.49279 Y6.71667
X76.55834 Y6.53872
X76.55834 Y4.21000
X70.95754 Y4.21000
X70.95754 Y20.98040
X70.94393 Y21.13852
X70.89397 Y21.32973
X70.80761 Y21.50763
X70.63278 Y21.72063
X70.47522 Y21.84001
X70.36984 Y21.89635
X70.10618 Y21.97631
X69.94794 Y21.99000
X65.84091 Y21.99000
X65.70754 Y22.02414
X65.52834 Y22.04080
X64.20754 Y22.04080
X63.94671 Y22.00676
X63.77628 Y21.94911
X63.61938 Y21.86104
X63.39322 Y21.65741
X63.28926 Y21.51060
X63.19906 Y21.30803
X63.15954 Y21.13255
X63.15078 Y20.91136
X63.19909 Y20.65266
X63.31204 Y20.41510
X63.41956 Y20.27083
X63.55174 Y20.14885
X63.81539 Y19.99663
X64.02847 Y19.93661
X64.20754 Y19.92000
X65.52834 Y19.92000
X65.70746 Y19.93661
X65.84099 Y19.97080
X68.93834 Y19.97080
X68.93834 Y18.18000
X65.33893 Y18.18000
X65.13797 Y18.25137
X64.98580 Y18.27832
X64.83129 Y18.28399
X64.58516 Y18.24812
X64.39677 Y18.18000
X63.55867 Y18.17804
X63.36297 Y18.15104
X63.24862 Y18.11637
X63.07071 Y18.03001
X62.88408 Y17.88427
X59.36981 Y14.37000
X57.71980 Y14.37000
X57.51147 Y14.44328
X57.29547 Y14.47389
X57.07931 Y14.46205
X56.87332 Y14.41006
X56.68658 Y14.32321
X56.54660 Y14.22657
X56.39907 Y14.08260
X56.28119 Y13.91493
X56.21891 Y13.78844
X56.15783 Y13.59240
X56.13524 Y13.42415
X56.14259 Y13.21770
X56.17672 Y13.05484
X56.23938 Y12.88740
X56.32907 Y12.73068
X56.44256 Y12.59081
X56.57738 Y12.47087
X56.72963 Y12.37435
X56.95803 Y12.28481
X57.11922 Y12.25326
X57.27487 Y12.24615
X57.49572 Y12.27369
X57.71932 Y12.35080
X59.78794 Y12.35080
X60.02297 Y12.37971
X60.20984 Y12.44440
X60.31522 Y12.50074
X60.50186 Y12.64648
X64.01618 Y16.16080
X64.39667 Y16.16080
X64.68019 Y16.07210
X64.88643 Y16.05636
X65.13797 Y16.08940
X65.33896 Y16.16080
X68.93834 Y16.16080
X68.93834 Y3.61853
X66.98981 Y1.67000
X11.26754 Y1.67000
X11.26754 Y21.24080
X16.60794 Y21.24080
X16.76608 Y21.25442
X16.95732 Y21.30438
X17.13522 Y21.39074
X17.32186 Y21.53648
X19.88985 Y24.10757
X20.01076 Y24.26752
X20.08530 Y24.41887
X20.14205 Y24.62187
X20.15754 Y24.79040
X20.15754 Y31.41266
X20.27700 Y31.46067
X20.46420 Y31.57885
X20.59640 Y31.70083
X20.67837 Y31.80997
G04 P0 ( dwell for no time -- G64 should not smooth over this point )
G00 Z1.50000 ( retract )

G00 X20.67834 Y33.01091 ( rapid move to begin. )
F60.00000
G01 Z-0.05000
G04 P0 ( dwell for no time -- G64 should not smooth over this point )
F120.00000
X20.67834 Y33.01091
X20.74291 Y32.75089
X20.77174 Y32.47941
X20.75386 Y32.13885
X20.67834 Y31.80987
X20.67834 Y10.02099
X20.60458 Y9.81050
X20.57857 Y9.65317
X20.57458 Y9.50057
X20.60682 Y9.27976
X20.68279 Y9.06902
X20.79973 Y8.87725
X20.95190 Y8.71355
X21.13435 Y8.58312
X21.33803 Y8.49226
X21.55622 Y8.44372
X21.74001 Y8.43712
X21.94547 Y8.46602
X22.14077 Y8.53199
X22.32246 Y8.63410
X22.47976 Y8.76602
X22.61083 Y8.92551
X22.71032 Y9.10664
X22.77488 Y9.30387
X22.80171 Y9.50895
X22.79701 Y9.65705
X22.77064 Y9.81326
X22.69754 Y10.02132
X22.69754 Y34.95040
X22.68393 Y35.10852
X22.60394 Y35.37224
X22.54761 Y35.47763
X22.42823 Y35.63518
X22.28040 Y35.76645
X22.10984 Y35.86635
X21.84618 Y35.94631
X21.68794 Y35.96000
X20.12091 Y35.96000
X19.98754 Y35.99414
X19.80834 Y36.01080
X18.44568 Y36.00859
X18.22671 Y35.97676
X18.05628 Y35.91911
X17.83174 Y35.78189
X17.67322 Y35.62741
X17.56926 Y35.48060
X17.47906 Y35.27803
X17.43954 Y35.10255
X17.43078 Y34.88136
X17.47909 Y34.62266
X17.55023 Y34.45746
X17.69956 Y34.24083
X17.83174 Y34.11885
X18.09539 Y33.96663
X18.30847 Y33.90661
X18.44576 Y33.89219
X19.80834 Y33.89000
X19.98746 Y33.90661
X20.12099 Y33.94080
X20.67834 Y33.94080
X20.67834 Y33.01091
G04 P0 ( dwell for no time -- G64 should not smooth over this point )
G00 Z1.50000 ( retract )

G00 X18.17487 Y36.48080 ( rapid move to begin. )
F60.00000
G01 Z-0.05000
G04 P0 ( dwell for no time -- G64 should not smooth over this point )
F120.00000
X18.17487 Y36.48080
X18.30847 Y36.44661
X18.48754 Y36.43000
X19.85015 Y36.43219
X19.98746 Y36.44661
X20.20054 Y36.50663
X20.39656 Y36.60971
X20.62274 Y36.81339
X20.74570 Y36.99746
X20.82770 Y37.20315
X20.86513 Y37.42136
X20.85640 Y37.64255
X20.81687 Y37.81803
X20.72670 Y38.02060
X20.56679 Y38.22951
X20.39656 Y38.37104
X20.27700 Y38.44008
X20.06923 Y38.51676
X19.80834 Y38.55080
X18.48754 Y38.55080
X18.30840 Y38.53414
X18.17510 Y38.50000
X2.37754 Y38.50000
X2.37754 Y49.64516
X4.45318 Y51.72080
X8.18271 Y51.72080
X8.34047 Y51.60889
X8.54873 Y51.51379
X8.81126 Y51.44905
X9.08149 Y51.44033
X9.34766 Y51.48793
X9.59813 Y51.58989
X9.82193 Y51.74168
X10.05843 Y52.00434
X10.18596 Y52.24275
X10.25464 Y52.46113
X10.28294 Y52.73037
X10.25464 Y52.99961
X10.15197 Y53.29438
X10.03562 Y53.49154
X9.88405 Y53.66314
X9.59813 Y53.87089
X9.38812 Y53.96200
X9.16465 Y54.01173
X8.89439 Y54.02047
X8.58782 Y53.96200
X8.37778 Y53.87089
X8.18276 Y53.74000
X4.03494 Y53.74000
X3.79997 Y53.71104
X3.61310 Y53.64635
X3.50771 Y53.59001
X3.32108 Y53.44427
X0.65408 Y50.77727
X0.54587 Y50.64714
X0.41534 Y50.39548
X0.37389 Y50.23198
X0.35834 Y50.06340
X0.35834 Y30.86809
X0.27628 Y30.83911
X0.11938 Y30.75104
X-0.10678 Y30.54741
X-0.21074 Y30.40060
X-0.28593 Y30.23715
X-0.34922 Y29.93941
X-0.34046 Y29.71820
X-0.28593 Y29.50357
X-0.22977 Y29.37746
X-0.10681 Y29.19339
X0.05174 Y29.03885
X0.31539 Y28.88663
X0.52847 Y28.82661
X0.66576 Y28.81219
X2.02834 Y28.81000
X2.20746 Y28.82661
X2.45969 Y28.90164
X2.68420 Y29.03885
X2.81640 Y29.16083
X2.92390 Y29.30510
X3.03687 Y29.54269
X3.07640 Y29.71820
X3.08513 Y29.93941
X3.03687 Y30.19803
X2.96570 Y30.36329
X2.84272 Y30.54741
X2.68420 Y30.70189
X2.49700 Y30.82008
X2.37754 Y30.86806
X2.37754 Y36.48080
X18.17487 Y36.48080
G04 P0 ( dwell for no time -- G64 should not smooth over this point )
G00 Z1.50000 ( retract )

G00 X45.55754 Y13.83226 ( rapid move to begin. )
F60.00000
G01 Z-0.05000
G04 P0 ( dwell for no time -- G64 should not smooth over this point )
F120.00000
X45.55754 Y13.83226
X45.55754 Y47.17943
X45.63016 Y47.38543
X45.65673 Y47.54098
X45.66168 Y47.69127
X45.63237 Y47.90763
X45.56168 Y48.11349
X45.45167 Y48.30260
X45.30720 Y48.46627
X45.13331 Y48.59879
X44.93588 Y48.69520
X44.72523 Y48.75070
X44.50756 Y48.76416
X44.29491 Y48.73579
X44.12620 Y48.68202
X43.93560 Y48.58159
X43.76865 Y48.44715
X43.63281 Y48.28652
X43.52854 Y48.10084
X43.46179 Y47.90016
X43.43410 Y47.68835
X43.43928 Y47.53981
X43.46616 Y47.38383
X43.53834 Y47.17951
X43.53834 Y13.83160
X43.44967 Y13.54816
X43.43392 Y13.34191
X43.46697 Y13.09037
X43.53715 Y12.89167
X43.64708 Y12.70427
X43.79158 Y12.54186
X43.96722 Y12.40917
X44.16397 Y12.31412
X44.37441 Y12.25949
X44.59214 Y12.24676
X44.80951 Y12.27701
X45.01665 Y12.34925
X45.20408 Y12.45951
X45.36648 Y12.60401
X45.49917 Y12.77965
X45.59422 Y12.97640
X45.64885 Y13.18684
X45.66158 Y13.40457
X45.63133 Y13.62194
X45.55754 Y13.83226
G04 P0 ( dwell for no time -- G64 should not smooth over this point )
G00 Z1.50000 ( retract )

G00 X42.42613 Y9.29000 ( rapid move to begin. )
F60.00000
G01 Z-0.05000
G04 P0 ( dwell for no time -- G64 should not smooth over this point )
F120.00000
X42.42613 Y9.29000
X39.20754 Y12.50859
X39.20754 Y27.33040
X39.19393 Y27.48852
X39.14397 Y27.67973
X39.05761 Y27.85763
X38.88278 Y28.07063
X38.72522 Y28.19001
X38.61984 Y28.24635
X38.35618 Y28.32631
X38.19794 Y28.34000
X35.39754 Y28.34000
X35.39754 Y49.18080
X44.07896 Y49.18080
X44.32846 Y49.09825
X44.50634 Y49.07719
X44.67893 Y49.08380
X44.95053 Y49.15134
X45.19681 Y49.28448
X45.40189 Y49.47453
X45.53120 Y49.66609
X45.63052 Y49.92629
X45.66216 Y50.20371
X45.62351 Y50.48171
X45.51736 Y50.73988
X45.34634 Y50.96772
X45.12564 Y51.14323
X44.86620 Y51.25827
X44.58660 Y51.30401
X44.43306 Y51.29863
X44.27936 Y51.27170
X44.07700 Y51.20000
X24.64613 Y51.20000
X22.40186 Y53.44427
X22.21520 Y53.58999
X22.03740 Y53.67632
X21.92304 Y53.71102
X21.68794 Y53.74000
X17.41317 Y53.74000
X17.25546 Y53.85186
X17.04718 Y53.94698
X16.70149 Y54.02047
X16.51439 Y54.02047
X16.24825 Y53.97284
X15.92537 Y53.82908
X15.77398 Y53.71910
X15.58666 Y53.52410
X15.44394 Y53.29438
X15.34127 Y52.99961
X15.31297 Y52.73037
X15.35212 Y52.42070
X15.44394 Y52.16639
X15.53748 Y52.00434
X15.71186 Y51.79764
X15.96047 Y51.60889
X16.24825 Y51.48793
X16.43126 Y51.44905
X16.70149 Y51.44033
X17.04721 Y51.51379
X17.21813 Y51.58989
X17.41317 Y51.72080
X21.26976 Y51.72080
X23.51408 Y49.47648
X23.70071 Y49.33074
X23.80610 Y49.27440
X23.99302 Y49.20971
X24.22794 Y49.18080
X33.37834 Y49.18080
X33.37834 Y28.34000
X27.23690 Y28.34000
X27.05034 Y28.40797
X26.87389 Y28.43931
X26.69405 Y28.44190
X26.56690 Y28.42656
X26.34780 Y28.36261
X26.14402 Y28.25382
X25.96799 Y28.10632
X25.86645 Y27.98559
X25.75062 Y27.78539
X25.68773 Y27.60452
X25.65436 Y27.37422
X25.66914 Y27.14437
X25.71095 Y26.97884
X25.78334 Y26.80950
X25.88270 Y26.65428
X26.00650 Y26.51735
X26.15039 Y26.40333
X26.31229 Y26.31394
X26.48603 Y26.25273
X26.66680 Y26.22106
X26.83688 Y26.21844
X27.00538 Y26.24193
X27.23766 Y26.32080
X33.37834 Y26.32080
X33.37834 Y23.11547
X33.30547 Y22.86777
X33.28797 Y22.68037
X33.30547 Y22.49300
X33.40209 Y22.19564
X33.52439 Y22.00133
X33.65193 Y21.86292
X33.80288 Y21.75058
X34.00890 Y21.64926
X34.31479 Y21.58423
X34.50293 Y21.58642
X34.72792 Y21.63425
X34.90069 Y21.70880
X35.09142 Y21.83658
X35.30064 Y22.06892
X35.39284 Y22.23298
X35.45307 Y22.41128
X35.48576 Y22.72226
X35.45307 Y22.94948
X35.39754 Y23.11552
X35.39754 Y26.32080
X37.18834 Y26.32080
X37.18834 Y12.09040
X37.21732 Y11.85530
X37.25202 Y11.74095
X37.33836 Y11.56315
X37.48408 Y11.37648
X41.29408 Y7.56648
X41.48071 Y7.42074
X41.58610 Y7.36440
X41.77302 Y7.29971
X42.00794 Y7.27080
X52.16794 Y7.27080
X52.32608 Y7.28442
X52.51732 Y7.33438
X52.76040 Y7.46430
X52.90823 Y7.59557
X53.02761 Y7.75312
X53.08394 Y7.85851
X53.14864 Y8.04537
X53.17754 Y8.28040
X53.17754 Y16.16080
X58.51794 Y16.16080
X58.76826 Y16.19367
X58.95675 Y16.26194
X59.10174 Y16.34828
X59.23186 Y16.45648
X61.77186 Y18.99648
X61.91761 Y19.18312
X62.00397 Y19.36102
X62.05393 Y19.55226
X62.06754 Y19.71040
X62.06754 Y24.37216
X62.74618 Y25.05080
X63.89487 Y25.05080
X64.02847 Y25.01661
X64.20754 Y25.00000
X65.52834 Y25.00000
X65.70746 Y25.01661
X65.95969 Y25.09164
X66.11656 Y25.17971
X66.31640 Y25.35083
X66.46570 Y25.56746
X66.53687 Y25.73269
X66.58513 Y25.99136
X66.57640 Y26.21255
X66.53687 Y26.38803
X66.44670 Y26.59060
X66.28679 Y26.79951
X66.11656 Y26.94104
X65.95969 Y27.02911
X65.70754 Y27.10414
X65.52834 Y27.12080
X64.20754 Y27.12080
X64.02840 Y27.10414
X63.89510 Y27.07000
X62.32794 Y27.07000
X62.16975 Y27.05631
X61.90610 Y26.97635
X61.80071 Y26.92001
X61.64316 Y26.80063
X60.34408 Y25.50427
X60.23587 Y25.37414
X60.14954 Y25.22916
X60.08126 Y25.04067
X60.05055 Y24.83226
X60.04834 Y20.12853
X58.09981 Y18.18000
X52.16794 Y18.18000
X51.93297 Y18.15104
X51.74610 Y18.08635
X51.57554 Y17.98645
X51.42771 Y17.85518
X51.30833 Y17.69763
X51.22197 Y17.51973
X51.17203 Y17.32859
X51.15834 Y17.17040
X51.15834 Y9.29000
X42.42613 Y9.29000
G04 P0 ( dwell for no time -- G64 should not smooth over this point )
G00 Z1.50000 ( retract )

G00 X57.90834 Y22.04080 ( rapid move to begin. )
F60.00000
G01 Z-0.05000
G04 P0 ( dwell for no time -- G64 should not smooth over this point )
F120.00000
X57.90834 Y22.04080
X56.58754 Y22.04080
X56.40840 Y22.02414
X56.15628 Y21.94911
X55.93174 Y21.81189
X55.77322 Y21.65741
X55.66926 Y21.51060
X55.57906 Y21.30803
X55.53078 Y21.04941
X55.53954 Y20.82820
X55.57909 Y20.65266
X55.65023 Y20.48746
X55.79956 Y20.27083
X55.93174 Y20.14885
X56.15628 Y20.01162
X56.40847 Y19.93661
X56.58754 Y19.92000
X57.90834 Y19.92000
X58.08746 Y19.93661
X58.33969 Y20.01164
X58.56420 Y20.14885
X58.69640 Y20.27083
X58.80390 Y20.41510
X58.91687 Y20.65269
X58.96513 Y20.91136
X58.95640 Y21.13255
X58.91687 Y21.30803
X58.82670 Y21.51060
X58.72272 Y21.65741
X58.49656 Y21.86104
X58.33969 Y21.94911
X58.16923 Y22.00676
X57.90834 Y22.04080
G04 P0 ( dwell for no time -- G64 should not smooth over this point )
G00 Z1.50000 ( retract )

G00 X57.90834 Y24.58080 ( rapid move to begin. )
F60.00000
G01 Z-0.05000
G04 P0 ( dwell for no time -- G64 should not smooth over this point )
F120.00000
X57.90834 Y24.58080
X56.58754 Y24.58080
X56.40840 Y24.56414
X56.15628 Y24.48911
X55.93174 Y24.35189
X55.77322 Y24.19741
X55.66926 Y24.05060
X55.57906 Y23.84803
X55.53078 Y23.58941
X55.53954 Y23.36820
X55.57909 Y23.19266
X55.65023 Y23.02746
X55.79956 Y22.81083
X55.93174 Y22.68885
X56.15628 Y22.55162
X56.40847 Y22.47661
X56.58754 Y22.46000
X57.90834 Y22.46000
X58.08746 Y22.47661
X58.33969 Y22.55164
X58.56420 Y22.68885
X58.69640 Y22.81083
X58.80390 Y22.95510
X58.91687 Y23.19269
X58.96513 Y23.45136
X58.95640 Y23.67255
X58.91687 Y23.84803
X58.82670 Y24.05060
X58.72272 Y24.19741
X58.49656 Y24.40104
X58.33969 Y24.48911
X58.16923 Y24.54676
X57.90834 Y24.58080
G04 P0 ( dwell for no time -- G64 should not smooth over this point )
G00 Z1.50000 ( retract )

G00 X56.58754 Y25.00000 ( rapid move to begin. )
F60.00000
G01 Z-0.05000
G04 P0 ( dwell for no time -- G64 should not smooth over this point )
F120.00000
X56.58754 Y25.00000
X57.90834 Y25.00000
X58.08746 Y25.01661
X58.33969 Y25.09164
X58.56420 Y25.22885
X58.69640 Y25.35083
X58.84570 Y25.56746
X58.91687 Y25.73269
X58.95640 Y25.90820
X58.96513 Y26.12941
X58.91687 Y26.38803
X58.82670 Y26.59060
X58.72272 Y26.73741
X58.56420 Y26.89189
X58.33969 Y27.02911
X58.16923 Y27.08676
X57.95023 Y27.11859
X56.58754 Y27.12080
X56.40840 Y27.10414
X56.15628 Y27.02911
X55.93174 Y26.89189
X55.77322 Y26.73741
X55.69207 Y26.62573
X55.57906 Y26.38803
X55.53954 Y26.21255
X55.53078 Y25.99136
X55.57909 Y25.73266
X55.65023 Y25.56746
X55.77319 Y25.38339
X55.99938 Y25.17971
X56.15628 Y25.09162
X56.32671 Y25.03399
X56.58754 Y25.00000
G04 P0 ( dwell for no time -- G64 should not smooth over this point )
G00 Z1.50000 ( retract )

G00 X57.90834 Y29.66080 ( rapid move to begin. )
F60.00000
G01 Z-0.05000
G04 P0 ( dwell for no time -- G64 should not smooth over this point )
F120.00000
X57.90834 Y29.66080
X56.58754 Y29.66080
X56.40840 Y29.64414
X56.15628 Y29.56911
X55.93174 Y29.43189
X55.77322 Y29.27741
X55.66926 Y29.13060
X55.57906 Y28.92803
X55.53078 Y28.66941
X55.53954 Y28.44820
X55.57909 Y28.27266
X55.65023 Y28.10746
X55.79956 Y27.89083
X55.93174 Y27.76885
X56.15628 Y27.63162
X56.40847 Y27.55661
X56.58754 Y27.54000
X57.90834 Y27.54000
X58.08746 Y27.55661
X58.33969 Y27.63164
X58.56420 Y27.76885
X58.69640 Y27.89083
X58.80390 Y28.03510
X58.91687 Y28.27269
X58.96513 Y28.53136
X58.95640 Y28.75255
X58.91687 Y28.92803
X58.82670 Y29.13060
X58.72272 Y29.27741
X58.49656 Y29.48104
X58.33969 Y29.56911
X58.16923 Y29.62676
X57.90834 Y29.66080
G04 P0 ( dwell for no time -- G64 should not smooth over this point )
G00 Z1.50000 ( retract )

G00 X56.58754 Y30.08000 ( rapid move to begin. )
F60.00000
G01 Z-0.05000
G04 P0 ( dwell for no time -- G64 should not smooth over this point )
F120.00000
X56.58754 Y30.08000
X57.90834 Y30.08000
X58.08746 Y30.09661
X58.33969 Y30.17164
X58.56420 Y30.30885
X58.69640 Y30.43083
X58.84570 Y30.64746
X58.91687 Y30.81269
X58.95640 Y30.98820
X58.96513 Y31.20941
X58.91687 Y31.46803
X58.82670 Y31.67060
X58.72272 Y31.81741
X58.56420 Y31.97189
X58.33969 Y32.10911
X58.16923 Y32.16676
X57.95023 Y32.19859
X56.58754 Y32.20080
X56.40840 Y32.18414
X56.15628 Y32.10911
X55.93174 Y31.97189
X55.77322 Y31.81741
X55.69207 Y31.70573
X55.57906 Y31.46803
X55.53954 Y31.29255
X55.53078 Y31.07136
X55.57909 Y30.81266
X55.65023 Y30.64746
X55.77319 Y30.46339
X55.99938 Y30.25971
X56.15628 Y30.17162
X56.32671 Y30.11399
X56.58754 Y30.08000
G04 P0 ( dwell for no time -- G64 should not smooth over this point )
G00 Z1.50000 ( retract )

G00 X57.90834 Y34.74080 ( rapid move to begin. )
F60.00000
G01 Z-0.05000
G04 P0 ( dwell for no time -- G64 should not smooth over this point )
F120.00000
X57.90834 Y34.74080
X56.58754 Y34.74080
X56.40840 Y34.72414
X56.15628 Y34.64911
X55.93174 Y34.51189
X55.77322 Y34.35741
X55.66926 Y34.21060
X55.57906 Y34.00803
X55.53078 Y33.74941
X55.53954 Y33.52820
X55.57909 Y33.35266
X55.65023 Y33.18746
X55.79956 Y32.97083
X55.93174 Y32.84885
X56.15628 Y32.71162
X56.40847 Y32.63661
X56.58754 Y32.62000
X57.90834 Y32.62000
X58.08746 Y32.63661
X58.33969 Y32.71164
X58.56420 Y32.84885
X58.69640 Y32.97083
X58.80390 Y33.11510
X58.91687 Y33.35269
X58.96513 Y33.61136
X58.95640 Y33.83255
X58.91687 Y34.00803
X58.82670 Y34.21060
X58.72272 Y34.35741
X58.49656 Y34.56104
X58.33969 Y34.64911
X58.16923 Y34.70676
X57.90834 Y34.74080
G04 P0 ( dwell for no time -- G64 should not smooth over this point )
G00 Z1.50000 ( retract )

G00 X64.20754 Y30.08000 ( rapid move to begin. )
F60.00000
G01 Z-0.05000
G04 P0 ( dwell for no time -- G64 should not smooth over this point )
F120.00000
X64.20754 Y30.08000
X65.52834 Y30.08000
X65.70746 Y30.09661
X65.95969 Y30.17164
X66.18420 Y30.30885
X66.31640 Y30.43083
X66.46570 Y30.64746
X66.53687 Y30.81269
X66.57640 Y30.98820
X66.58513 Y31.20941
X66.53687 Y31.46803
X66.44670 Y31.67060
X66.34272 Y31.81741
X66.18420 Y31.97189
X65.95969 Y32.10911
X65.78923 Y32.16676
X65.57023 Y32.19859
X64.20754 Y32.20080
X64.02840 Y32.18414
X63.77628 Y32.10911
X63.55174 Y31.97189
X63.39322 Y31.81741
X63.31207 Y31.70573
X63.19906 Y31.46803
X63.15954 Y31.29255
X63.15078 Y31.07136
X63.19909 Y30.81266
X63.27023 Y30.64746
X63.39319 Y30.46339
X63.61938 Y30.25971
X63.77628 Y30.17162
X63.94671 Y30.11399
X64.20754 Y30.08000
G04 P0 ( dwell for no time -- G64 should not smooth over this point )
G00 Z1.50000 ( retract )

G00 X72.01667 Y35.21080 ( rapid move to begin. )
F60.00000
G01 Z-0.05000
G04 P0 ( dwell for no time -- G64 should not smooth over this point )
F120.00000
X72.01667 Y35.21080
X72.20516 Y35.14265
X72.45129 Y35.10679
X72.60580 Y35.11245
X72.75797 Y35.13940
X72.95896 Y35.21080
X77.09802 Y35.21080
X77.26576 Y35.14809
X77.42926 Y35.11497
X77.59652 Y35.10669
X77.75593 Y35.12185
X77.96591 Y35.17938
X78.16461 Y35.27908
X78.33604 Y35.41283
X78.47769 Y35.57659
X78.58536 Y35.76546
X78.65438 Y35.97178
X78.68199 Y36.18868
X78.66753 Y36.40234
X78.61450 Y36.60366
X78.54318 Y36.75992
X78.46593 Y36.88052
X78.32669 Y37.03676
X78.19161 Y37.14407
X78.00843 Y37.24417
X77.87383 Y37.29210
X77.70398 Y37.32657
X77.55316 Y37.33447
X77.39746 Y37.32144
X77.24531 Y37.28682
X77.09700 Y37.23000
X72.95916 Y37.23000
X72.67572 Y37.31867
X72.46948 Y37.33442
X72.21794 Y37.30137
X72.01700 Y37.23000
X65.84091 Y37.23000
X65.70754 Y37.26414
X65.52834 Y37.28080
X64.16568 Y37.27859
X63.94671 Y37.24676
X63.77628 Y37.18911
X63.61938 Y37.10104
X63.44915 Y36.95951
X63.27023 Y36.71329
X63.19906 Y36.54803
X63.15954 Y36.37255
X63.15078 Y36.15136
X63.19909 Y35.89266
X63.27023 Y35.72746
X63.39319 Y35.54339
X63.55174 Y35.38885
X63.73894 Y35.27067
X64.02847 Y35.17661
X64.20754 Y35.16000
X65.52834 Y35.16000
X65.70746 Y35.17661
X65.84099 Y35.21080
X72.01667 Y35.21080
G04 P0 ( dwell for no time -- G64 should not smooth over this point )
G00 Z1.50000 ( retract )

G00 X72.01667 Y22.51080 ( rapid move to begin. )
F60.00000
G01 Z-0.05000
G04 P0 ( dwell for no time -- G64 should not smooth over this point )
F120.00000
X72.01667 Y22.51080
X72.30019 Y22.42210
X72.50643 Y22.40636
X72.75797 Y22.43940
X72.95896 Y22.51080
X76.55834 Y22.51080
X76.55834 Y12.40292
X76.52421 Y12.26955
X76.50975 Y12.13226
X76.52421 Y11.91123
X76.59924 Y11.65908
X76.68730 Y11.50221
X76.89093 Y11.27605
X77.07506 Y11.15306
X77.24031 Y11.08189
X77.49893 Y11.03363
X77.72011 Y11.04237
X77.85517 Y11.07107
X78.06085 Y11.15306
X78.27749 Y11.30237
X78.44861 Y11.50221
X78.53667 Y11.65908
X78.59433 Y11.82954
X78.62834 Y12.09037
X78.61170 Y12.26955
X78.57754 Y12.40292
X78.57754 Y23.52040
X78.54864 Y23.75538
X78.48394 Y23.94224
X78.42761 Y24.04763
X78.30823 Y24.20518
X78.09522 Y24.38001
X77.91732 Y24.46637
X77.80297 Y24.50104
X77.60724 Y24.52804
X72.95916 Y24.53000
X72.67572 Y24.61867
X72.46948 Y24.63442
X72.21794 Y24.60137
X72.01700 Y24.53000
X69.68754 Y24.53000
X69.68754 Y33.68040
X69.65864 Y33.91538
X69.59394 Y34.10224
X69.53761 Y34.20763
X69.41823 Y34.36518
X69.20522 Y34.54001
X69.02732 Y34.62637
X68.91297 Y34.66104
X68.71724 Y34.68804
X65.84091 Y34.69000
X65.70754 Y34.72414
X65.52834 Y34.74080
X64.20754 Y34.74080
X63.94671 Y34.70676
X63.77628 Y34.64911
X63.61938 Y34.56104
X63.39322 Y34.35741
X63.27023 Y34.17329
X63.18824 Y33.96760
X63.15078 Y33.74941
X63.15078 Y33.61136
X63.19909 Y33.35266
X63.31204 Y33.11510
X63.41956 Y32.97083
X63.55174 Y32.84885
X63.77628 Y32.71162
X64.02847 Y32.63661
X64.20754 Y32.62000
X65.52834 Y32.62000
X65.70746 Y32.63661
X65.84099 Y32.67080
X67.66834 Y32.67080
X67.66834 Y24.53000
X65.84091 Y24.53000
X65.70754 Y24.56414
X65.52834 Y24.58080
X64.20754 Y24.58080
X64.02840 Y24.56414
X63.81539 Y24.50412
X63.61938 Y24.40104
X63.44915 Y24.25951
X63.28926 Y24.05060
X63.19906 Y23.84803
X63.15078 Y23.58941
X63.15954 Y23.36820
X63.19909 Y23.19266
X63.31204 Y22.95510
X63.44915 Y22.78123
X63.61938 Y22.63971
X63.73894 Y22.57067
X63.94671 Y22.49399
X64.20754 Y22.46000
X65.52834 Y22.46000
X65.70746 Y22.47661
X65.84099 Y22.51080
X72.01667 Y22.51080
G04 P0 ( dwell for no time -- G64 should not smooth over this point )
G00 Z1.50000 ( retract )

G00 X64.39677 Y5.48000 ( rapid move to begin. )
F60.00000
G01 Z-0.05000
G04 P0 ( dwell for no time -- G64 should not smooth over this point )
F120.00000
X64.39677 Y5.48000
X39.88613 Y5.48000
X35.43369 Y9.93244
X35.39754 Y10.01967
X35.39754 Y18.84520
X35.47044 Y19.09298
X35.48794 Y19.28035
X35.47044 Y19.46775
X35.37382 Y19.76511
X35.25152 Y19.95942
X35.12401 Y20.09780
X34.97303 Y20.21017
X34.76701 Y20.31149
X34.50293 Y20.37433
X34.23163 Y20.36778
X34.04801 Y20.32650
X33.87522 Y20.25195
X33.62231 Y20.06818
X33.47527 Y19.89183
X33.38307 Y19.72777
X33.30547 Y19.46775
X33.28797 Y19.28035
X33.30547 Y19.09298
X33.37834 Y18.84530
X33.37834 Y10.02170
X33.30468 Y9.81197
X33.27364 Y9.56374
X33.28380 Y9.39950
X33.32925 Y9.20250
X33.43493 Y8.97278
X33.59112 Y8.77136
X33.82528 Y8.58868
X34.00725 Y8.50331
X38.75408 Y3.75648
X38.87554 Y3.65430
X39.04610 Y3.55440
X39.23302 Y3.48971
X39.46794 Y3.46080
X64.39606 Y3.46080
X64.60640 Y3.38701
X64.89349 Y3.35618
X65.14783 Y3.39161
X65.35280 Y3.46687
X65.54031 Y3.58155
X65.70083 Y3.72984
X65.82882 Y3.90571
X65.92044 Y4.10383
X65.97180 Y4.31673
X65.98056 Y4.53507
X65.94673 Y4.75026
X65.87147 Y4.95524
X65.78011 Y5.11073
X65.63723 Y5.27680
X65.46593 Y5.41086
X65.28549 Y5.50337
X65.04089 Y5.57108
X64.83129 Y5.58399
X64.58516 Y5.54812
X64.39677 Y5.48000
G04 P0 ( dwell for no time -- G64 should not smooth over this point )
G00 Z1.50000 ( retract )

G00 X76.50063 Y53.74000 ( rapid move to begin. )
F60.00000
G01 Z-0.05000
G04 P0 ( dwell for no time -- G64 should not smooth over this point )
F120.00000
X76.50063 Y53.74000
X61.05794 Y53.74000
X60.82297 Y53.71104
X60.63610 Y53.64635
X60.53071 Y53.59001
X60.37316 Y53.47063
X60.19833 Y53.25763
X60.14199 Y53.15224
X60.07730 Y52.96538
X60.04834 Y52.73040
X60.04834 Y37.23000
X58.22091 Y37.23000
X58.08754 Y37.26414
X57.90834 Y37.28080
X56.58754 Y37.28080
X56.32671 Y37.24676
X56.15628 Y37.18911
X55.99938 Y37.10104
X55.82915 Y36.95951
X55.69207 Y36.78573
X55.56824 Y36.50760
X55.53078 Y36.28941
X55.53078 Y36.15136
X55.59407 Y35.85357
X55.69204 Y35.65510
X55.79956 Y35.51083
X55.93174 Y35.38885
X56.11894 Y35.27067
X56.40847 Y35.17661
X56.58754 Y35.16000
X57.90834 Y35.16000
X58.08746 Y35.17661
X58.22099 Y35.21080
X60.04834 Y35.21080
X60.04834 Y29.87040
X60.07732 Y29.63530
X60.11202 Y29.52095
X60.19836 Y29.34315
X60.34408 Y29.15648
X61.61408 Y27.88648
X61.80071 Y27.74074
X61.90610 Y27.68440
X62.09302 Y27.61971
X62.32794 Y27.59080
X63.89487 Y27.59080
X64.02847 Y27.55661
X64.20754 Y27.54000
X65.52834 Y27.54000
X65.70746 Y27.55661
X65.99700 Y27.65067
X66.18420 Y27.76885
X66.31640 Y27.89083
X66.42390 Y28.03510
X66.52186 Y28.23357
X66.58513 Y28.53136
X66.58513 Y28.66941
X66.54770 Y28.88760
X66.44670 Y29.13060
X66.34272 Y29.27741
X66.18420 Y29.43189
X65.95969 Y29.56911
X65.70754 Y29.64414
X65.52834 Y29.66080
X64.20754 Y29.66080
X64.02840 Y29.64414
X63.89510 Y29.61000
X62.74613 Y29.61000
X62.06754 Y30.28859
X62.06754 Y51.72080
X76.50061 Y51.72080
X76.55834 Y51.55641
X76.55834 Y49.39238
X76.48651 Y49.18982
X76.45347 Y48.91118
X76.47562 Y48.69914
X76.51471 Y48.55599
X76.60569 Y48.35809
X76.73355 Y48.18154
X76.89362 Y48.03305
X77.04552 Y47.93592
X77.18163 Y47.87499
X77.39250 Y47.81977
X77.61049 Y47.80671
X77.78862 Y47.82795
X77.95468 Y47.87577
X78.12433 Y47.95538
X78.27742 Y48.06165
X78.41115 Y48.19251
X78.52047 Y48.34288
X78.60350 Y48.51001
X78.66949 Y48.75474
X78.68204 Y48.93518
X78.66901 Y49.09088
X78.63439 Y49.24303
X78.57754 Y49.39139
X78.57754 Y51.56007
X78.65491 Y51.78816
X78.67914 Y52.01920
X78.67914 Y53.44160
X78.65491 Y53.67256
X78.56408 Y53.93085
X78.44061 Y54.12722
X78.31150 Y54.26735
X78.15862 Y54.38112
X77.95047 Y54.48338
X77.64229 Y54.54889
X77.49362 Y54.54889
X77.26505 Y54.50921
X76.97724 Y54.38110
X76.82443 Y54.26735
X76.69533 Y54.12722
X76.55283 Y53.89354
X76.50063 Y53.74000

G04 P0 ( dwell for no time -- G64 should not smooth over this point )
G00 Z10.000 ( retract )

M5 ( Spindle off. )
M9 ( Coolant off. )
M2 ( Program end. )

