( PCB Contour )
( Generated by Rapid-PCB.com )
( Material Size)
( X= 100.000, Y= 70.000, Z= 1.700)
()
G00
G17
G21
G40
G49
G54
G80
G90
G94
G00 F3000 Z5.000
M03 S9000
G00 F3000 X87.451 Y48.439
G00 F1500 Z0
G01 F120 Z-0.200
G01 F120 X87.451 Y46.150
G01 F120 X88.136 Y46.150
G01 F120 X88.136 Y22.307
G01 F120 X84.622 Y22.348
G01 F120 X84.622 Y23.001
G01 F120 X82.409 Y23.001
G01 F120 X82.409 Y22.352
G01 F120 X72.227 Y22.366
G01 F120 X72.227 Y22.417
G01 F120 X72.201 Y22.417
G01 F120 X72.201 Y22.468
G01 F120 X72.176 Y22.468
G01 F120 X72.176 Y22.493
G01 F120 X72.150 Y22.493
G01 F120 X72.150 Y22.519
G01 F120 X72.125 Y22.519
G01 F120 X72.125 Y22.544
G01 F120 X72.100 Y22.544
G01 F120 X72.100 Y22.570
G01 F120 X72.074 Y22.570
G01 F120 X72.074 Y22.595
G01 F120 X72.049 Y22.595
G01 F120 X72.049 Y22.620
G01 F120 X71.998 Y22.620
G01 F120 X71.998 Y22.646
G01 F120 X71.972 Y22.646
G01 F120 X71.972 Y22.671
G01 F120 X71.922 Y22.671
G01 F120 X71.922 Y22.697
G01 F120 X71.846 Y22.697
G01 F120 X71.846 Y22.722
G01 F120 X71.719 Y22.722
G01 F120 X71.719 Y22.747
G01 F120 X69.963 Y22.747
G01 F120 X69.963 Y22.722
G01 F120 X69.836 Y22.722
G01 F120 X69.836 Y22.697
G01 F120 X69.760 Y22.697
G01 F120 X69.760 Y22.671
G01 F120 X69.709 Y22.671
G01 F120 X69.709 Y22.646
G01 F120 X69.658 Y22.646
G01 F120 X69.658 Y22.620
G01 F120 X69.633 Y22.620
G01 F120 X69.633 Y22.595
G01 F120 X69.607 Y22.595
G01 F120 X69.607 Y22.570
G01 F120 X69.582 Y22.570
G01 F120 X69.582 Y22.544
G01 F120 X69.556 Y22.544
G01 F120 X69.556 Y22.519
G01 F120 X69.531 Y22.519
G01 F120 X69.531 Y22.493
G01 F120 X69.505 Y22.493
G01 F120 X69.505 Y22.468
G01 F120 X69.480 Y22.468
G01 F120 X69.480 Y22.443
G01 F120 X69.455 Y22.443
G01 F120 X69.455 Y22.392
G01 F120 X69.429 Y22.392
G01 F120 X69.429 Y22.341
G01 F120 X69.404 Y22.341
G01 F120 X69.404 Y22.265
G01 F120 X69.379 Y22.265
G01 F120 X69.379 Y22.138
G01 F120 X69.353 Y22.138
G01 F120 X69.353 Y21.728
G01 F120 X69.379 Y21.728
G01 F120 X69.379 Y21.576
G01 F120 X69.404 Y21.576
G01 F120 X69.404 Y21.500
G01 F120 X69.429 Y21.500
G01 F120 X69.429 Y21.474
G01 F120 X69.455 Y21.474
G01 F120 X69.455 Y21.423
G01 F120 X69.480 Y21.423
G01 F120 X69.480 Y21.373
G01 F120 X69.505 Y21.373
G01 F120 X69.505 Y21.347
G01 F120 X69.531 Y21.347
G01 F120 X69.531 Y21.322
G01 F120 X69.556 Y21.322
G01 F120 X69.556 Y21.296
G01 F120 X69.582 Y21.296
G01 F120 X69.582 Y21.271
G01 F120 X69.607 Y21.271
G01 F120 X69.607 Y21.245
G01 F120 X69.633 Y21.245
G01 F120 X69.633 Y21.220
G01 F120 X69.683 Y21.220
G01 F120 X69.683 Y21.195
G01 F120 X69.734 Y21.195
G01 F120 X69.734 Y21.169
G01 F120 X69.785 Y21.169
G01 F120 X69.785 Y21.144
G01 F120 X69.861 Y21.144
G01 F120 X69.861 Y21.120
G01 F120 X70.594 Y21.113
G01 F120 X70.730 Y21.084
G01 F120 X70.902 Y21.084
G01 F120 X71.050 Y21.119
G01 F120 X71.820 Y21.119
G01 F120 X71.820 Y21.144
G01 F120 X71.896 Y21.144
G01 F120 X71.896 Y21.169
G01 F120 X71.947 Y21.169
G01 F120 X71.947 Y21.195
G01 F120 X71.998 Y21.195
G01 F120 X71.998 Y21.220
G01 F120 X72.023 Y21.220
G01 F120 X72.023 Y21.245
G01 F120 X72.074 Y21.245
G01 F120 X72.074 Y21.271
G01 F120 X72.100 Y21.271
G01 F120 X72.100 Y21.296
G01 F120 X72.125 Y21.296
G01 F120 X72.125 Y21.322
G01 F120 X72.150 Y21.322
G01 F120 X72.150 Y21.347
G01 F120 X72.176 Y21.347
G01 F120 X72.176 Y21.398
G01 F120 X72.201 Y21.398
G01 F120 X72.201 Y21.438
G01 F120 X82.409 Y21.438
G01 F120 X82.409 Y20.788
G01 F120 X84.622 Y20.788
G01 F120 X84.622 Y21.433
G01 F120 X88.562 Y21.387
G01 F120 X88.643 Y21.387
G01 F120 X88.737 Y21.407
G01 F120 X88.825 Y21.446
G01 F120 X88.903 Y21.502
G01 F120 X88.967 Y21.574
G01 F120 X89.015 Y21.657
G01 F120 X89.045 Y21.748
G01 F120 X89.054 Y21.836
G01 F120 X89.054 Y46.150
G01 F120 X89.740 Y46.150
G01 F120 X89.740 Y48.439
G01 F120 X87.451 Y48.439
G00 F3000 Z5.000
G00 F3000 X45.296 Y48.434
G00 F1500 Z0
G01 F120 Z-0.200
G01 F120 X45.061 Y48.384
G01 F120 X44.843 Y48.287
G01 F120 X44.649 Y48.146
G01 F120 X44.489 Y47.968
G01 F120 X44.369 Y47.761
G01 F120 X44.366 Y47.752
G01 F120 X12.427 Y47.777
G01 F120 X12.347 Y47.777
G01 F120 X12.253 Y47.757
G01 F120 X12.165 Y47.718
G01 F120 X12.091 Y47.664
G01 F120 X6.974 Y42.522
G01 F120 X6.918 Y42.460
G01 F120 X6.870 Y42.376
G01 F120 X6.840 Y42.285
G01 F120 X6.831 Y42.198
G01 F120 X6.831 Y29.507
G01 F120 X6.840 Y29.419
G01 F120 X6.870 Y29.328
G01 F120 X6.918 Y29.245
G01 F120 X6.982 Y29.173
G01 F120 X7.060 Y29.117
G01 F120 X7.148 Y29.078
G01 F120 X7.242 Y29.058
G01 F120 X13.928 Y29.058
G01 F120 X14.039 Y28.864
G01 F120 X14.194 Y28.692
G01 F120 X14.382 Y28.556
G01 F120 X14.593 Y28.462
G01 F120 X14.820 Y28.414
G01 F120 X15.051 Y28.414
G01 F120 X15.277 Y28.462
G01 F120 X15.489 Y28.556
G01 F120 X15.676 Y28.692
G01 F120 X15.831 Y28.864
G01 F120 X15.943 Y29.058
G01 F120 X25.143 Y29.058
G01 F120 X25.237 Y29.078
G01 F120 X25.325 Y29.117
G01 F120 X25.399 Y29.171
G01 F120 X27.176 Y30.947
G01 F120 X27.176 Y20.356
G01 F120 X27.082 Y20.314
G01 F120 X26.894 Y20.178
G01 F120 X26.739 Y20.006
G01 F120 X26.624 Y19.805
G01 F120 X26.552 Y19.585
G01 F120 X26.528 Y19.355
G01 F120 X26.552 Y19.125
G01 F120 X26.624 Y18.904
G01 F120 X26.739 Y18.704
G01 F120 X26.894 Y18.532
G01 F120 X27.082 Y18.396
G01 F120 X27.293 Y18.302
G01 F120 X27.520 Y18.254
G01 F120 X27.751 Y18.254
G01 F120 X27.977 Y18.302
G01 F120 X28.189 Y18.396
G01 F120 X28.376 Y18.532
G01 F120 X28.531 Y18.704
G01 F120 X28.643 Y18.898
G01 F120 X36.560 Y18.898
G01 F120 X36.586 Y18.817
G01 F120 X36.725 Y18.577
G01 F120 X36.910 Y18.371
G01 F120 X37.134 Y18.209
G01 F120 X37.386 Y18.096
G01 F120 X37.657 Y18.039
G01 F120 X37.934 Y18.039
G01 F120 X38.204 Y18.096
G01 F120 X38.457 Y18.209
G01 F120 X38.681 Y18.371
G01 F120 X38.866 Y18.577
G01 F120 X39.004 Y18.817
G01 F120 X39.090 Y19.080
G01 F120 X39.118 Y19.355
G01 F120 X39.090 Y19.630
G01 F120 X39.004 Y19.893
G01 F120 X38.866 Y20.133
G01 F120 X38.681 Y20.338
G01 F120 X38.457 Y20.501
G01 F120 X38.204 Y20.613
G01 F120 X37.934 Y20.671
G01 F120 X37.657 Y20.671
G01 F120 X37.386 Y20.613
G01 F120 X37.134 Y20.501
G01 F120 X36.910 Y20.338
G01 F120 X36.725 Y20.133
G01 F120 X36.586 Y19.893
G01 F120 X36.560 Y19.812
G01 F120 X28.643 Y19.812
G01 F120 X28.531 Y20.006
G01 F120 X28.376 Y20.178
G01 F120 X28.189 Y20.314
G01 F120 X28.094 Y20.356
G01 F120 X28.094 Y31.054
G01 F120 X28.189 Y31.096
G01 F120 X28.376 Y31.232
G01 F120 X28.531 Y31.404
G01 F120 X28.647 Y31.604
G01 F120 X28.718 Y31.825
G01 F120 X28.742 Y32.055
G01 F120 X28.718 Y32.285
G01 F120 X28.647 Y32.505
G01 F120 X28.531 Y32.706
G01 F120 X28.376 Y32.878
G01 F120 X28.189 Y33.014
G01 F120 X27.977 Y33.108
G01 F120 X27.751 Y33.156
G01 F120 X27.520 Y33.156
G01 F120 X27.293 Y33.108
G01 F120 X27.082 Y33.014
G01 F120 X26.894 Y32.878
G01 F120 X26.739 Y32.706
G01 F120 X26.624 Y32.505
G01 F120 X26.552 Y32.285
G01 F120 X26.528 Y32.055
G01 F120 X26.552 Y31.825
G01 F120 X26.602 Y31.670
G01 F120 X24.904 Y29.972
G01 F120 X15.943 Y29.972
G01 F120 X15.831 Y30.166
G01 F120 X15.676 Y30.338
G01 F120 X15.489 Y30.474
G01 F120 X15.277 Y30.568
G01 F120 X15.051 Y30.616
G01 F120 X14.820 Y30.616
G01 F120 X14.593 Y30.568
G01 F120 X14.382 Y30.474
G01 F120 X14.194 Y30.338
G01 F120 X14.039 Y30.166
G01 F120 X13.928 Y29.972
G01 F120 X7.749 Y29.972
G01 F120 X7.749 Y42.001
G01 F120 X12.587 Y46.863
G01 F120 X44.366 Y46.838
G01 F120 X44.369 Y46.829
G01 F120 X44.489 Y46.622
G01 F120 X44.649 Y46.444
G01 F120 X44.843 Y46.303
G01 F120 X45.061 Y46.205
G01 F120 X45.296 Y46.156
G01 F120 X45.535 Y46.156
G01 F120 X45.769 Y46.205
G01 F120 X45.988 Y46.303
G01 F120 X46.182 Y46.444
G01 F120 X46.342 Y46.622
G01 F120 X46.462 Y46.829
G01 F120 X46.465 Y46.838
G01 F120 X54.637 Y46.838
G01 F120 X54.637 Y46.677
G01 F120 X54.644 Y46.611
G01 F120 X54.667 Y46.541
G01 F120 X54.704 Y46.477
G01 F120 X54.754 Y46.422
G01 F120 X54.814 Y46.378
G01 F120 X54.881 Y46.348
G01 F120 X54.954 Y46.332
G01 F120 X56.222 Y46.332
G01 F120 X56.294 Y46.348
G01 F120 X56.362 Y46.378
G01 F120 X56.422 Y46.422
G01 F120 X56.472 Y46.477
G01 F120 X56.509 Y46.541
G01 F120 X56.532 Y46.611
G01 F120 X56.539 Y46.677
G01 F120 X56.539 Y46.838
G01 F120 X62.761 Y46.851
G01 F120 X62.738 Y37.962
G01 F120 X62.241 Y37.962
G01 F120 X62.241 Y37.937
G01 F120 X62.165 Y37.937
G01 F120 X62.165 Y37.911
G01 F120 X62.114 Y37.911
G01 F120 X62.114 Y37.886
G01 F120 X62.063 Y37.886
G01 F120 X62.063 Y37.860
G01 F120 X62.013 Y37.860
G01 F120 X62.013 Y37.835
G01 F120 X61.987 Y37.835
G01 F120 X61.987 Y37.809
G01 F120 X61.962 Y37.809
G01 F120 X61.962 Y37.784
G01 F120 X61.936 Y37.784
G01 F120 X61.936 Y37.759
G01 F120 X61.911 Y37.759
G01 F120 X61.911 Y37.733
G01 F120 X61.886 Y37.733
G01 F120 X61.886 Y37.708
G01 F120 X61.860 Y37.708
G01 F120 X61.860 Y37.657
G01 F120 X61.835 Y37.657
G01 F120 X61.835 Y37.606
G01 F120 X61.809 Y37.606
G01 F120 X61.809 Y37.581
G01 F120 X61.784 Y37.581
G01 F120 X61.784 Y37.505
G01 F120 X61.759 Y37.505
G01 F120 X61.759 Y37.327
G01 F120 X61.733 Y37.327
G01 F120 X61.733 Y36.994
G01 F120 X61.759 Y36.994
G01 F120 X61.759 Y36.816
G01 F120 X61.784 Y36.816
G01 F120 X61.784 Y36.739
G01 F120 X61.809 Y36.739
G01 F120 X61.809 Y36.714
G01 F120 X61.835 Y36.714
G01 F120 X61.835 Y36.663
G01 F120 X61.860 Y36.663
G01 F120 X61.860 Y36.613
G01 F120 X61.886 Y36.613
G01 F120 X61.886 Y36.587
G01 F120 X61.911 Y36.587
G01 F120 X61.911 Y36.562
G01 F120 X61.936 Y36.562
G01 F120 X61.936 Y36.536
G01 F120 X61.962 Y36.536
G01 F120 X61.962 Y36.511
G01 F120 X61.987 Y36.511
G01 F120 X61.987 Y36.486
G01 F120 X62.013 Y36.486
G01 F120 X62.013 Y36.460
G01 F120 X62.063 Y36.460
G01 F120 X62.063 Y36.435
G01 F120 X62.114 Y36.435
G01 F120 X62.114 Y36.409
G01 F120 X62.140 Y36.409
G01 F120 X62.140 Y36.384
G01 F120 X62.216 Y36.384
G01 F120 X62.216 Y36.358
G01 F120 X62.394 Y36.358
G01 F120 X62.394 Y36.333
G01 F120 X63.067 Y36.333
G01 F120 X63.110 Y36.324
G01 F120 X63.280 Y36.324
G01 F120 X63.323 Y36.333
G01 F120 X64.048 Y36.333
G01 F120 X64.048 Y36.358
G01 F120 X64.225 Y36.358
G01 F120 X64.225 Y36.384
G01 F120 X64.276 Y36.384
G01 F120 X64.276 Y36.409
G01 F120 X64.327 Y36.409
G01 F120 X64.327 Y36.435
G01 F120 X64.378 Y36.435
G01 F120 X64.378 Y36.460
G01 F120 X64.429 Y36.460
G01 F120 X64.429 Y36.486
G01 F120 X64.454 Y36.486
G01 F120 X64.454 Y36.511
G01 F120 X64.480 Y36.511
G01 F120 X64.480 Y36.536
G01 F120 X64.505 Y36.536
G01 F120 X64.505 Y36.562
G01 F120 X64.530 Y36.562
G01 F120 X64.530 Y36.587
G01 F120 X64.556 Y36.587
G01 F120 X64.556 Y36.613
G01 F120 X64.581 Y36.613
G01 F120 X64.581 Y36.663
G01 F120 X64.606 Y36.663
G01 F120 X64.606 Y36.714
G01 F120 X64.632 Y36.714
G01 F120 X64.632 Y36.765
G01 F120 X64.657 Y36.765
G01 F120 X64.657 Y36.841
G01 F120 X64.683 Y36.841
G01 F120 X64.683 Y37.479
G01 F120 X64.657 Y37.479
G01 F120 X64.657 Y37.556
G01 F120 X64.632 Y37.556
G01 F120 X64.632 Y37.606
G01 F120 X64.606 Y37.606
G01 F120 X64.606 Y37.657
G01 F120 X64.581 Y37.657
G01 F120 X64.581 Y37.708
G01 F120 X64.556 Y37.708
G01 F120 X64.556 Y37.733
G01 F120 X64.530 Y37.733
G01 F120 X64.530 Y37.759
G01 F120 X64.505 Y37.759
G01 F120 X64.505 Y37.784
G01 F120 X64.480 Y37.784
G01 F120 X64.480 Y37.809
G01 F120 X64.454 Y37.809
G01 F120 X64.454 Y37.835
G01 F120 X64.429 Y37.835
G01 F120 X64.429 Y37.860
G01 F120 X64.378 Y37.860
G01 F120 X64.378 Y37.886
G01 F120 X64.327 Y37.886
G01 F120 X64.327 Y37.911
G01 F120 X64.276 Y37.911
G01 F120 X64.276 Y37.937
G01 F120 X64.200 Y37.937
G01 F120 X64.200 Y37.958
G01 F120 X63.654 Y37.971
G01 F120 X63.678 Y46.853
G01 F120 X67.766 Y46.862
G01 F120 X67.766 Y29.507
G01 F120 X67.775 Y29.419
G01 F120 X67.805 Y29.328
G01 F120 X67.853 Y29.245
G01 F120 X67.917 Y29.173
G01 F120 X67.995 Y29.117
G01 F120 X68.082 Y29.078
G01 F120 X68.176 Y29.058
G01 F120 X69.480 Y29.045
G01 F120 X69.480 Y28.992
G01 F120 X69.505 Y28.992
G01 F120 X69.505 Y28.967
G01 F120 X69.531 Y28.967
G01 F120 X69.531 Y28.942
G01 F120 X69.556 Y28.942
G01 F120 X69.556 Y28.916
G01 F120 X69.582 Y28.916
G01 F120 X69.582 Y28.891
G01 F120 X69.607 Y28.891
G01 F120 X69.607 Y28.866
G01 F120 X69.633 Y28.866
G01 F120 X69.633 Y28.840
G01 F120 X69.683 Y28.840
G01 F120 X69.683 Y28.815
G01 F120 X69.734 Y28.815
G01 F120 X69.734 Y28.789
G01 F120 X69.785 Y28.789
G01 F120 X69.785 Y28.764
G01 F120 X69.861 Y28.764
G01 F120 X69.861 Y28.740
G01 F120 X70.594 Y28.733
G01 F120 X70.730 Y28.704
G01 F120 X70.902 Y28.704
G01 F120 X71.050 Y28.739
G01 F120 X71.820 Y28.739
G01 F120 X71.820 Y28.764
G01 F120 X71.896 Y28.764
G01 F120 X71.896 Y28.789
G01 F120 X71.947 Y28.789
G01 F120 X71.947 Y28.815
G01 F120 X71.998 Y28.815
G01 F120 X71.998 Y28.840
G01 F120 X72.049 Y28.840
G01 F120 X72.049 Y28.866
G01 F120 X72.074 Y28.866
G01 F120 X72.074 Y28.891
G01 F120 X72.100 Y28.891
G01 F120 X72.100 Y28.916
G01 F120 X72.125 Y28.916
G01 F120 X72.125 Y28.942
G01 F120 X72.150 Y28.942
G01 F120 X72.150 Y28.967
G01 F120 X72.176 Y28.967
G01 F120 X72.176 Y28.992
G01 F120 X72.201 Y28.992
G01 F120 X72.201 Y29.043
G01 F120 X72.227 Y29.043
G01 F120 X72.227 Y29.094
G01 F120 X72.252 Y29.094
G01 F120 X72.252 Y29.145
G01 F120 X72.277 Y29.145
G01 F120 X72.277 Y29.221
G01 F120 X72.303 Y29.221
G01 F120 X72.303 Y29.859
G01 F120 X72.277 Y29.859
G01 F120 X72.277 Y29.936
G01 F120 X72.252 Y29.936
G01 F120 X72.252 Y29.986
G01 F120 X72.227 Y29.986
G01 F120 X72.227 Y30.037
G01 F120 X72.201 Y30.037
G01 F120 X72.201 Y30.088
G01 F120 X72.176 Y30.088
G01 F120 X72.176 Y30.113
G01 F120 X72.150 Y30.113
G01 F120 X72.150 Y30.139
G01 F120 X72.125 Y30.139
G01 F120 X72.125 Y30.164
G01 F120 X72.100 Y30.164
G01 F120 X72.100 Y30.190
G01 F120 X72.074 Y30.190
G01 F120 X72.074 Y30.215
G01 F120 X72.049 Y30.215
G01 F120 X72.049 Y30.240
G01 F120 X71.998 Y30.240
G01 F120 X71.998 Y30.266
G01 F120 X71.947 Y30.266
G01 F120 X71.947 Y30.291
G01 F120 X71.896 Y30.291
G01 F120 X71.896 Y30.317
G01 F120 X71.846 Y30.317
G01 F120 X71.846 Y30.342
G01 F120 X71.668 Y30.342
G01 F120 X71.668 Y30.367
G01 F120 X69.988 Y30.367
G01 F120 X69.988 Y30.342
G01 F120 X69.836 Y30.342
G01 F120 X69.836 Y30.317
G01 F120 X69.760 Y30.317
G01 F120 X69.760 Y30.291
G01 F120 X69.709 Y30.291
G01 F120 X69.709 Y30.266
G01 F120 X69.683 Y30.266
G01 F120 X69.683 Y30.240
G01 F120 X69.633 Y30.240
G01 F120 X69.633 Y30.215
G01 F120 X69.607 Y30.215
G01 F120 X69.607 Y30.190
G01 F120 X69.582 Y30.190
G01 F120 X69.582 Y30.164
G01 F120 X69.556 Y30.164
G01 F120 X69.556 Y30.139
G01 F120 X69.531 Y30.139
G01 F120 X69.531 Y30.113
G01 F120 X69.505 Y30.113
G01 F120 X69.505 Y30.088
G01 F120 X69.480 Y30.088
G01 F120 X69.480 Y30.037
G01 F120 X69.455 Y30.037
G01 F120 X69.455 Y30.012
G01 F120 X69.429 Y30.012
G01 F120 X69.429 Y29.972
G01 F120 X68.683 Y29.972
G01 F120 X68.683 Y46.862
G01 F120 X77.427 Y46.838
G01 F120 X77.539 Y46.644
G01 F120 X77.694 Y46.472
G01 F120 X77.882 Y46.336
G01 F120 X78.093 Y46.242
G01 F120 X78.320 Y46.194
G01 F120 X78.551 Y46.194
G01 F120 X78.777 Y46.242
G01 F120 X78.989 Y46.336
G01 F120 X79.176 Y46.472
G01 F120 X79.331 Y46.644
G01 F120 X79.443 Y46.838
G01 F120 X85.006 Y46.838
G01 F120 X85.009 Y46.829
G01 F120 X85.129 Y46.622
G01 F120 X85.289 Y46.444
G01 F120 X85.483 Y46.303
G01 F120 X85.701 Y46.205
G01 F120 X85.936 Y46.156
G01 F120 X86.175 Y46.156
G01 F120 X86.409 Y46.205
G01 F120 X86.628 Y46.303
G01 F120 X86.822 Y46.444
G01 F120 X86.982 Y46.622
G01 F120 X87.102 Y46.829
G01 F120 X87.176 Y47.057
G01 F120 X87.201 Y47.295
G01 F120 X87.176 Y47.533
G01 F120 X87.102 Y47.761
G01 F120 X86.982 Y47.968
G01 F120 X86.822 Y48.146
G01 F120 X86.628 Y48.287
G01 F120 X86.409 Y48.384
G01 F120 X86.175 Y48.434
G01 F120 X85.936 Y48.434
G01 F120 X85.701 Y48.384
G01 F120 X85.483 Y48.287
G01 F120 X85.289 Y48.146
G01 F120 X85.129 Y47.968
G01 F120 X85.009 Y47.761
G01 F120 X85.006 Y47.752
G01 F120 X79.443 Y47.752
G01 F120 X79.331 Y47.946
G01 F120 X79.176 Y48.118
G01 F120 X78.989 Y48.254
G01 F120 X78.777 Y48.348
G01 F120 X78.551 Y48.396
G01 F120 X78.320 Y48.396
G01 F120 X78.093 Y48.348
G01 F120 X77.882 Y48.254
G01 F120 X77.694 Y48.118
G01 F120 X77.539 Y47.946
G01 F120 X77.428 Y47.753
G01 F120 X68.257 Y47.777
G01 F120 X63.173 Y47.777
G01 F120 X63.122 Y47.767
G01 F120 X56.539 Y47.753
G01 F120 X56.539 Y47.913
G01 F120 X56.532 Y47.978
G01 F120 X56.509 Y48.049
G01 F120 X56.472 Y48.113
G01 F120 X56.422 Y48.168
G01 F120 X56.362 Y48.212
G01 F120 X56.294 Y48.242
G01 F120 X56.222 Y48.257
G01 F120 X54.954 Y48.257
G01 F120 X54.881 Y48.242
G01 F120 X54.814 Y48.212
G01 F120 X54.754 Y48.168
G01 F120 X54.704 Y48.113
G01 F120 X54.667 Y48.049
G01 F120 X54.644 Y47.978
G01 F120 X54.637 Y47.913
G01 F120 X54.637 Y47.752
G01 F120 X46.465 Y47.752
G01 F120 X46.462 Y47.761
G01 F120 X46.342 Y47.968
G01 F120 X46.182 Y48.146
G01 F120 X45.988 Y48.287
G01 F120 X45.769 Y48.384
G01 F120 X45.535 Y48.434
G01 F120 X45.296 Y48.434
G00 F3000 Z5.000
G00 F3000 X44.271 Y45.899
G00 F1500 Z0
G01 F120 Z-0.200
G01 F120 X44.271 Y43.610
G01 F120 X44.962 Y43.610
G01 F120 X44.975 Y42.647
G01 F120 X26.103 Y42.672
G01 F120 X25.991 Y42.866
G01 F120 X25.836 Y43.038
G01 F120 X25.649 Y43.174
G01 F120 X25.437 Y43.268
G01 F120 X25.211 Y43.316
G01 F120 X24.980 Y43.316
G01 F120 X24.753 Y43.268
G01 F120 X24.542 Y43.174
G01 F120 X24.354 Y43.038
G01 F120 X24.199 Y42.866
G01 F120 X24.084 Y42.665
G01 F120 X24.012 Y42.445
G01 F120 X23.988 Y42.215
G01 F120 X24.012 Y41.985
G01 F120 X24.084 Y41.764
G01 F120 X24.199 Y41.564
G01 F120 X24.354 Y41.392
G01 F120 X24.542 Y41.256
G01 F120 X24.753 Y41.162
G01 F120 X24.980 Y41.114
G01 F120 X25.211 Y41.114
G01 F120 X25.437 Y41.162
G01 F120 X25.649 Y41.256
G01 F120 X25.836 Y41.392
G01 F120 X25.991 Y41.564
G01 F120 X26.103 Y41.757
G01 F120 X44.980 Y41.733
G01 F120 X44.957 Y35.596
G01 F120 X44.861 Y35.554
G01 F120 X44.674 Y35.418
G01 F120 X44.519 Y35.246
G01 F120 X44.404 Y35.045
G01 F120 X44.332 Y34.825
G01 F120 X44.308 Y34.595
G01 F120 X44.332 Y34.365
G01 F120 X44.404 Y34.144
G01 F120 X44.519 Y33.944
G01 F120 X44.674 Y33.772
G01 F120 X44.861 Y33.636
G01 F120 X45.073 Y33.542
G01 F120 X45.300 Y33.494
G01 F120 X45.531 Y33.494
G01 F120 X45.757 Y33.542
G01 F120 X45.969 Y33.636
G01 F120 X46.156 Y33.772
G01 F120 X46.311 Y33.944
G01 F120 X46.427 Y34.144
G01 F120 X46.498 Y34.365
G01 F120 X46.523 Y34.595
G01 F120 X46.498 Y34.825
G01 F120 X46.427 Y35.045
G01 F120 X46.311 Y35.246
G01 F120 X46.156 Y35.418
G01 F120 X45.969 Y35.554
G01 F120 X45.875 Y35.596
G01 F120 X45.899 Y42.190
G01 F120 X45.879 Y43.610
G01 F120 X46.560 Y43.610
G01 F120 X46.560 Y45.899
G01 F120 X44.271 Y45.899
G00 F3000 Z5.000
G00 F3000 X55.475 Y45.755
G00 F1500 Z0
G01 F120 Z-0.200
G01 F120 X55.280 Y45.714
G01 F120 X55.098 Y45.633
G01 F120 X54.936 Y45.515
G01 F120 X54.803 Y45.367
G01 F120 X54.703 Y45.194
G01 F120 X54.641 Y45.004
G01 F120 X54.620 Y44.806
G01 F120 X54.641 Y44.607
G01 F120 X54.703 Y44.417
G01 F120 X54.803 Y44.244
G01 F120 X54.936 Y44.096
G01 F120 X55.098 Y43.979
G01 F120 X55.116 Y43.970
G01 F120 X55.116 Y38.136
G01 F120 X55.022 Y38.094
G01 F120 X54.834 Y37.958
G01 F120 X54.679 Y37.786
G01 F120 X54.564 Y37.585
G01 F120 X54.492 Y37.365
G01 F120 X54.468 Y37.135
G01 F120 X54.492 Y36.905
G01 F120 X54.564 Y36.684
G01 F120 X54.679 Y36.484
G01 F120 X54.834 Y36.312
G01 F120 X55.022 Y36.176
G01 F120 X55.233 Y36.082
G01 F120 X55.460 Y36.034
G01 F120 X55.691 Y36.034
G01 F120 X55.917 Y36.082
G01 F120 X56.129 Y36.176
G01 F120 X56.316 Y36.312
G01 F120 X56.471 Y36.484
G01 F120 X56.587 Y36.684
G01 F120 X56.658 Y36.905
G01 F120 X56.683 Y37.135
G01 F120 X56.658 Y37.365
G01 F120 X56.587 Y37.585
G01 F120 X56.471 Y37.786
G01 F120 X56.316 Y37.958
G01 F120 X56.129 Y38.094
G01 F120 X56.034 Y38.136
G01 F120 X56.034 Y43.970
G01 F120 X56.053 Y43.979
G01 F120 X56.214 Y44.096
G01 F120 X56.348 Y44.244
G01 F120 X56.448 Y44.417
G01 F120 X56.509 Y44.607
G01 F120 X56.530 Y44.806
G01 F120 X56.509 Y45.004
G01 F120 X56.448 Y45.194
G01 F120 X56.348 Y45.367
G01 F120 X56.214 Y45.515
G01 F120 X56.053 Y45.633
G01 F120 X55.870 Y45.714
G01 F120 X55.675 Y45.755
G01 F120 X55.475 Y45.755
G00 F3000 Z5.000
G00 F3000 X14.820 Y40.776
G00 F1500 Z0
G01 F120 Z-0.200
G01 F120 X14.593 Y40.728
G01 F120 X14.382 Y40.634
G01 F120 X14.194 Y40.498
G01 F120 X14.039 Y40.326
G01 F120 X13.924 Y40.125
G01 F120 X13.852 Y39.905
G01 F120 X13.828 Y39.675
G01 F120 X13.852 Y39.445
G01 F120 X13.924 Y39.224
G01 F120 X14.039 Y39.024
G01 F120 X14.194 Y38.852
G01 F120 X14.382 Y38.716
G01 F120 X14.593 Y38.622
G01 F120 X14.820 Y38.574
G01 F120 X15.051 Y38.574
G01 F120 X15.270 Y38.620
G01 F120 X15.386 Y38.659
G01 F120 X15.440 Y38.659
G01 F120 X15.534 Y38.679
G01 F120 X15.622 Y38.718
G01 F120 X15.700 Y38.774
G01 F120 X15.764 Y38.846
G01 F120 X15.812 Y38.929
G01 F120 X15.839 Y39.011
G01 F120 X15.850 Y39.057
G01 F120 X15.930 Y39.195
G01 F120 X24.088 Y39.217
G01 F120 X24.199 Y39.024
G01 F120 X24.354 Y38.852
G01 F120 X24.542 Y38.716
G01 F120 X24.753 Y38.622
G01 F120 X24.980 Y38.574
G01 F120 X25.211 Y38.574
G01 F120 X25.437 Y38.622
G01 F120 X25.649 Y38.716
G01 F120 X25.836 Y38.852
G01 F120 X25.991 Y39.024
G01 F120 X26.107 Y39.224
G01 F120 X26.178 Y39.445
G01 F120 X26.203 Y39.675
G01 F120 X26.178 Y39.905
G01 F120 X26.107 Y40.125
G01 F120 X25.991 Y40.326
G01 F120 X25.836 Y40.498
G01 F120 X25.649 Y40.634
G01 F120 X25.437 Y40.728
G01 F120 X25.211 Y40.776
G01 F120 X24.980 Y40.776
G01 F120 X24.753 Y40.728
G01 F120 X24.542 Y40.634
G01 F120 X24.354 Y40.498
G01 F120 X24.199 Y40.326
G01 F120 X24.087 Y40.131
G01 F120 X15.952 Y40.109
G01 F120 X15.947 Y40.125
G01 F120 X15.831 Y40.326
G01 F120 X15.676 Y40.498
G01 F120 X15.489 Y40.634
G01 F120 X15.277 Y40.728
G01 F120 X15.051 Y40.776
G01 F120 X14.820 Y40.776
G00 F3000 Z5.000
G00 F3000 X24.980 Y38.236
G00 F1500 Z0
G01 F120 Z-0.200
G01 F120 X24.753 Y38.188
G01 F120 X24.542 Y38.094
G01 F120 X24.354 Y37.958
G01 F120 X24.199 Y37.786
G01 F120 X24.084 Y37.585
G01 F120 X24.012 Y37.365
G01 F120 X23.988 Y37.135
G01 F120 X24.012 Y36.905
G01 F120 X24.084 Y36.684
G01 F120 X24.199 Y36.484
G01 F120 X24.354 Y36.312
G01 F120 X24.542 Y36.176
G01 F120 X24.753 Y36.082
G01 F120 X24.980 Y36.034
G01 F120 X25.211 Y36.034
G01 F120 X25.437 Y36.082
G01 F120 X25.649 Y36.176
G01 F120 X25.836 Y36.312
G01 F120 X25.991 Y36.484
G01 F120 X26.102 Y36.675
G01 F120 X32.307 Y36.630
G01 F120 X32.307 Y29.507
G01 F120 X32.316 Y29.419
G01 F120 X32.346 Y29.328
G01 F120 X32.394 Y29.245
G01 F120 X32.458 Y29.173
G01 F120 X32.536 Y29.117
G01 F120 X32.624 Y29.078
G01 F120 X32.718 Y29.058
G01 F120 X44.407 Y29.058
G01 F120 X44.519 Y28.864
G01 F120 X44.674 Y28.692
G01 F120 X44.861 Y28.556
G01 F120 X44.960 Y28.512
G01 F120 X44.982 Y26.975
G01 F120 X44.982 Y12.192
G01 F120 X39.118 Y12.192
G01 F120 X39.118 Y13.057
G01 F120 X36.473 Y13.057
G01 F120 X36.473 Y12.192
G01 F120 X28.643 Y12.192
G01 F120 X28.531 Y12.386
G01 F120 X28.376 Y12.558
G01 F120 X28.189 Y12.694
G01 F120 X27.977 Y12.788
G01 F120 X27.751 Y12.836
G01 F120 X27.520 Y12.836
G01 F120 X27.293 Y12.788
G01 F120 X27.082 Y12.694
G01 F120 X26.894 Y12.558
G01 F120 X26.739 Y12.386
G01 F120 X26.624 Y12.185
G01 F120 X26.552 Y11.965
G01 F120 X26.528 Y11.735
G01 F120 X26.552 Y11.505
G01 F120 X26.624 Y11.284
G01 F120 X26.739 Y11.084
G01 F120 X26.894 Y10.912
G01 F120 X27.082 Y10.776
G01 F120 X27.293 Y10.682
G01 F120 X27.520 Y10.633
G01 F120 X27.751 Y10.633
G01 F120 X27.977 Y10.682
G01 F120 X28.189 Y10.776
G01 F120 X28.376 Y10.912
G01 F120 X28.531 Y11.084
G01 F120 X28.643 Y11.278
G01 F120 X36.473 Y11.278
G01 F120 X36.473 Y10.412
G01 F120 X39.118 Y10.412
G01 F120 X39.118 Y11.278
G01 F120 X45.489 Y11.278
G01 F120 X45.583 Y11.298
G01 F120 X45.670 Y11.337
G01 F120 X45.748 Y11.393
G01 F120 X45.813 Y11.465
G01 F120 X45.861 Y11.548
G01 F120 X45.890 Y11.639
G01 F120 X45.899 Y11.727
G01 F120 X45.899 Y26.518
G01 F120 X54.568 Y26.518
G01 F120 X54.679 Y26.324
G01 F120 X54.834 Y26.152
G01 F120 X55.022 Y26.016
G01 F120 X55.115 Y25.974
G01 F120 X55.091 Y21.836
G01 F120 X55.100 Y21.748
G01 F120 X55.130 Y21.657
G01 F120 X55.178 Y21.574
G01 F120 X55.235 Y21.510
G01 F120 X57.813 Y19.061
G01 F120 X57.885 Y19.008
G01 F120 X57.973 Y18.968
G01 F120 X58.067 Y18.948
G01 F120 X68.272 Y18.948
G01 F120 X68.366 Y18.968
G01 F120 X68.454 Y19.008
G01 F120 X68.532 Y19.064
G01 F120 X68.596 Y19.135
G01 F120 X68.644 Y19.219
G01 F120 X68.674 Y19.310
G01 F120 X68.683 Y19.398
G01 F120 X68.683 Y26.516
G01 F120 X69.480 Y26.505
G01 F120 X69.480 Y26.453
G01 F120 X69.505 Y26.453
G01 F120 X69.505 Y26.427
G01 F120 X69.531 Y26.427
G01 F120 X69.531 Y26.402
G01 F120 X69.556 Y26.402
G01 F120 X69.556 Y26.376
G01 F120 X69.582 Y26.376
G01 F120 X69.582 Y26.351
G01 F120 X69.607 Y26.351
G01 F120 X69.607 Y26.326
G01 F120 X69.633 Y26.326
G01 F120 X69.633 Y26.300
G01 F120 X69.683 Y26.300
G01 F120 X69.683 Y26.275
G01 F120 X69.734 Y26.275
G01 F120 X69.734 Y26.249
G01 F120 X69.785 Y26.249
G01 F120 X69.785 Y26.224
G01 F120 X69.861 Y26.224
G01 F120 X69.861 Y26.200
G01 F120 X70.594 Y26.193
G01 F120 X70.730 Y26.164
G01 F120 X70.902 Y26.164
G01 F120 X71.050 Y26.199
G01 F120 X71.820 Y26.199
G01 F120 X71.820 Y26.224
G01 F120 X71.896 Y26.224
G01 F120 X71.896 Y26.249
G01 F120 X71.947 Y26.249
G01 F120 X71.947 Y26.275
G01 F120 X71.998 Y26.275
G01 F120 X71.998 Y26.300
G01 F120 X72.023 Y26.300
G01 F120 X72.023 Y26.326
G01 F120 X72.074 Y26.326
G01 F120 X72.074 Y26.351
G01 F120 X72.100 Y26.351
G01 F120 X72.100 Y26.376
G01 F120 X72.125 Y26.376
G01 F120 X72.125 Y26.402
G01 F120 X72.150 Y26.402
G01 F120 X72.150 Y26.427
G01 F120 X72.176 Y26.427
G01 F120 X72.176 Y26.478
G01 F120 X72.201 Y26.478
G01 F120 X72.201 Y26.503
G01 F120 X72.227 Y26.503
G01 F120 X72.227 Y26.554
G01 F120 X72.252 Y26.554
G01 F120 X72.252 Y26.605
G01 F120 X72.277 Y26.605
G01 F120 X72.277 Y26.681
G01 F120 X72.303 Y26.681
G01 F120 X72.303 Y27.319
G01 F120 X72.277 Y27.319
G01 F120 X72.277 Y27.396
G01 F120 X72.252 Y27.396
G01 F120 X72.252 Y27.446
G01 F120 X72.227 Y27.446
G01 F120 X72.227 Y27.497
G01 F120 X72.201 Y27.497
G01 F120 X72.201 Y27.548
G01 F120 X72.176 Y27.548
G01 F120 X72.176 Y27.573
G01 F120 X72.150 Y27.573
G01 F120 X72.150 Y27.599
G01 F120 X72.125 Y27.599
G01 F120 X72.125 Y27.624
G01 F120 X72.100 Y27.624
G01 F120 X72.100 Y27.649
G01 F120 X72.074 Y27.649
G01 F120 X72.074 Y27.675
G01 F120 X72.049 Y27.675
G01 F120 X72.049 Y27.700
G01 F120 X71.998 Y27.700
G01 F120 X71.998 Y27.726
G01 F120 X71.947 Y27.726
G01 F120 X71.947 Y27.751
G01 F120 X71.922 Y27.751
G01 F120 X71.922 Y27.777
G01 F120 X71.846 Y27.777
G01 F120 X71.846 Y27.802
G01 F120 X71.693 Y27.802
G01 F120 X71.693 Y27.827
G01 F120 X69.988 Y27.827
G01 F120 X69.988 Y27.802
G01 F120 X69.836 Y27.802
G01 F120 X69.836 Y27.777
G01 F120 X69.760 Y27.777
G01 F120 X69.760 Y27.751
G01 F120 X69.709 Y27.751
G01 F120 X69.709 Y27.726
G01 F120 X69.683 Y27.726
G01 F120 X69.683 Y27.700
G01 F120 X69.633 Y27.700
G01 F120 X69.633 Y27.675
G01 F120 X69.607 Y27.675
G01 F120 X69.607 Y27.649
G01 F120 X69.582 Y27.649
G01 F120 X69.582 Y27.624
G01 F120 X69.556 Y27.624
G01 F120 X69.556 Y27.599
G01 F120 X69.531 Y27.599
G01 F120 X69.531 Y27.573
G01 F120 X69.505 Y27.573
G01 F120 X69.505 Y27.548
G01 F120 X69.480 Y27.548
G01 F120 X69.480 Y27.497
G01 F120 X69.455 Y27.497
G01 F120 X69.455 Y27.472
G01 F120 X69.429 Y27.472
G01 F120 X69.429 Y27.432
G01 F120 X68.176 Y27.432
G01 F120 X68.082 Y27.412
G01 F120 X67.995 Y27.373
G01 F120 X67.917 Y27.316
G01 F120 X67.853 Y27.245
G01 F120 X67.805 Y27.162
G01 F120 X67.775 Y27.070
G01 F120 X67.766 Y26.983
G01 F120 X67.766 Y19.863
G01 F120 X58.300 Y19.863
G01 F120 X56.010 Y22.040
G01 F120 X56.032 Y25.973
G01 F120 X56.129 Y26.016
G01 F120 X56.316 Y26.152
G01 F120 X56.471 Y26.324
G01 F120 X56.587 Y26.524
G01 F120 X56.658 Y26.745
G01 F120 X56.683 Y26.975
G01 F120 X56.658 Y27.205
G01 F120 X56.587 Y27.425
G01 F120 X56.471 Y27.626
G01 F120 X56.316 Y27.798
G01 F120 X56.129 Y27.934
G01 F120 X55.917 Y28.028
G01 F120 X55.691 Y28.076
G01 F120 X55.460 Y28.076
G01 F120 X55.233 Y28.028
G01 F120 X55.022 Y27.934
G01 F120 X54.834 Y27.798
G01 F120 X54.679 Y27.626
G01 F120 X54.568 Y27.432
G01 F120 X45.893 Y27.432
G01 F120 X45.878 Y28.515
G01 F120 X45.969 Y28.556
G01 F120 X46.156 Y28.692
G01 F120 X46.311 Y28.864
G01 F120 X46.427 Y29.064
G01 F120 X46.498 Y29.285
G01 F120 X46.523 Y29.515
G01 F120 X46.498 Y29.745
G01 F120 X46.427 Y29.965
G01 F120 X46.311 Y30.166
G01 F120 X46.156 Y30.338
G01 F120 X45.969 Y30.474
G01 F120 X45.757 Y30.568
G01 F120 X45.531 Y30.616
G01 F120 X45.300 Y30.616
G01 F120 X45.073 Y30.568
G01 F120 X44.861 Y30.474
G01 F120 X44.674 Y30.338
G01 F120 X44.519 Y30.166
G01 F120 X44.407 Y29.972
G01 F120 X33.225 Y29.972
G01 F120 X33.225 Y37.092
G01 F120 X33.216 Y37.180
G01 F120 X33.186 Y37.271
G01 F120 X33.138 Y37.354
G01 F120 X33.074 Y37.426
G01 F120 X32.996 Y37.482
G01 F120 X32.908 Y37.521
G01 F120 X32.815 Y37.541
G01 F120 X26.104 Y37.590
G01 F120 X25.991 Y37.786
G01 F120 X25.836 Y37.958
G01 F120 X25.649 Y38.094
G01 F120 X25.437 Y38.188
G01 F120 X25.211 Y38.236
G01 F120 X24.980 Y38.236
G00 F3000 Z5.000
G00 F3000 X78.320 Y38.236
G00 F1500 Z0
G01 F120 Z-0.200
G01 F120 X78.093 Y38.188
G01 F120 X77.882 Y38.094
G01 F120 X77.694 Y37.958
G01 F120 X77.539 Y37.786
G01 F120 X77.428 Y37.592
G01 F120 X72.227 Y37.606
G01 F120 X72.227 Y37.657
G01 F120 X72.201 Y37.657
G01 F120 X72.201 Y37.708
G01 F120 X72.176 Y37.708
G01 F120 X72.176 Y37.733
G01 F120 X72.150 Y37.733
G01 F120 X72.150 Y37.759
G01 F120 X72.125 Y37.759
G01 F120 X72.125 Y37.784
G01 F120 X72.100 Y37.784
G01 F120 X72.100 Y37.809
G01 F120 X72.074 Y37.809
G01 F120 X72.074 Y37.835
G01 F120 X72.049 Y37.835
G01 F120 X72.049 Y37.860
G01 F120 X71.998 Y37.860
G01 F120 X71.998 Y37.886
G01 F120 X71.947 Y37.886
G01 F120 X71.947 Y37.911
G01 F120 X71.896 Y37.911
G01 F120 X71.896 Y37.937
G01 F120 X71.820 Y37.937
G01 F120 X71.820 Y37.962
G01 F120 X69.836 Y37.962
G01 F120 X69.836 Y37.937
G01 F120 X69.785 Y37.937
G01 F120 X69.785 Y37.911
G01 F120 X69.734 Y37.911
G01 F120 X69.734 Y37.886
G01 F120 X69.683 Y37.886
G01 F120 X69.683 Y37.860
G01 F120 X69.633 Y37.860
G01 F120 X69.633 Y37.835
G01 F120 X69.607 Y37.835
G01 F120 X69.607 Y37.809
G01 F120 X69.582 Y37.809
G01 F120 X69.582 Y37.784
G01 F120 X69.556 Y37.784
G01 F120 X69.556 Y37.759
G01 F120 X69.531 Y37.759
G01 F120 X69.531 Y37.733
G01 F120 X69.505 Y37.733
G01 F120 X69.505 Y37.708
G01 F120 X69.480 Y37.708
G01 F120 X69.480 Y37.657
G01 F120 X69.455 Y37.657
G01 F120 X69.455 Y37.632
G01 F120 X69.429 Y37.632
G01 F120 X69.429 Y37.581
G01 F120 X69.404 Y37.581
G01 F120 X69.404 Y37.505
G01 F120 X69.379 Y37.505
G01 F120 X69.379 Y37.352
G01 F120 X69.353 Y37.352
G01 F120 X69.353 Y36.943
G01 F120 X69.379 Y36.943
G01 F120 X69.379 Y36.816
G01 F120 X69.404 Y36.816
G01 F120 X69.404 Y36.739
G01 F120 X69.429 Y36.739
G01 F120 X69.429 Y36.689
G01 F120 X69.455 Y36.689
G01 F120 X69.455 Y36.663
G01 F120 X69.480 Y36.663
G01 F120 X69.480 Y36.613
G01 F120 X69.505 Y36.613
G01 F120 X69.505 Y36.587
G01 F120 X69.531 Y36.587
G01 F120 X69.531 Y36.562
G01 F120 X69.556 Y36.562
G01 F120 X69.556 Y36.536
G01 F120 X69.582 Y36.536
G01 F120 X69.582 Y36.511
G01 F120 X69.607 Y36.511
G01 F120 X69.607 Y36.486
G01 F120 X69.633 Y36.486
G01 F120 X69.633 Y36.460
G01 F120 X69.683 Y36.460
G01 F120 X69.683 Y36.435
G01 F120 X69.709 Y36.435
G01 F120 X69.709 Y36.409
G01 F120 X69.760 Y36.409
G01 F120 X69.760 Y36.384
G01 F120 X69.836 Y36.384
G01 F120 X69.836 Y36.358
G01 F120 X70.014 Y36.358
G01 F120 X70.014 Y36.333
G01 F120 X70.687 Y36.333
G01 F120 X70.730 Y36.324
G01 F120 X70.900 Y36.324
G01 F120 X70.943 Y36.333
G01 F120 X71.668 Y36.333
G01 F120 X71.668 Y36.358
G01 F120 X71.846 Y36.358
G01 F120 X71.846 Y36.384
G01 F120 X71.896 Y36.384
G01 F120 X71.896 Y36.409
G01 F120 X71.947 Y36.409
G01 F120 X71.947 Y36.435
G01 F120 X71.998 Y36.435
G01 F120 X71.998 Y36.460
G01 F120 X72.049 Y36.460
G01 F120 X72.049 Y36.486
G01 F120 X72.074 Y36.486
G01 F120 X72.074 Y36.511
G01 F120 X72.100 Y36.511
G01 F120 X72.100 Y36.536
G01 F120 X72.125 Y36.536
G01 F120 X72.125 Y36.562
G01 F120 X72.150 Y36.562
G01 F120 X72.150 Y36.587
G01 F120 X72.176 Y36.587
G01 F120 X72.176 Y36.613
G01 F120 X72.201 Y36.613
G01 F120 X72.201 Y36.678
G01 F120 X77.428 Y36.678
G01 F120 X77.539 Y36.484
G01 F120 X77.694 Y36.312
G01 F120 X77.882 Y36.176
G01 F120 X78.093 Y36.082
G01 F120 X78.320 Y36.034
G01 F120 X78.551 Y36.034
G01 F120 X78.777 Y36.082
G01 F120 X78.989 Y36.176
G01 F120 X79.176 Y36.312
G01 F120 X79.331 Y36.484
G01 F120 X79.443 Y36.678
G01 F120 X82.508 Y36.678
G01 F120 X82.619 Y36.484
G01 F120 X82.774 Y36.312
G01 F120 X82.962 Y36.176
G01 F120 X83.173 Y36.082
G01 F120 X83.400 Y36.034
G01 F120 X83.631 Y36.034
G01 F120 X83.857 Y36.082
G01 F120 X84.069 Y36.176
G01 F120 X84.256 Y36.312
G01 F120 X84.411 Y36.484
G01 F120 X84.527 Y36.684
G01 F120 X84.598 Y36.905
G01 F120 X84.623 Y37.135
G01 F120 X84.598 Y37.365
G01 F120 X84.527 Y37.585
G01 F120 X84.411 Y37.786
G01 F120 X84.256 Y37.958
G01 F120 X84.069 Y38.094
G01 F120 X83.857 Y38.188
G01 F120 X83.631 Y38.236
G01 F120 X83.400 Y38.236
G01 F120 X83.173 Y38.188
G01 F120 X82.962 Y38.094
G01 F120 X82.774 Y37.958
G01 F120 X82.619 Y37.786
G01 F120 X82.508 Y37.592
G01 F120 X79.443 Y37.592
G01 F120 X79.331 Y37.786
G01 F120 X79.176 Y37.958
G01 F120 X78.989 Y38.094
G01 F120 X78.777 Y38.188
G01 F120 X78.551 Y38.236
G01 F120 X78.320 Y38.236
G00 F3000 Z5.000
G00 F3000 X62.216 Y35.422
G00 F1500 Z0
G01 F120 Z-0.200
G01 F120 X62.216 Y35.397
G01 F120 X62.165 Y35.397
G01 F120 X62.165 Y35.371
G01 F120 X62.114 Y35.371
G01 F120 X62.114 Y35.346
G01 F120 X62.063 Y35.346
G01 F120 X62.063 Y35.320
G01 F120 X62.013 Y35.320
G01 F120 X62.013 Y35.295
G01 F120 X61.987 Y35.295
G01 F120 X61.987 Y35.270
G01 F120 X61.962 Y35.270
G01 F120 X61.962 Y35.244
G01 F120 X61.936 Y35.244
G01 F120 X61.936 Y35.219
G01 F120 X61.911 Y35.219
G01 F120 X61.911 Y35.193
G01 F120 X61.886 Y35.193
G01 F120 X61.886 Y35.168
G01 F120 X61.860 Y35.168
G01 F120 X61.860 Y35.117
G01 F120 X61.835 Y35.117
G01 F120 X61.835 Y35.066
G01 F120 X61.809 Y35.066
G01 F120 X61.809 Y35.041
G01 F120 X61.784 Y35.041
G01 F120 X61.784 Y34.965
G01 F120 X61.759 Y34.965
G01 F120 X61.759 Y34.787
G01 F120 X61.733 Y34.787
G01 F120 X61.733 Y34.453
G01 F120 X61.759 Y34.453
G01 F120 X61.759 Y34.276
G01 F120 X61.784 Y34.276
G01 F120 X61.784 Y34.200
G01 F120 X61.809 Y34.200
G01 F120 X61.809 Y34.174
G01 F120 X61.835 Y34.174
G01 F120 X61.835 Y34.123
G01 F120 X61.860 Y34.123
G01 F120 X61.860 Y34.073
G01 F120 X61.886 Y34.073
G01 F120 X61.886 Y34.047
G01 F120 X61.911 Y34.047
G01 F120 X61.911 Y34.022
G01 F120 X61.936 Y34.022
G01 F120 X61.936 Y33.996
G01 F120 X61.962 Y33.996
G01 F120 X61.962 Y33.971
G01 F120 X61.987 Y33.971
G01 F120 X61.987 Y33.946
G01 F120 X62.013 Y33.946
G01 F120 X62.013 Y33.920
G01 F120 X62.063 Y33.920
G01 F120 X62.063 Y33.895
G01 F120 X62.114 Y33.895
G01 F120 X62.114 Y33.869
G01 F120 X62.140 Y33.869
G01 F120 X62.140 Y33.844
G01 F120 X62.216 Y33.844
G01 F120 X62.216 Y33.819
G01 F120 X62.419 Y33.819
G01 F120 X62.419 Y33.793
G01 F120 X63.067 Y33.793
G01 F120 X63.110 Y33.784
G01 F120 X63.280 Y33.784
G01 F120 X63.323 Y33.793
G01 F120 X64.022 Y33.793
G01 F120 X64.022 Y33.819
G01 F120 X64.225 Y33.819
G01 F120 X64.225 Y33.844
G01 F120 X64.276 Y33.844
G01 F120 X64.276 Y33.869
G01 F120 X64.327 Y33.869
G01 F120 X64.327 Y33.895
G01 F120 X64.378 Y33.895
G01 F120 X64.378 Y33.920
G01 F120 X64.429 Y33.920
G01 F120 X64.429 Y33.946
G01 F120 X64.454 Y33.946
G01 F120 X64.454 Y33.971
G01 F120 X64.480 Y33.971
G01 F120 X64.480 Y33.996
G01 F120 X64.505 Y33.996
G01 F120 X64.505 Y34.022
G01 F120 X64.530 Y34.022
G01 F120 X64.530 Y34.047
G01 F120 X64.556 Y34.047
G01 F120 X64.556 Y34.073
G01 F120 X64.581 Y34.073
G01 F120 X64.581 Y34.123
G01 F120 X64.606 Y34.123
G01 F120 X64.606 Y34.174
G01 F120 X64.632 Y34.174
G01 F120 X64.632 Y34.225
G01 F120 X64.657 Y34.225
G01 F120 X64.657 Y34.301
G01 F120 X64.683 Y34.301
G01 F120 X64.683 Y34.939
G01 F120 X64.657 Y34.939
G01 F120 X64.657 Y35.016
G01 F120 X64.632 Y35.016
G01 F120 X64.632 Y35.066
G01 F120 X64.606 Y35.066
G01 F120 X64.606 Y35.117
G01 F120 X64.581 Y35.117
G01 F120 X64.581 Y35.168
G01 F120 X64.556 Y35.168
G01 F120 X64.556 Y35.193
G01 F120 X64.530 Y35.193
G01 F120 X64.530 Y35.219
G01 F120 X64.505 Y35.219
G01 F120 X64.505 Y35.244
G01 F120 X64.480 Y35.244
G01 F120 X64.480 Y35.270
G01 F120 X64.454 Y35.270
G01 F120 X64.454 Y35.295
G01 F120 X64.429 Y35.295
G01 F120 X64.429 Y35.320
G01 F120 X64.378 Y35.320
G01 F120 X64.378 Y35.346
G01 F120 X64.327 Y35.346
G01 F120 X64.327 Y35.371
G01 F120 X64.276 Y35.371
G01 F120 X64.276 Y35.397
G01 F120 X64.200 Y35.397
G01 F120 X64.200 Y35.422
G01 F120 X62.216 Y35.422
G00 F3000 Z5.000
G00 F3000 X69.836 Y35.422
G00 F1500 Z0
G01 F120 Z-0.200
G01 F120 X69.836 Y35.397
G01 F120 X69.760 Y35.397
G01 F120 X69.760 Y35.371
G01 F120 X69.734 Y35.371
G01 F120 X69.734 Y35.346
G01 F120 X69.683 Y35.346
G01 F120 X69.683 Y35.320
G01 F120 X69.633 Y35.320
G01 F120 X69.633 Y35.295
G01 F120 X69.607 Y35.295
G01 F120 X69.607 Y35.270
G01 F120 X69.582 Y35.270
G01 F120 X69.582 Y35.244
G01 F120 X69.556 Y35.244
G01 F120 X69.556 Y35.219
G01 F120 X69.531 Y35.219
G01 F120 X69.531 Y35.193
G01 F120 X69.505 Y35.193
G01 F120 X69.505 Y35.168
G01 F120 X69.480 Y35.168
G01 F120 X69.480 Y35.117
G01 F120 X69.455 Y35.117
G01 F120 X69.455 Y35.092
G01 F120 X69.429 Y35.092
G01 F120 X69.429 Y35.041
G01 F120 X69.404 Y35.041
G01 F120 X69.404 Y34.965
G01 F120 X69.379 Y34.965
G01 F120 X69.379 Y34.812
G01 F120 X69.353 Y34.812
G01 F120 X69.353 Y34.403
G01 F120 X69.379 Y34.403
G01 F120 X69.379 Y34.276
G01 F120 X69.404 Y34.276
G01 F120 X69.404 Y34.200
G01 F120 X69.429 Y34.200
G01 F120 X69.429 Y34.149
G01 F120 X69.455 Y34.149
G01 F120 X69.455 Y34.123
G01 F120 X69.480 Y34.123
G01 F120 X69.480 Y34.073
G01 F120 X69.505 Y34.073
G01 F120 X69.505 Y34.047
G01 F120 X69.531 Y34.047
G01 F120 X69.531 Y34.022
G01 F120 X69.556 Y34.022
G01 F120 X69.556 Y33.996
G01 F120 X69.582 Y33.996
G01 F120 X69.582 Y33.971
G01 F120 X69.607 Y33.971
G01 F120 X69.607 Y33.946
G01 F120 X69.633 Y33.946
G01 F120 X69.633 Y33.920
G01 F120 X69.683 Y33.920
G01 F120 X69.683 Y33.895
G01 F120 X69.734 Y33.895
G01 F120 X69.734 Y33.869
G01 F120 X69.760 Y33.869
G01 F120 X69.760 Y33.844
G01 F120 X69.836 Y33.844
G01 F120 X69.836 Y33.819
G01 F120 X70.039 Y33.819
G01 F120 X70.039 Y33.793
G01 F120 X70.687 Y33.793
G01 F120 X70.730 Y33.784
G01 F120 X70.900 Y33.784
G01 F120 X70.943 Y33.793
G01 F120 X71.642 Y33.793
G01 F120 X71.642 Y33.819
G01 F120 X71.820 Y33.819
G01 F120 X71.820 Y33.844
G01 F120 X71.896 Y33.844
G01 F120 X71.896 Y33.869
G01 F120 X71.947 Y33.869
G01 F120 X71.947 Y33.895
G01 F120 X71.998 Y33.895
G01 F120 X71.998 Y33.920
G01 F120 X72.049 Y33.920
G01 F120 X72.049 Y33.946
G01 F120 X72.074 Y33.946
G01 F120 X72.074 Y33.971
G01 F120 X72.100 Y33.971
G01 F120 X72.100 Y33.996
G01 F120 X72.125 Y33.996
G01 F120 X72.125 Y34.022
G01 F120 X72.150 Y34.022
G01 F120 X72.150 Y34.047
G01 F120 X72.176 Y34.047
G01 F120 X72.176 Y34.073
G01 F120 X72.201 Y34.073
G01 F120 X72.201 Y34.145
G01 F120 X75.436 Y34.183
G01 F120 X75.436 Y24.893
G01 F120 X72.227 Y24.906
G01 F120 X72.227 Y24.957
G01 F120 X72.201 Y24.957
G01 F120 X72.201 Y25.008
G01 F120 X72.176 Y25.008
G01 F120 X72.176 Y25.033
G01 F120 X72.150 Y25.033
G01 F120 X72.150 Y25.059
G01 F120 X72.125 Y25.059
G01 F120 X72.125 Y25.084
G01 F120 X72.100 Y25.084
G01 F120 X72.100 Y25.110
G01 F120 X72.074 Y25.110
G01 F120 X72.074 Y25.135
G01 F120 X72.049 Y25.135
G01 F120 X72.049 Y25.160
G01 F120 X71.998 Y25.160
G01 F120 X71.998 Y25.186
G01 F120 X71.947 Y25.186
G01 F120 X71.947 Y25.211
G01 F120 X71.922 Y25.211
G01 F120 X71.922 Y25.236
G01 F120 X71.846 Y25.236
G01 F120 X71.846 Y25.262
G01 F120 X71.719 Y25.262
G01 F120 X71.719 Y25.287
G01 F120 X69.963 Y25.287
G01 F120 X69.963 Y25.262
G01 F120 X69.836 Y25.262
G01 F120 X69.836 Y25.236
G01 F120 X69.760 Y25.236
G01 F120 X69.760 Y25.211
G01 F120 X69.709 Y25.211
G01 F120 X69.709 Y25.186
G01 F120 X69.658 Y25.186
G01 F120 X69.658 Y25.160
G01 F120 X69.633 Y25.160
G01 F120 X69.633 Y25.135
G01 F120 X69.607 Y25.135
G01 F120 X69.607 Y25.110
G01 F120 X69.582 Y25.110
G01 F120 X69.582 Y25.084
G01 F120 X69.556 Y25.084
G01 F120 X69.556 Y25.059
G01 F120 X69.531 Y25.059
G01 F120 X69.531 Y25.033
G01 F120 X69.505 Y25.033
G01 F120 X69.505 Y25.008
G01 F120 X69.480 Y25.008
G01 F120 X69.480 Y24.983
G01 F120 X69.455 Y24.983
G01 F120 X69.455 Y24.932
G01 F120 X69.429 Y24.932
G01 F120 X69.429 Y24.881
G01 F120 X69.404 Y24.881
G01 F120 X69.404 Y24.805
G01 F120 X69.379 Y24.805
G01 F120 X69.379 Y24.678
G01 F120 X69.353 Y24.678
G01 F120 X69.353 Y24.268
G01 F120 X69.379 Y24.268
G01 F120 X69.379 Y24.116
G01 F120 X69.404 Y24.116
G01 F120 X69.404 Y24.040
G01 F120 X69.429 Y24.040
G01 F120 X69.429 Y24.014
G01 F120 X69.455 Y24.014
G01 F120 X69.455 Y23.963
G01 F120 X69.480 Y23.963
G01 F120 X69.480 Y23.913
G01 F120 X69.505 Y23.913
G01 F120 X69.505 Y23.887
G01 F120 X69.531 Y23.887
G01 F120 X69.531 Y23.862
G01 F120 X69.556 Y23.862
G01 F120 X69.556 Y23.836
G01 F120 X69.582 Y23.836
G01 F120 X69.582 Y23.811
G01 F120 X69.607 Y23.811
G01 F120 X69.607 Y23.786
G01 F120 X69.633 Y23.786
G01 F120 X69.633 Y23.760
G01 F120 X69.683 Y23.760
G01 F120 X69.683 Y23.735
G01 F120 X69.734 Y23.735
G01 F120 X69.734 Y23.709
G01 F120 X69.785 Y23.709
G01 F120 X69.785 Y23.684
G01 F120 X69.861 Y23.684
G01 F120 X69.861 Y23.660
G01 F120 X70.594 Y23.653
G01 F120 X70.730 Y23.624
G01 F120 X70.902 Y23.624
G01 F120 X71.050 Y23.659
G01 F120 X71.820 Y23.659
G01 F120 X71.820 Y23.684
G01 F120 X71.896 Y23.684
G01 F120 X71.896 Y23.709
G01 F120 X71.947 Y23.709
G01 F120 X71.947 Y23.735
G01 F120 X71.998 Y23.735
G01 F120 X71.998 Y23.760
G01 F120 X72.023 Y23.760
G01 F120 X72.023 Y23.786
G01 F120 X72.074 Y23.786
G01 F120 X72.074 Y23.811
G01 F120 X72.100 Y23.811
G01 F120 X72.100 Y23.836
G01 F120 X72.125 Y23.836
G01 F120 X72.125 Y23.862
G01 F120 X72.150 Y23.862
G01 F120 X72.150 Y23.887
G01 F120 X72.176 Y23.887
G01 F120 X72.176 Y23.938
G01 F120 X72.201 Y23.938
G01 F120 X72.201 Y23.974
G01 F120 X75.863 Y23.952
G01 F120 X75.943 Y23.952
G01 F120 X76.037 Y23.972
G01 F120 X76.050 Y23.978
G01 F120 X82.508 Y23.978
G01 F120 X82.619 Y23.784
G01 F120 X82.774 Y23.612
G01 F120 X82.962 Y23.476
G01 F120 X83.173 Y23.382
G01 F120 X83.400 Y23.334
G01 F120 X83.631 Y23.334
G01 F120 X83.857 Y23.382
G01 F120 X84.069 Y23.476
G01 F120 X84.256 Y23.612
G01 F120 X84.411 Y23.784
G01 F120 X84.527 Y23.984
G01 F120 X84.598 Y24.205
G01 F120 X84.623 Y24.435
G01 F120 X84.598 Y24.665
G01 F120 X84.527 Y24.885
G01 F120 X84.411 Y25.086
G01 F120 X84.256 Y25.258
G01 F120 X84.069 Y25.394
G01 F120 X83.974 Y25.436
G01 F120 X83.974 Y25.974
G01 F120 X84.069 Y26.016
G01 F120 X84.256 Y26.152
G01 F120 X84.411 Y26.324
G01 F120 X84.527 Y26.524
G01 F120 X84.598 Y26.745
G01 F120 X84.623 Y26.975
G01 F120 X84.598 Y27.205
G01 F120 X84.527 Y27.425
G01 F120 X84.411 Y27.626
G01 F120 X84.256 Y27.798
G01 F120 X84.069 Y27.934
G01 F120 X83.857 Y28.028
G01 F120 X83.631 Y28.076
G01 F120 X83.400 Y28.076
G01 F120 X83.173 Y28.028
G01 F120 X82.962 Y27.934
G01 F120 X82.774 Y27.798
G01 F120 X82.619 Y27.626
G01 F120 X82.504 Y27.425
G01 F120 X82.432 Y27.205
G01 F120 X82.408 Y26.975
G01 F120 X82.432 Y26.745
G01 F120 X82.504 Y26.524
G01 F120 X82.619 Y26.324
G01 F120 X82.774 Y26.152
G01 F120 X82.962 Y26.016
G01 F120 X83.056 Y25.974
G01 F120 X83.056 Y25.436
G01 F120 X82.962 Y25.394
G01 F120 X82.774 Y25.258
G01 F120 X82.619 Y25.086
G01 F120 X82.508 Y24.892
G01 F120 X76.354 Y24.892
G01 F120 X76.354 Y34.654
G01 F120 X76.345 Y34.741
G01 F120 X76.315 Y34.833
G01 F120 X76.267 Y34.916
G01 F120 X76.203 Y34.987
G01 F120 X76.125 Y35.044
G01 F120 X76.037 Y35.083
G01 F120 X75.943 Y35.103
G01 F120 X75.862 Y35.103
G01 F120 X72.227 Y35.068
G01 F120 X72.227 Y35.117
G01 F120 X72.201 Y35.117
G01 F120 X72.201 Y35.168
G01 F120 X72.176 Y35.168
G01 F120 X72.176 Y35.193
G01 F120 X72.150 Y35.193
G01 F120 X72.150 Y35.219
G01 F120 X72.125 Y35.219
G01 F120 X72.125 Y35.244
G01 F120 X72.100 Y35.244
G01 F120 X72.100 Y35.270
G01 F120 X72.074 Y35.270
G01 F120 X72.074 Y35.295
G01 F120 X72.049 Y35.295
G01 F120 X72.049 Y35.320
G01 F120 X71.998 Y35.320
G01 F120 X71.998 Y35.346
G01 F120 X71.947 Y35.346
G01 F120 X71.947 Y35.371
G01 F120 X71.896 Y35.371
G01 F120 X71.896 Y35.397
G01 F120 X71.820 Y35.397
G01 F120 X71.820 Y35.422
G01 F120 X69.836 Y35.422
G00 F3000 Z5.000
G00 F3000 X37.680 Y33.156
G00 F1500 Z0
G01 F120 Z-0.200
G01 F120 X37.453 Y33.108
G01 F120 X37.242 Y33.014
G01 F120 X37.054 Y32.878
G01 F120 X36.899 Y32.706
G01 F120 X36.784 Y32.505
G01 F120 X36.712 Y32.285
G01 F120 X36.688 Y32.055
G01 F120 X36.712 Y31.825
G01 F120 X36.784 Y31.604
G01 F120 X36.899 Y31.404
G01 F120 X37.054 Y31.232
G01 F120 X37.242 Y31.096
G01 F120 X37.453 Y31.002
G01 F120 X37.680 Y30.954
G01 F120 X37.911 Y30.954
G01 F120 X38.137 Y31.002
G01 F120 X38.349 Y31.096
G01 F120 X38.536 Y31.232
G01 F120 X38.691 Y31.404
G01 F120 X38.803 Y31.598
G01 F120 X44.407 Y31.598
G01 F120 X44.519 Y31.404
G01 F120 X44.674 Y31.232
G01 F120 X44.861 Y31.096
G01 F120 X45.073 Y31.002
G01 F120 X45.300 Y30.954
G01 F120 X45.531 Y30.954
G01 F120 X45.757 Y31.002
G01 F120 X45.969 Y31.096
G01 F120 X46.156 Y31.232
G01 F120 X46.311 Y31.404
G01 F120 X46.427 Y31.604
G01 F120 X46.498 Y31.825
G01 F120 X46.523 Y32.055
G01 F120 X46.498 Y32.285
G01 F120 X46.427 Y32.505
G01 F120 X46.311 Y32.706
G01 F120 X46.156 Y32.878
G01 F120 X45.969 Y33.014
G01 F120 X45.757 Y33.108
G01 F120 X45.531 Y33.156
G01 F120 X45.300 Y33.156
G01 F120 X45.073 Y33.108
G01 F120 X44.861 Y33.014
G01 F120 X44.674 Y32.878
G01 F120 X44.519 Y32.706
G01 F120 X44.407 Y32.512
G01 F120 X38.803 Y32.512
G01 F120 X38.691 Y32.706
G01 F120 X38.536 Y32.878
G01 F120 X38.349 Y33.014
G01 F120 X38.137 Y33.108
G01 F120 X37.911 Y33.156
G01 F120 X37.680 Y33.156
G00 F3000 Z5.000
G00 F3000 X70.014 Y32.907
G00 F1500 Z0
G01 F120 Z-0.200
G01 F120 X70.014 Y32.882
G01 F120 X69.836 Y32.882
G01 F120 X69.836 Y32.857
G01 F120 X69.760 Y32.857
G01 F120 X69.760 Y32.831
G01 F120 X69.709 Y32.831
G01 F120 X69.709 Y32.806
G01 F120 X69.683 Y32.806
G01 F120 X69.683 Y32.780
G01 F120 X69.633 Y32.780
G01 F120 X69.633 Y32.755
G01 F120 X69.607 Y32.755
G01 F120 X69.607 Y32.730
G01 F120 X69.582 Y32.730
G01 F120 X69.582 Y32.704
G01 F120 X69.556 Y32.704
G01 F120 X69.556 Y32.679
G01 F120 X69.531 Y32.679
G01 F120 X69.531 Y32.653
G01 F120 X69.505 Y32.653
G01 F120 X69.505 Y32.628
G01 F120 X69.480 Y32.628
G01 F120 X69.480 Y32.577
G01 F120 X69.455 Y32.577
G01 F120 X69.455 Y32.552
G01 F120 X69.429 Y32.552
G01 F120 X69.429 Y32.501
G01 F120 X69.404 Y32.501
G01 F120 X69.404 Y32.425
G01 F120 X69.379 Y32.425
G01 F120 X69.379 Y32.298
G01 F120 X69.353 Y32.298
G01 F120 X69.353 Y31.888
G01 F120 X69.379 Y31.888
G01 F120 X69.379 Y31.736
G01 F120 X69.404 Y31.736
G01 F120 X69.404 Y31.660
G01 F120 X69.429 Y31.660
G01 F120 X69.429 Y31.609
G01 F120 X69.455 Y31.609
G01 F120 X69.455 Y31.583
G01 F120 X69.480 Y31.583
G01 F120 X69.480 Y31.533
G01 F120 X69.505 Y31.533
G01 F120 X69.505 Y31.507
G01 F120 X69.531 Y31.507
G01 F120 X69.531 Y31.482
G01 F120 X69.556 Y31.482
G01 F120 X69.556 Y31.456
G01 F120 X69.582 Y31.456
G01 F120 X69.582 Y31.431
G01 F120 X69.607 Y31.431
G01 F120 X69.607 Y31.405
G01 F120 X69.633 Y31.405
G01 F120 X69.633 Y31.380
G01 F120 X69.683 Y31.380
G01 F120 X69.683 Y31.355
G01 F120 X69.734 Y31.355
G01 F120 X69.734 Y31.329
G01 F120 X69.785 Y31.329
G01 F120 X69.785 Y31.304
G01 F120 X69.836 Y31.304
G01 F120 X69.836 Y31.280
G01 F120 X70.594 Y31.273
G01 F120 X70.730 Y31.244
G01 F120 X70.902 Y31.244
G01 F120 X71.050 Y31.279
G01 F120 X71.820 Y31.279
G01 F120 X71.820 Y31.304
G01 F120 X71.896 Y31.304
G01 F120 X71.896 Y31.329
G01 F120 X71.947 Y31.329
G01 F120 X71.947 Y31.355
G01 F120 X71.998 Y31.355
G01 F120 X71.998 Y31.380
G01 F120 X72.049 Y31.380
G01 F120 X72.049 Y31.405
G01 F120 X72.074 Y31.405
G01 F120 X72.074 Y31.431
G01 F120 X72.100 Y31.431
G01 F120 X72.100 Y31.456
G01 F120 X72.125 Y31.456
G01 F120 X72.125 Y31.482
G01 F120 X72.150 Y31.482
G01 F120 X72.150 Y31.507
G01 F120 X72.176 Y31.507
G01 F120 X72.176 Y31.533
G01 F120 X72.201 Y31.533
G01 F120 X72.201 Y31.583
G01 F120 X72.227 Y31.583
G01 F120 X72.227 Y31.634
G01 F120 X72.252 Y31.634
G01 F120 X72.252 Y31.685
G01 F120 X72.277 Y31.685
G01 F120 X72.277 Y31.761
G01 F120 X72.303 Y31.761
G01 F120 X72.303 Y32.399
G01 F120 X72.277 Y32.399
G01 F120 X72.277 Y32.476
G01 F120 X72.252 Y32.476
G01 F120 X72.252 Y32.526
G01 F120 X72.227 Y32.526
G01 F120 X72.227 Y32.577
G01 F120 X72.201 Y32.577
G01 F120 X72.201 Y32.628
G01 F120 X72.176 Y32.628
G01 F120 X72.176 Y32.653
G01 F120 X72.150 Y32.653
G01 F120 X72.150 Y32.679
G01 F120 X72.125 Y32.679
G01 F120 X72.125 Y32.704
G01 F120 X72.100 Y32.704
G01 F120 X72.100 Y32.730
G01 F120 X72.074 Y32.730
G01 F120 X72.074 Y32.755
G01 F120 X72.049 Y32.755
G01 F120 X72.049 Y32.780
G01 F120 X71.998 Y32.780
G01 F120 X71.998 Y32.806
G01 F120 X71.947 Y32.806
G01 F120 X71.947 Y32.831
G01 F120 X71.896 Y32.831
G01 F120 X71.896 Y32.857
G01 F120 X71.846 Y32.857
G01 F120 X71.846 Y32.882
G01 F120 X71.668 Y32.882
G01 F120 X71.668 Y32.907
G01 F120 X70.014 Y32.907
G00 F3000 Z5.000
G00 F3000 X62.394 Y32.907
G00 F1500 Z0
G01 F120 Z-0.200
G01 F120 X62.394 Y32.882
G01 F120 X62.216 Y32.882
G01 F120 X62.216 Y32.857
G01 F120 X62.140 Y32.857
G01 F120 X62.140 Y32.831
G01 F120 X62.114 Y32.831
G01 F120 X62.114 Y32.806
G01 F120 X62.063 Y32.806
G01 F120 X62.063 Y32.780
G01 F120 X62.013 Y32.780
G01 F120 X62.013 Y32.755
G01 F120 X61.987 Y32.755
G01 F120 X61.987 Y32.730
G01 F120 X61.962 Y32.730
G01 F120 X61.962 Y32.704
G01 F120 X61.936 Y32.704
G01 F120 X61.936 Y32.679
G01 F120 X61.911 Y32.679
G01 F120 X61.911 Y32.653
G01 F120 X61.886 Y32.653
G01 F120 X61.886 Y32.628
G01 F120 X61.860 Y32.628
G01 F120 X61.860 Y32.577
G01 F120 X61.835 Y32.577
G01 F120 X61.835 Y32.526
G01 F120 X61.809 Y32.526
G01 F120 X61.809 Y32.501
G01 F120 X61.784 Y32.501
G01 F120 X61.784 Y32.425
G01 F120 X61.759 Y32.425
G01 F120 X61.759 Y32.247
G01 F120 X61.733 Y32.247
G01 F120 X61.733 Y31.914
G01 F120 X61.759 Y31.914
G01 F120 X61.759 Y31.736
G01 F120 X61.784 Y31.736
G01 F120 X61.784 Y31.660
G01 F120 X61.809 Y31.660
G01 F120 X61.809 Y31.634
G01 F120 X61.835 Y31.634
G01 F120 X61.835 Y31.583
G01 F120 X61.860 Y31.583
G01 F120 X61.860 Y31.533
G01 F120 X61.886 Y31.533
G01 F120 X61.886 Y31.507
G01 F120 X61.911 Y31.507
G01 F120 X61.911 Y31.482
G01 F120 X61.936 Y31.482
G01 F120 X61.936 Y31.456
G01 F120 X61.962 Y31.456
G01 F120 X61.962 Y31.431
G01 F120 X61.987 Y31.431
G01 F120 X61.987 Y31.405
G01 F120 X62.013 Y31.405
G01 F120 X62.013 Y31.380
G01 F120 X62.063 Y31.380
G01 F120 X62.063 Y31.355
G01 F120 X62.114 Y31.355
G01 F120 X62.114 Y31.329
G01 F120 X62.165 Y31.329
G01 F120 X62.165 Y31.304
G01 F120 X62.241 Y31.304
G01 F120 X62.241 Y31.280
G01 F120 X62.974 Y31.273
G01 F120 X63.110 Y31.244
G01 F120 X63.282 Y31.244
G01 F120 X63.430 Y31.279
G01 F120 X64.200 Y31.279
G01 F120 X64.200 Y31.304
G01 F120 X64.276 Y31.304
G01 F120 X64.276 Y31.329
G01 F120 X64.327 Y31.329
G01 F120 X64.327 Y31.355
G01 F120 X64.378 Y31.355
G01 F120 X64.378 Y31.380
G01 F120 X64.429 Y31.380
G01 F120 X64.429 Y31.405
G01 F120 X64.454 Y31.405
G01 F120 X64.454 Y31.431
G01 F120 X64.480 Y31.431
G01 F120 X64.480 Y31.456
G01 F120 X64.505 Y31.456
G01 F120 X64.505 Y31.482
G01 F120 X64.530 Y31.482
G01 F120 X64.530 Y31.507
G01 F120 X64.556 Y31.507
G01 F120 X64.556 Y31.533
G01 F120 X64.581 Y31.533
G01 F120 X64.581 Y31.583
G01 F120 X64.606 Y31.583
G01 F120 X64.606 Y31.634
G01 F120 X64.632 Y31.634
G01 F120 X64.632 Y31.685
G01 F120 X64.657 Y31.685
G01 F120 X64.657 Y31.761
G01 F120 X64.683 Y31.761
G01 F120 X64.683 Y32.399
G01 F120 X64.657 Y32.399
G01 F120 X64.657 Y32.476
G01 F120 X64.632 Y32.476
G01 F120 X64.632 Y32.526
G01 F120 X64.606 Y32.526
G01 F120 X64.606 Y32.577
G01 F120 X64.581 Y32.577
G01 F120 X64.581 Y32.628
G01 F120 X64.556 Y32.628
G01 F120 X64.556 Y32.653
G01 F120 X64.530 Y32.653
G01 F120 X64.530 Y32.679
G01 F120 X64.505 Y32.679
G01 F120 X64.505 Y32.704
G01 F120 X64.480 Y32.704
G01 F120 X64.480 Y32.730
G01 F120 X64.454 Y32.730
G01 F120 X64.454 Y32.755
G01 F120 X64.429 Y32.755
G01 F120 X64.429 Y32.780
G01 F120 X64.378 Y32.780
G01 F120 X64.378 Y32.806
G01 F120 X64.327 Y32.806
G01 F120 X64.327 Y32.831
G01 F120 X64.276 Y32.831
G01 F120 X64.276 Y32.857
G01 F120 X64.225 Y32.857
G01 F120 X64.225 Y32.882
G01 F120 X64.048 Y32.882
G01 F120 X64.048 Y32.907
G01 F120 X62.394 Y32.907
G00 F3000 Z5.000
G00 F3000 X62.368 Y30.367
G00 F1500 Z0
G01 F120 Z-0.200
G01 F120 X62.368 Y30.342
G01 F120 X62.216 Y30.342
G01 F120 X62.216 Y30.317
G01 F120 X62.140 Y30.317
G01 F120 X62.140 Y30.291
G01 F120 X62.089 Y30.291
G01 F120 X62.089 Y30.266
G01 F120 X62.063 Y30.266
G01 F120 X62.063 Y30.240
G01 F120 X62.013 Y30.240
G01 F120 X62.013 Y30.215
G01 F120 X61.987 Y30.215
G01 F120 X61.987 Y30.190
G01 F120 X61.962 Y30.190
G01 F120 X61.962 Y30.164
G01 F120 X61.936 Y30.164
G01 F120 X61.936 Y30.139
G01 F120 X61.911 Y30.139
G01 F120 X61.911 Y30.113
G01 F120 X61.886 Y30.113
G01 F120 X61.886 Y30.088
G01 F120 X61.860 Y30.088
G01 F120 X61.860 Y30.037
G01 F120 X61.835 Y30.037
G01 F120 X61.835 Y29.986
G01 F120 X61.809 Y29.986
G01 F120 X61.809 Y29.961
G01 F120 X61.784 Y29.961
G01 F120 X61.784 Y29.885
G01 F120 X61.759 Y29.885
G01 F120 X61.759 Y29.707
G01 F120 X61.733 Y29.707
G01 F120 X61.733 Y29.373
G01 F120 X61.759 Y29.373
G01 F120 X61.759 Y29.196
G01 F120 X61.784 Y29.196
G01 F120 X61.784 Y29.145
G01 F120 X61.809 Y29.145
G01 F120 X61.809 Y29.094
G01 F120 X61.835 Y29.094
G01 F120 X61.835 Y29.043
G01 F120 X61.860 Y29.043
G01 F120 X61.860 Y28.992
G01 F120 X61.886 Y28.992
G01 F120 X61.886 Y28.967
G01 F120 X61.911 Y28.967
G01 F120 X61.911 Y28.942
G01 F120 X61.936 Y28.942
G01 F120 X61.936 Y28.916
G01 F120 X61.962 Y28.916
G01 F120 X61.962 Y28.891
G01 F120 X61.987 Y28.891
G01 F120 X61.987 Y28.866
G01 F120 X62.013 Y28.866
G01 F120 X62.013 Y28.840
G01 F120 X62.063 Y28.840
G01 F120 X62.063 Y28.815
G01 F120 X62.114 Y28.815
G01 F120 X62.114 Y28.789
G01 F120 X62.165 Y28.789
G01 F120 X62.165 Y28.764
G01 F120 X62.241 Y28.764
G01 F120 X62.241 Y28.740
G01 F120 X62.974 Y28.733
G01 F120 X63.110 Y28.704
G01 F120 X63.282 Y28.704
G01 F120 X63.430 Y28.739
G01 F120 X64.200 Y28.739
G01 F120 X64.200 Y28.764
G01 F120 X64.276 Y28.764
G01 F120 X64.276 Y28.789
G01 F120 X64.327 Y28.789
G01 F120 X64.327 Y28.815
G01 F120 X64.378 Y28.815
G01 F120 X64.378 Y28.840
G01 F120 X64.429 Y28.840
G01 F120 X64.429 Y28.866
G01 F120 X64.454 Y28.866
G01 F120 X64.454 Y28.891
G01 F120 X64.480 Y28.891
G01 F120 X64.480 Y28.916
G01 F120 X64.505 Y28.916
G01 F120 X64.505 Y28.942
G01 F120 X64.530 Y28.942
G01 F120 X64.530 Y28.967
G01 F120 X64.556 Y28.967
G01 F120 X64.556 Y28.992
G01 F120 X64.581 Y28.992
G01 F120 X64.581 Y29.043
G01 F120 X64.606 Y29.043
G01 F120 X64.606 Y29.094
G01 F120 X64.632 Y29.094
G01 F120 X64.632 Y29.145
G01 F120 X64.657 Y29.145
G01 F120 X64.657 Y29.221
G01 F120 X64.683 Y29.221
G01 F120 X64.683 Y29.859
G01 F120 X64.657 Y29.859
G01 F120 X64.657 Y29.936
G01 F120 X64.632 Y29.936
G01 F120 X64.632 Y29.986
G01 F120 X64.606 Y29.986
G01 F120 X64.606 Y30.037
G01 F120 X64.581 Y30.037
G01 F120 X64.581 Y30.088
G01 F120 X64.556 Y30.088
G01 F120 X64.556 Y30.113
G01 F120 X64.530 Y30.113
G01 F120 X64.530 Y30.139
G01 F120 X64.505 Y30.139
G01 F120 X64.505 Y30.164
G01 F120 X64.480 Y30.164
G01 F120 X64.480 Y30.190
G01 F120 X64.454 Y30.190
G01 F120 X64.454 Y30.215
G01 F120 X64.429 Y30.215
G01 F120 X64.429 Y30.240
G01 F120 X64.378 Y30.240
G01 F120 X64.378 Y30.266
G01 F120 X64.327 Y30.266
G01 F120 X64.327 Y30.291
G01 F120 X64.302 Y30.291
G01 F120 X64.302 Y30.317
G01 F120 X64.225 Y30.317
G01 F120 X64.225 Y30.342
G01 F120 X64.073 Y30.342
G01 F120 X64.073 Y30.367
G01 F120 X62.368 Y30.367
G00 F3000 Z5.000
G00 F3000 X62.368 Y27.827
G00 F1500 Z0
G01 F120 Z-0.200
G01 F120 X62.368 Y27.802
G01 F120 X62.216 Y27.802
G01 F120 X62.216 Y27.777
G01 F120 X62.140 Y27.777
G01 F120 X62.140 Y27.751
G01 F120 X62.089 Y27.751
G01 F120 X62.089 Y27.726
G01 F120 X62.063 Y27.726
G01 F120 X62.063 Y27.700
G01 F120 X62.013 Y27.700
G01 F120 X62.013 Y27.675
G01 F120 X61.987 Y27.675
G01 F120 X61.987 Y27.649
G01 F120 X61.962 Y27.649
G01 F120 X61.962 Y27.624
G01 F120 X61.936 Y27.624
G01 F120 X61.936 Y27.599
G01 F120 X61.911 Y27.599
G01 F120 X61.911 Y27.573
G01 F120 X61.886 Y27.573
G01 F120 X61.886 Y27.548
G01 F120 X61.860 Y27.548
G01 F120 X61.860 Y27.497
G01 F120 X61.835 Y27.497
G01 F120 X61.835 Y27.472
G01 F120 X61.809 Y27.472
G01 F120 X61.809 Y27.421
G01 F120 X61.784 Y27.421
G01 F120 X61.784 Y27.345
G01 F120 X61.759 Y27.345
G01 F120 X61.759 Y27.167
G01 F120 X61.733 Y27.167
G01 F120 X61.733 Y26.834
G01 F120 X61.759 Y26.834
G01 F120 X61.759 Y26.656
G01 F120 X61.784 Y26.656
G01 F120 X61.784 Y26.605
G01 F120 X61.809 Y26.605
G01 F120 X61.809 Y26.554
G01 F120 X61.835 Y26.554
G01 F120 X61.835 Y26.503
G01 F120 X61.860 Y26.503
G01 F120 X61.860 Y26.453
G01 F120 X61.886 Y26.453
G01 F120 X61.886 Y26.427
G01 F120 X61.911 Y26.427
G01 F120 X61.911 Y26.402
G01 F120 X61.936 Y26.402
G01 F120 X61.936 Y26.376
G01 F120 X61.962 Y26.376
G01 F120 X61.962 Y26.351
G01 F120 X61.987 Y26.351
G01 F120 X61.987 Y26.326
G01 F120 X62.013 Y26.326
G01 F120 X62.013 Y26.300
G01 F120 X62.063 Y26.300
G01 F120 X62.063 Y26.275
G01 F120 X62.114 Y26.275
G01 F120 X62.114 Y26.249
G01 F120 X62.165 Y26.249
G01 F120 X62.165 Y26.224
G01 F120 X62.241 Y26.224
G01 F120 X62.241 Y26.200
G01 F120 X62.974 Y26.193
G01 F120 X63.110 Y26.164
G01 F120 X63.282 Y26.164
G01 F120 X63.430 Y26.199
G01 F120 X64.200 Y26.199
G01 F120 X64.200 Y26.224
G01 F120 X64.276 Y26.224
G01 F120 X64.276 Y26.249
G01 F120 X64.327 Y26.249
G01 F120 X64.327 Y26.275
G01 F120 X64.378 Y26.275
G01 F120 X64.378 Y26.300
G01 F120 X64.429 Y26.300
G01 F120 X64.429 Y26.326
G01 F120 X64.454 Y26.326
G01 F120 X64.454 Y26.351
G01 F120 X64.480 Y26.351
G01 F120 X64.480 Y26.376
G01 F120 X64.505 Y26.376
G01 F120 X64.505 Y26.402
G01 F120 X64.530 Y26.402
G01 F120 X64.530 Y26.427
G01 F120 X64.556 Y26.427
G01 F120 X64.556 Y26.453
G01 F120 X64.581 Y26.453
G01 F120 X64.581 Y26.503
G01 F120 X64.606 Y26.503
G01 F120 X64.606 Y26.554
G01 F120 X64.632 Y26.554
G01 F120 X64.632 Y26.605
G01 F120 X64.657 Y26.605
G01 F120 X64.657 Y26.681
G01 F120 X64.683 Y26.681
G01 F120 X64.683 Y27.319
G01 F120 X64.657 Y27.319
G01 F120 X64.657 Y27.396
G01 F120 X64.632 Y27.396
G01 F120 X64.632 Y27.446
G01 F120 X64.606 Y27.446
G01 F120 X64.606 Y27.497
G01 F120 X64.581 Y27.497
G01 F120 X64.581 Y27.548
G01 F120 X64.556 Y27.548
G01 F120 X64.556 Y27.573
G01 F120 X64.530 Y27.573
G01 F120 X64.530 Y27.599
G01 F120 X64.505 Y27.599
G01 F120 X64.505 Y27.624
G01 F120 X64.480 Y27.624
G01 F120 X64.480 Y27.649
G01 F120 X64.454 Y27.649
G01 F120 X64.454 Y27.675
G01 F120 X64.429 Y27.675
G01 F120 X64.429 Y27.700
G01 F120 X64.378 Y27.700
G01 F120 X64.378 Y27.726
G01 F120 X64.327 Y27.726
G01 F120 X64.327 Y27.751
G01 F120 X64.302 Y27.751
G01 F120 X64.302 Y27.777
G01 F120 X64.225 Y27.777
G01 F120 X64.225 Y27.802
G01 F120 X64.073 Y27.802
G01 F120 X64.073 Y27.827
G01 F120 X62.368 Y27.827
G00 F3000 Z5.000
G00 F3000 X62.343 Y25.287
G00 F1500 Z0
G01 F120 Z-0.200
G01 F120 X62.343 Y25.262
G01 F120 X62.216 Y25.262
G01 F120 X62.216 Y25.236
G01 F120 X62.140 Y25.236
G01 F120 X62.140 Y25.211
G01 F120 X62.089 Y25.211
G01 F120 X62.089 Y25.186
G01 F120 X62.063 Y25.186
G01 F120 X62.063 Y25.160
G01 F120 X62.013 Y25.160
G01 F120 X62.013 Y25.135
G01 F120 X61.987 Y25.135
G01 F120 X61.987 Y25.110
G01 F120 X61.962 Y25.110
G01 F120 X61.962 Y25.084
G01 F120 X61.936 Y25.084
G01 F120 X61.936 Y25.059
G01 F120 X61.911 Y25.059
G01 F120 X61.911 Y25.033
G01 F120 X61.886 Y25.033
G01 F120 X61.886 Y25.008
G01 F120 X61.860 Y25.008
G01 F120 X61.860 Y24.957
G01 F120 X61.835 Y24.957
G01 F120 X61.835 Y24.932
G01 F120 X61.809 Y24.932
G01 F120 X61.809 Y24.881
G01 F120 X61.784 Y24.881
G01 F120 X61.784 Y24.805
G01 F120 X61.759 Y24.805
G01 F120 X61.759 Y24.627
G01 F120 X61.733 Y24.627
G01 F120 X61.733 Y24.294
G01 F120 X61.759 Y24.294
G01 F120 X61.759 Y24.116
G01 F120 X61.784 Y24.116
G01 F120 X61.784 Y24.065
G01 F120 X61.809 Y24.065
G01 F120 X61.809 Y24.014
G01 F120 X61.835 Y24.014
G01 F120 X61.835 Y23.963
G01 F120 X61.860 Y23.963
G01 F120 X61.860 Y23.913
G01 F120 X61.886 Y23.913
G01 F120 X61.886 Y23.887
G01 F120 X61.911 Y23.887
G01 F120 X61.911 Y23.862
G01 F120 X61.936 Y23.862
G01 F120 X61.936 Y23.836
G01 F120 X61.962 Y23.836
G01 F120 X61.962 Y23.811
G01 F120 X61.987 Y23.811
G01 F120 X61.987 Y23.786
G01 F120 X62.013 Y23.786
G01 F120 X62.013 Y23.760
G01 F120 X62.063 Y23.760
G01 F120 X62.063 Y23.735
G01 F120 X62.114 Y23.735
G01 F120 X62.114 Y23.709
G01 F120 X62.165 Y23.709
G01 F120 X62.165 Y23.684
G01 F120 X62.241 Y23.684
G01 F120 X62.241 Y23.660
G01 F120 X62.974 Y23.653
G01 F120 X63.110 Y23.624
G01 F120 X63.282 Y23.624
G01 F120 X63.430 Y23.659
G01 F120 X64.200 Y23.659
G01 F120 X64.200 Y23.684
G01 F120 X64.276 Y23.684
G01 F120 X64.276 Y23.709
G01 F120 X64.327 Y23.709
G01 F120 X64.327 Y23.735
G01 F120 X64.378 Y23.735
G01 F120 X64.378 Y23.760
G01 F120 X64.403 Y23.760
G01 F120 X64.403 Y23.786
G01 F120 X64.454 Y23.786
G01 F120 X64.454 Y23.811
G01 F120 X64.480 Y23.811
G01 F120 X64.480 Y23.836
G01 F120 X64.505 Y23.836
G01 F120 X64.505 Y23.862
G01 F120 X64.530 Y23.862
G01 F120 X64.530 Y23.887
G01 F120 X64.556 Y23.887
G01 F120 X64.556 Y23.913
G01 F120 X64.581 Y23.913
G01 F120 X64.581 Y23.963
G01 F120 X64.606 Y23.963
G01 F120 X64.606 Y24.014
G01 F120 X64.632 Y24.014
G01 F120 X64.632 Y24.065
G01 F120 X64.657 Y24.065
G01 F120 X64.657 Y24.141
G01 F120 X64.683 Y24.141
G01 F120 X64.683 Y24.805
G01 F120 X64.657 Y24.805
G01 F120 X64.657 Y24.856
G01 F120 X64.632 Y24.856
G01 F120 X64.632 Y24.906
G01 F120 X64.606 Y24.906
G01 F120 X64.606 Y24.957
G01 F120 X64.581 Y24.957
G01 F120 X64.581 Y25.008
G01 F120 X64.556 Y25.008
G01 F120 X64.556 Y25.033
G01 F120 X64.530 Y25.033
G01 F120 X64.530 Y25.059
G01 F120 X64.505 Y25.059
G01 F120 X64.505 Y25.084
G01 F120 X64.480 Y25.084
G01 F120 X64.480 Y25.110
G01 F120 X64.454 Y25.110
G01 F120 X64.454 Y25.135
G01 F120 X64.429 Y25.135
G01 F120 X64.429 Y25.160
G01 F120 X64.378 Y25.160
G01 F120 X64.378 Y25.186
G01 F120 X64.353 Y25.186
G01 F120 X64.353 Y25.211
G01 F120 X64.302 Y25.211
G01 F120 X64.302 Y25.236
G01 F120 X64.225 Y25.236
G01 F120 X64.225 Y25.262
G01 F120 X64.099 Y25.262
G01 F120 X64.099 Y25.287
G01 F120 X62.343 Y25.287
G00 F3000 Z5.000
G00 F3000 X62.343 Y22.747
G00 F1500 Z0
G01 F120 Z-0.200
G01 F120 X62.343 Y22.722
G01 F120 X62.216 Y22.722
G01 F120 X62.216 Y22.697
G01 F120 X62.140 Y22.697
G01 F120 X62.140 Y22.671
G01 F120 X62.089 Y22.671
G01 F120 X62.089 Y22.646
G01 F120 X62.038 Y22.646
G01 F120 X62.038 Y22.620
G01 F120 X62.013 Y22.620
G01 F120 X62.013 Y22.595
G01 F120 X61.987 Y22.595
G01 F120 X61.987 Y22.570
G01 F120 X61.962 Y22.570
G01 F120 X61.962 Y22.544
G01 F120 X61.936 Y22.544
G01 F120 X61.936 Y22.519
G01 F120 X61.911 Y22.519
G01 F120 X61.911 Y22.493
G01 F120 X61.886 Y22.493
G01 F120 X61.886 Y22.468
G01 F120 X61.860 Y22.468
G01 F120 X61.860 Y22.417
G01 F120 X61.835 Y22.417
G01 F120 X61.835 Y22.392
G01 F120 X61.809 Y22.392
G01 F120 X61.809 Y22.341
G01 F120 X61.784 Y22.341
G01 F120 X61.784 Y22.265
G01 F120 X61.759 Y22.265
G01 F120 X61.759 Y22.087
G01 F120 X61.733 Y22.087
G01 F120 X61.733 Y21.754
G01 F120 X61.759 Y21.754
G01 F120 X61.759 Y21.576
G01 F120 X61.784 Y21.576
G01 F120 X61.784 Y21.525
G01 F120 X61.809 Y21.525
G01 F120 X61.809 Y21.474
G01 F120 X61.835 Y21.474
G01 F120 X61.835 Y21.423
G01 F120 X61.860 Y21.423
G01 F120 X61.860 Y21.373
G01 F120 X61.886 Y21.373
G01 F120 X61.886 Y21.347
G01 F120 X61.911 Y21.347
G01 F120 X61.911 Y21.322
G01 F120 X61.936 Y21.322
G01 F120 X61.936 Y21.296
G01 F120 X61.962 Y21.296
G01 F120 X61.962 Y21.271
G01 F120 X61.987 Y21.271
G01 F120 X61.987 Y21.245
G01 F120 X62.013 Y21.245
G01 F120 X62.013 Y21.220
G01 F120 X62.063 Y21.220
G01 F120 X62.063 Y21.195
G01 F120 X62.114 Y21.195
G01 F120 X62.114 Y21.169
G01 F120 X62.165 Y21.169
G01 F120 X62.165 Y21.144
G01 F120 X62.241 Y21.144
G01 F120 X62.241 Y21.120
G01 F120 X62.974 Y21.113
G01 F120 X63.110 Y21.084
G01 F120 X63.282 Y21.084
G01 F120 X63.430 Y21.119
G01 F120 X64.200 Y21.119
G01 F120 X64.200 Y21.144
G01 F120 X64.276 Y21.144
G01 F120 X64.276 Y21.169
G01 F120 X64.327 Y21.169
G01 F120 X64.327 Y21.195
G01 F120 X64.378 Y21.195
G01 F120 X64.378 Y21.220
G01 F120 X64.403 Y21.220
G01 F120 X64.403 Y21.245
G01 F120 X64.454 Y21.245
G01 F120 X64.454 Y21.271
G01 F120 X64.480 Y21.271
G01 F120 X64.480 Y21.296
G01 F120 X64.505 Y21.296
G01 F120 X64.505 Y21.322
G01 F120 X64.530 Y21.322
G01 F120 X64.530 Y21.347
G01 F120 X64.556 Y21.347
G01 F120 X64.556 Y21.398
G01 F120 X64.581 Y21.398
G01 F120 X64.581 Y21.423
G01 F120 X64.606 Y21.423
G01 F120 X64.606 Y21.474
G01 F120 X64.632 Y21.474
G01 F120 X64.632 Y21.525
G01 F120 X64.657 Y21.525
G01 F120 X64.657 Y21.601
G01 F120 X64.683 Y21.601
G01 F120 X64.683 Y22.265
G01 F120 X64.657 Y22.265
G01 F120 X64.657 Y22.341
G01 F120 X64.632 Y22.341
G01 F120 X64.632 Y22.366
G01 F120 X64.606 Y22.366
G01 F120 X64.606 Y22.417
G01 F120 X64.581 Y22.417
G01 F120 X64.581 Y22.468
G01 F120 X64.556 Y22.468
G01 F120 X64.556 Y22.493
G01 F120 X64.530 Y22.493
G01 F120 X64.530 Y22.519
G01 F120 X64.505 Y22.519
G01 F120 X64.505 Y22.544
G01 F120 X64.480 Y22.544
G01 F120 X64.480 Y22.570
G01 F120 X64.454 Y22.570
G01 F120 X64.454 Y22.595
G01 F120 X64.429 Y22.595
G01 F120 X64.429 Y22.620
G01 F120 X64.378 Y22.620
G01 F120 X64.378 Y22.646
G01 F120 X64.353 Y22.646
G01 F120 X64.353 Y22.671
G01 F120 X64.302 Y22.671
G01 F120 X64.302 Y22.697
G01 F120 X64.225 Y22.697
G01 F120 X64.225 Y22.722
G01 F120 X64.099 Y22.722
G01 F120 X64.099 Y22.747
G01 F120 X62.343 Y22.747
G00 F3000 Z5.000
G00 F3000 Z5.000
G00 F3000 X0.000 Y0.000
M05
M30
%