( PCB drills )
( Generated by Rapid-PCB.com )
( Material Size)
( X= 100.000, Y= 70.000, Z= 1.700)
()
G00
G17
G21
G40
G49
G54
G80
G90
G94
G00 F3000 Z5.000
M03 S9000
G00 F3000 X37.800 Y11.732
G00 F1500 Z0
G01 F30 Z-1.600
G00 F3000 Z5.000
G00 F3000 X37.800 Y19.352
G00 F1500 Z0
G01 F30 Z-1.600
G00 F3000 Z5.000
G00 F3000 X14.940 Y29.512
G00 F1500 Z0
G01 F30 Z-1.600
G00 F3000 Z5.000
G00 F3000 X45.420 Y29.512
G00 F1500 Z0
G01 F30 Z-1.600
G00 F3000 Z5.000
G00 F3000 X83.520 Y21.892
G00 F1500 Z0
G01 F30 Z-1.600
G00 F3000 Z5.000
G00 F3000 X78.440 Y47.292
G00 F1500 Z0
G01 F30 Z-1.600
G00 F3000 Z5.000
G00 F3000 X37.800 Y32.052
G00 F1500 Z0
G01 F30 Z-1.600
G00 F3000 Z5.000
G00 F3000 X14.940 Y39.672
G00 F1500 Z0
G01 F30 Z-1.600
G00 F3000 Z5.000
G00 F3000 X27.640 Y19.352
G00 F1500 Z0
G01 F30 Z-1.600
G00 F3000 Z5.000
G00 F3000 X78.440 Y37.132
G00 F1500 Z0
G01 F30 Z-1.600
G00 F3000 Z5.000
G00 F3000 X55.580 Y37.132
G00 F1500 Z0
G01 F30 Z-1.600
G00 F3000 Z5.000
G00 F3000 X83.520 Y26.972
G00 F1500 Z0
G01 F30 Z-1.600
G00 F3000 Z5.000
G00 F3000 X83.520 Y37.132
G00 F1500 Z0
G01 F30 Z-1.600
G00 F3000 Z5.000
G00 F3000 X25.100 Y42.212
G00 F1500 Z0
G01 F30 Z-1.600
G00 F3000 Z5.000
G00 F3000 X45.420 Y32.052
G00 F1500 Z0
G01 F30 Z-1.600
G00 F3000 Z5.000
G00 F3000 X25.100 Y39.672
G00 F1500 Z0
G01 F30 Z-1.600
G00 F3000 Z5.000
G00 F3000 X83.520 Y24.432
G00 F1500 Z0
G01 F30 Z-1.600
G00 F3000 Z5.000
G00 F3000 X27.640 Y11.732
G00 F1500 Z0
G01 F30 Z-1.600
G00 F3000 Z5.000
G00 F3000 X25.100 Y37.132
G00 F1500 Z0
G01 F30 Z-1.600
G00 F3000 Z5.000
G00 F3000 X45.420 Y34.592
G00 F1500 Z0
G01 F30 Z-1.600
G00 F3000 Z5.000
G00 F3000 X55.580 Y26.972
G00 F1500 Z0
G01 F30 Z-1.600
G00 F3000 Z5.000
G00 F3000 X27.640 Y32.052
G00 F1500 Z0
G01 F30 Z-1.600
G00 F3000 Z5.000
G00 F3000 X45.420 Y47.292
G00 F1500 Z0
G01 F30 Z-1.600
G00 F3000 Z5.000
G00 F3000 X86.060 Y47.292
G00 F1500 Z0
G01 F30 Z-1.600
G00 F3000 Z5.000
G00 F3000 X88.600 Y47.292
G00 F1500 Z0
G01 F30 Z-1.600
G00 F3000 Z5.000
G00 F3000 X45.420 Y44.752
G00 F1500 Z0
G01 F30 Z-1.600
G00 F3000 Z5.000
G00 F3000 X55.580 Y44.793
G00 F1500 Z0
G01 F30 Z-1.600
G00 F3000 Z5.000
G00 F3000 X55.580 Y47.292
G00 F1500 Z0
G01 F30 Z-1.600
G00 F3000 Z5.000
G00 F3000 X70.820 Y34.592
G00 F1500 Z0
G01 F30 Z-1.600
G00 F3000 Z5.000
G00 F3000 X70.820 Y37.132
G00 F1500 Z0
G01 F30 Z-1.600
G00 F3000 Z5.000
G00 F3000 X70.820 Y29.512
G00 F1500 Z0
G01 F30 Z-1.600
G00 F3000 Z5.000
G00 F3000 X70.820 Y32.052
G00 F1500 Z0
G01 F30 Z-1.600
G00 F3000 Z5.000
G00 F3000 X63.200 Y34.592
G00 F1500 Z0
G01 F30 Z-1.600
G00 F3000 Z5.000
G00 F3000 X63.200 Y21.892
G00 F1500 Z0
G01 F30 Z-1.600
G00 F3000 Z5.000
G00 F3000 X63.200 Y29.512
G00 F1500 Z0
G01 F30 Z-1.600
G00 F3000 Z5.000
G00 F3000 X70.820 Y24.432
G00 F1500 Z0
G01 F30 Z-1.600
G00 F3000 Z5.000
G00 F3000 X63.200 Y26.972
G00 F1500 Z0
G01 F30 Z-1.600
G00 F3000 Z5.000
G00 F3000 X63.200 Y24.432
G00 F1500 Z0
G01 F30 Z-1.600
G00 F3000 Z5.000
G00 F3000 X70.820 Y21.892
G00 F1500 Z0
G01 F30 Z-1.600
G00 F3000 Z5.000
G00 F3000 X70.820 Y26.972
G00 F1500 Z0
G01 F30 Z-1.600
G00 F3000 Z5.000
G00 F3000 X63.200 Y32.052
G00 F1500 Z0
G01 F30 Z-1.600
G00 F3000 Z5.000
G00 F3000 X63.200 Y37.132
G00 F1500 Z0
G01 F30 Z-1.600
G00 F3000 Z5.000
G00 F3000 Z5.000
G00 F3000 X0.000 Y0.000
M05
M30
%